; generated by PrusaSlicer 2.0.0+win64 on 2020-04-27 at 19:34:49

; 

; external perimeters extrusion width = 0.60mm
; perimeters extrusion width = 0.50mm
; infill extrusion width = 0.50mm
; solid infill extrusion width = 0.50mm
; top infill extrusion width = 0.45mm
; support material extrusion width = 0.35mm
; first layer extrusion width = 0.42mm

M73 P0 R237
M73 Q0 S241
M201 X1000 Y1000 Z1000 E5000 ; sets maximum accelerations, mm/sec^2
M203 X200 Y200 Z12 E120 ; sets maximum feedrates, mm/sec
M204 P1250 R1250 T1250 ; sets acceleration (P, T) and retract acceleration (R), mm/sec^2
M205 X8.00 Y8.00 Z0.40 E1.50 ; sets the jerk limits, mm/sec
M205 S0 T0 ; sets the minimum extruding and travel feed rate, mm/sec
M107
M115 U3.8.0 ; tell printer latest fw version
G90 ; use absolute coordinates
M83 ; extruder relative mode
M104 S215 ; set extruder temp
M140 S70 ; set bed temp
M190 S70 ; wait for bed temp
M109 S215 ; wait for extruder temp
G28 W ; home all without mesh bed level
G80 ; mesh bed leveling
G1 Y-3.0 F1000.0 ; go outside print area
G92 E0.0
G1 X60.0 E9.0 F1000.0 ; intro line
M73 Q0 S241
M73 P0 R237
G1 X100.0 E12.5 F1000.0 ; intro line
G92 E0.0
M221 S95
M900 K30 ; Filament gcode
G21 ; set units to millimeters
G90 ; use absolute coordinates
M83 ; use relative distances for extrusion
;BEFORE_LAYER_CHANGE
G92 E0.0
;0.2


G1 E-0.80000 F2100.00000
G1 Z0.600 F10800.000
;AFTER_LAYER_CHANGE
;0.2
G1 X42.428 Y23.721
G1 Z0.200
G1 E0.80000 F2100.00000
M204 S1000
G1 F1200
G1 X43.776 Y22.300 E0.06141
G1 X45.370 Y21.134 E0.06193
G1 X47.118 Y20.284 E0.06095
G1 X48.714 Y19.814 E0.05218
G1 X63.789 Y16.596 E0.48331
G1 X64.885 Y16.429 E0.03475
G1 X135.982 Y16.383 E2.22919
G1 X182.784 Y16.553 E1.46745
G1 X184.061 Y16.642 E0.04013
G1 X201.061 Y19.768 E0.54195
G1 X202.894 Y20.289 E0.05976
G1 X203.923 Y20.745 E0.03530
G1 X204.801 Y21.239 E0.03157
G1 X205.736 Y21.895 E0.03580
G1 X206.532 Y22.584 E0.03304
G1 X207.328 Y23.423 E0.03625
G1 X208.019 Y24.333 E0.03582
G1 X208.569 Y25.222 E0.03280
G1 X209.051 Y26.213 E0.03454
G1 X209.415 Y27.193 E0.03280
G1 X209.706 Y28.306 E0.03606
G1 X209.860 Y29.301 E0.03157
G1 X209.928 Y30.440 E0.03575
G1 X209.929 Y179.523 E4.67442
G1 X209.841 Y180.868 E0.04225
G1 X209.619 Y182.073 E0.03842
G1 X209.228 Y183.350 E0.04188
G1 X208.670 Y184.590 E0.04263
G1 X207.876 Y185.871 E0.04727
G1 X207.023 Y186.918 E0.04233
G1 X205.957 Y187.928 E0.04606
G1 X204.743 Y188.797 E0.04680
G1 X203.430 Y189.488 E0.04653
G1 X202.172 Y189.957 E0.04209
G1 X200.756 Y190.286 E0.04558
G1 X199.279 Y190.425 E0.04652
G1 X50.922 Y190.428 E4.65163
G1 X49.601 Y190.338 E0.04152
G1 X48.404 Y190.114 E0.03818
G1 X47.143 Y189.725 E0.04137
G1 X45.910 Y189.170 E0.04242
G1 X44.629 Y188.376 E0.04724
G1 X43.582 Y187.524 E0.04233
G1 X42.571 Y186.456 E0.04610
G1 X41.703 Y185.244 E0.04674
G1 X41.012 Y183.929 E0.04659
G1 X40.543 Y182.671 E0.04209
G1 X40.214 Y181.257 E0.04552
G1 X40.075 Y179.778 E0.04657
G1 X40.072 Y30.422 E4.68297
G1 X40.162 Y29.102 E0.04149
G1 X40.386 Y27.905 E0.03818
G1 X40.775 Y26.642 E0.04142
G1 X41.330 Y25.410 E0.04238
G1 X42.396 Y23.772 E0.06128
G1 F8640
G1 X43.776 Y22.300 E-0.46589
G1 X44.804 Y21.548 E-0.29411
G1 E-0.04000 F2100.00000
G1 Z0.800 F10800.000
G1 X190.393 Y20.460
G1 Z0.200
G1 E0.80000 F2100.00000
G1 F1200
G1 X199.434 Y20.466 E0.28347
G1 X201.278 Y20.720 E0.05836
G1 X203.053 Y21.314 E0.05871
G1 X205.124 Y22.565 E0.07586
G1 X206.728 Y24.109 E0.06980
G1 X208.222 Y26.520 E0.08895
G1 X208.961 Y29.212 E0.08752
G1 X209.043 Y179.975 E4.72709
G1 X208.317 Y183.246 E0.10504
G1 X206.561 Y186.125 E0.10573
G1 X205.146 Y187.443 E0.06064
G1 X203.496 Y188.479 E0.06109
G1 X201.715 Y189.168 E0.05986
G1 X199.855 Y189.502 E0.05926
G1 X180.264 Y189.514 E0.61427
G1 X178.934 Y189.329 E0.04209
G1 X177.648 Y188.982 E0.04177
G1 X174.383 Y187.056 E0.11884
G1 X172.400 Y184.687 E0.09688
G1 X171.232 Y181.830 E0.09677
G1 X171.043 Y180.575 E0.03979
G1 X170.962 Y58.258 E3.83518
G1 X157.478 Y58.258 E0.42277
G1 X157.037 Y58.241 E0.01385
G1 X156.791 Y58.258 E0.00772
G1 X132.591 Y58.258 E0.75877
G1 X132.150 Y58.241 E0.01385
G1 X131.904 Y58.258 E0.00772
G1 X92.621 Y58.258 E1.23170
G1 X92.179 Y58.241 E0.01385
G1 X91.933 Y58.258 E0.00772
G1 X79.037 Y58.258 E0.40436
M73 Q0 S240
G1 X78.932 Y180.781 E3.84164
M73 P0 R236
G1 X78.786 Y181.763 E0.03111
G1 X77.677 Y184.557 E0.09427
G1 X75.808 Y186.887 E0.09367
G1 X72.583 Y188.888 E0.11899
G1 X71.133 Y189.314 E0.04739
G1 X69.803 Y189.509 E0.04214
G1 X50.520 Y189.543 E0.60461
G1 X47.254 Y188.817 E0.10492
G1 X44.418 Y187.092 E0.10408
G1 X42.987 Y185.552 E0.06591
G1 X41.924 Y183.799 E0.06426
G1 X41.241 Y181.867 E0.06427
G1 X40.957 Y179.805 E0.06525
G1 X40.957 Y30.025 E4.69625
G1 X41.703 Y26.705 E0.10670
G1 X43.459 Y23.850 E0.10509
G1 X44.787 Y22.609 E0.05699
G1 X46.294 Y21.628 E0.05637
G1 X48.288 Y20.831 E0.06734
G1 X50.189 Y20.494 E0.06053
G1 X58.018 Y20.467 E0.24548
G1 X60.354 Y18.310 E0.09968
G1 X62.604 Y17.219 E0.07843
G1 X65.064 Y16.755 E0.07848
G1 X65.809 Y16.765 E0.02337
G1 X66.134 Y16.742 E0.01023
G1 X135.705 Y16.744 E2.18133
G1 X135.925 Y16.758 E0.00693
G1 X136.362 Y16.742 E0.01372
G1 X183.416 Y16.746 E1.47534
G1 X185.771 Y17.204 E0.07523
G1 X187.943 Y18.215 E0.07509
G1 X190.058 Y20.018 E0.08716
G1 X190.357 Y20.412 E0.01549
G1 X190.202 Y20.837 F10800.000
G1 F1200
G1 X199.396 Y20.841 E0.28827
G1 X201.176 Y21.083 E0.05633
G1 X202.876 Y21.648 E0.05619
G1 X204.912 Y22.877 E0.07454
G1 X206.421 Y24.328 E0.06565
G1 X207.866 Y26.646 E0.08566
G1 X208.591 Y29.287 E0.08586
G1 X208.666 Y179.955 E4.72407
G1 X207.956 Y183.133 E0.10211
G1 X206.285 Y185.867 E0.10045
G1 X204.929 Y187.134 E0.05818
G1 X203.342 Y188.135 E0.05884
G1 X201.631 Y188.800 E0.05758
G1 X199.805 Y189.127 E0.05816
G1 X180.302 Y189.139 E0.61149
G1 X179.021 Y188.962 E0.04057
G1 X177.771 Y188.625 E0.04059
G1 X174.604 Y186.748 E0.11543
G1 X172.709 Y184.469 E0.09295
G1 X171.590 Y181.710 E0.09335
G1 X171.420 Y180.561 E0.03640
G1 X171.339 Y57.881 E3.84657
G1 X157.482 Y57.881 E0.43447
G1 X157.031 Y57.863 E0.01416
G1 X156.784 Y57.881 E0.00775
G1 X132.595 Y57.881 E0.75845
G1 X132.144 Y57.863 E0.01416
G1 X131.897 Y57.881 E0.00775
G1 X92.624 Y57.881 E1.23137
G1 X92.173 Y57.863 E0.01416
G1 X91.927 Y57.881 E0.00775
G1 X78.660 Y57.881 E0.41596
G1 X78.555 Y180.767 E3.85303
G1 X78.427 Y181.645 E0.02781
G1 X77.365 Y184.343 E0.09092
G1 X75.534 Y186.626 E0.09174
G1 X72.407 Y188.553 E0.11517
G1 X71.065 Y188.943 E0.04382
G1 X69.789 Y189.132 E0.04046
G1 X50.540 Y189.166 E0.60353
G1 X47.422 Y188.479 E0.10010
G1 X44.676 Y186.815 E0.10068
G1 X43.299 Y185.339 E0.06329
G1 X42.273 Y183.655 E0.06184
G1 X41.612 Y181.796 E0.06185
G1 X41.334 Y179.792 E0.06343
G1 X41.334 Y30.046 E4.69520
M73 Q0 S239
G1 X42.041 Y26.875 E0.10186
G1 X43.735 Y24.107 E0.10174
G1 X45.007 Y22.916 E0.05464
G1 X46.484 Y21.954 E0.05526
G1 X48.410 Y21.188 E0.06498
G1 X50.206 Y20.871 E0.05722
G1 X58.236 Y20.843 E0.25175
G1 X58.384 Y20.636 E0.00801
G1 X60.544 Y18.637 E0.09227
G1 X62.700 Y17.584 E0.07521
G1 X65.077 Y17.132 E0.07589
G1 X65.820 Y17.143 E0.02330
G1 X66.141 Y17.119 E0.01009
G1 X135.698 Y17.121 E2.18090
M73 P0 R235
G1 X135.919 Y17.136 E0.00695
G1 X136.366 Y17.119 E0.01401
G1 X183.398 Y17.123 E1.47465
G1 X185.676 Y17.570 E0.07279
G1 X187.759 Y18.545 E0.07214
G1 X189.796 Y20.290 E0.08408
G1 X190.166 Y20.789 E0.01947
G1 X190.009 Y21.214 F10800.000
G1 F1200
G1 X199.383 Y21.218 E0.29392
G1 X201.075 Y21.447 E0.05353
G1 X202.700 Y21.982 E0.05365
G1 X204.699 Y23.189 E0.07321
G1 X206.113 Y24.548 E0.06150
G1 X207.531 Y26.822 E0.08405
G1 X208.220 Y29.362 E0.08250
G1 X208.289 Y179.934 E4.72110
G1 X207.618 Y182.964 E0.09729
G1 X206.008 Y185.609 E0.09707
G1 X204.685 Y186.846 E0.05679
G1 X203.157 Y187.806 E0.05657
G1 X201.512 Y188.442 E0.05531
G1 X199.756 Y188.753 E0.05593
G1 X180.341 Y188.764 E0.60874
G1 X179.107 Y188.595 E0.03903
G1 X177.894 Y188.267 E0.03941
G1 X174.873 Y186.482 E0.11002
G1 X173.018 Y184.250 E0.09099
G1 X171.949 Y181.590 E0.08989
G1 X171.797 Y180.548 E0.03303
G1 X171.716 Y57.504 E3.85797
G1 X157.486 Y57.504 E0.44617
G1 X157.024 Y57.486 E0.01448
G1 X156.777 Y57.504 E0.00776
G1 X132.598 Y57.504 E0.75811
G1 X132.137 Y57.486 E0.01448
G1 X131.890 Y57.504 E0.00776
G1 X92.628 Y57.504 E1.23104
G1 X92.167 Y57.486 E0.01448
G1 X91.920 Y57.504 E0.00776
G1 X78.283 Y57.504 E0.42756
G1 X78.178 Y180.754 E3.86444
G1 X78.068 Y181.528 E0.02450
G1 X77.025 Y184.178 E0.08931
G1 X75.262 Y186.364 E0.08804
G1 X72.233 Y188.218 E0.11135
G1 X70.997 Y188.572 E0.04029
G1 X69.774 Y188.755 E0.03878
G1 X50.560 Y188.789 E0.60244
G1 X47.535 Y188.117 E0.09717
G1 X44.895 Y186.507 E0.09695
G1 X43.588 Y185.097 E0.06026
G1 X42.606 Y183.476 E0.05945
G1 X41.974 Y181.689 E0.05944
G1 X41.711 Y179.779 E0.06042
G1 X41.711 Y30.066 E4.69416
G1 X42.379 Y27.044 E0.09704
G1 X44.012 Y24.365 E0.09837
G1 X45.253 Y23.203 E0.05330
G1 X46.673 Y22.281 E0.05311
G1 X48.495 Y21.556 E0.06146
G1 X50.224 Y21.248 E0.05509
G1 X58.440 Y21.220 E0.25761
G1 X58.659 Y20.895 E0.01228
G1 X60.735 Y18.963 E0.08891
G1 X62.842 Y17.934 E0.07353
G1 X65.091 Y17.509 E0.07175
G1 X65.832 Y17.520 E0.02324
G1 X66.149 Y17.496 E0.00995
G1 X135.691 Y17.498 E2.18046
G1 X135.913 Y17.513 E0.00698
G1 X136.370 Y17.496 E0.01432
G1 X183.380 Y17.500 E1.47397
G1 X185.537 Y17.921 E0.06892
G1 X187.576 Y18.876 E0.07059
G1 X189.533 Y20.561 E0.08096
G1 X189.973 Y21.165 E0.02346
G1 X189.814 Y21.591 F10800.000
G1 F1200
G1 X199.370 Y21.595 E0.29962
G1 X200.974 Y21.811 E0.05075
G1 X202.524 Y22.316 E0.05110
G1 X204.486 Y23.501 E0.07187
G1 X205.806 Y24.768 E0.05738
G1 X207.175 Y26.948 E0.08071
G1 X207.850 Y29.436 E0.08083
G1 X207.911 Y179.914 E4.71811
M73 Q1 S238
G1 X207.257 Y182.851 E0.09436
G1 X205.701 Y185.389 E0.09334
G1 X204.442 Y186.557 E0.05383
G1 X202.973 Y187.476 E0.05434
G1 X201.394 Y188.083 E0.05304
G1 X199.707 Y188.379 E0.05371
G1 X180.379 Y188.388 E0.60602
G1 X179.194 Y188.227 E0.03749
G1 X178.017 Y187.910 E0.03822
G1 X175.094 Y186.175 E0.10658
G1 X173.328 Y184.034 E0.08703
G1 X172.307 Y181.472 E0.08645
G1 X172.174 Y180.534 E0.02969
G1 X172.093 Y57.126 E3.86937
M73 P1 R234
G1 X157.489 Y57.126 E0.45787
G1 X157.018 Y57.108 E0.01480
G1 X156.770 Y57.126 E0.00777
G1 X132.602 Y57.126 E0.75777
G1 X132.130 Y57.108 E0.01480
G1 X131.883 Y57.126 E0.00777
G1 X92.632 Y57.126 E1.23070
G1 X92.160 Y57.108 E0.01480
G1 X91.913 Y57.126 E0.00777
G1 X77.907 Y57.126 E0.43915
G1 X77.801 Y180.742 E3.87587
G1 X77.709 Y181.412 E0.02123
G1 X76.713 Y183.964 E0.08589
G1 X74.989 Y186.101 E0.08609
G1 X72.059 Y187.882 E0.10749
G1 X70.930 Y188.201 E0.03681
G1 X69.759 Y188.378 E0.03711
G1 X50.580 Y188.412 E0.60135
G1 X47.703 Y187.779 E0.09235
G1 X45.153 Y186.231 E0.09354
G1 X43.900 Y184.885 E0.05765
G1 X42.954 Y183.331 E0.05704
G1 X42.345 Y181.618 E0.05702
G1 X42.089 Y179.766 E0.05860
G1 X42.089 Y30.087 E4.69310
G1 X42.740 Y27.156 E0.09412
G1 X44.289 Y24.622 E0.09311
G1 X45.472 Y23.510 E0.05093
G1 X46.863 Y22.607 E0.05199
G1 X48.580 Y21.924 E0.05795
G1 X50.242 Y21.625 E0.05295
G1 X58.648 Y21.596 E0.26355
G1 X58.935 Y21.153 E0.01655
G1 X60.927 Y19.289 E0.08554
G1 X62.938 Y18.300 E0.07028
G1 X65.105 Y17.887 E0.06915
G1 X65.844 Y17.897 E0.02319
G1 X66.156 Y17.873 E0.00981
G1 X135.684 Y17.875 E2.18000
G1 X135.907 Y17.891 E0.00699
G1 X136.373 Y17.873 E0.01464
G1 X183.361 Y17.877 E1.47327
G1 X185.441 Y18.287 E0.06647
G1 X187.392 Y19.206 E0.06761
G1 X189.269 Y20.830 E0.07784
G1 X189.779 Y21.542 E0.02746
G1 X189.618 Y21.968 F10800.000
G1 F1200
G1 X199.358 Y21.972 E0.30537
G1 X200.875 Y22.175 E0.04800
G1 X202.348 Y22.650 E0.04852
G1 X204.273 Y23.813 E0.07053
G1 X205.499 Y24.988 E0.05325
G1 X206.840 Y27.125 E0.07909
G1 X207.479 Y29.510 E0.07742
G1 X207.534 Y179.894 E4.71518
G1 X206.918 Y182.682 E0.08953
G1 X205.425 Y185.131 E0.08995
G1 X204.226 Y186.247 E0.05135
G1 X202.820 Y187.131 E0.05206
G1 X201.276 Y187.725 E0.05187
G1 X199.659 Y188.005 E0.05147
G1 X180.416 Y188.013 E0.60333
G1 X179.280 Y187.860 E0.03595
G1 X178.140 Y187.552 E0.03703
G1 X175.364 Y185.909 E0.10114
G1 X173.638 Y183.817 E0.08506
G1 X172.667 Y181.355 E0.08297
G1 X172.551 Y180.522 E0.02639
G1 X172.469 Y56.749 E3.88079
G1 X157.493 Y56.749 E0.46957
G1 X157.010 Y56.730 E0.01515
G1 X156.763 Y56.749 E0.00778
G1 X132.606 Y56.749 E0.75743
G1 X132.123 Y56.730 E0.01515
G1 X131.876 Y56.749 E0.00778
G1 X92.635 Y56.749 E1.23035
G1 X92.153 Y56.730 E0.01515
G1 X91.905 Y56.749 E0.00778
G1 X77.530 Y56.749 E0.45073
G1 X77.424 Y180.729 E3.88731
M73 Q1 S237
G1 X77.349 Y181.298 E0.01798
G1 X76.401 Y183.751 E0.08244
G1 X74.716 Y185.839 E0.08413
G1 X71.932 Y187.526 E0.10206
G1 X70.839 Y187.835 E0.03563
G1 X69.717 Y188.003 E0.03556
G1 X50.600 Y188.035 E0.59940
G1 X47.816 Y187.417 E0.08942
G1 X45.372 Y185.924 E0.08980
G1 X44.191 Y184.643 E0.05462
G1 X43.287 Y183.152 E0.05466
G1 X42.706 Y181.510 E0.05461
G1 X42.466 Y179.754 E0.05560
G1 X42.466 Y30.107 E4.69206
M73 P1 R233
G1 X43.079 Y27.325 E0.08931
G1 X44.566 Y24.879 E0.08975
G1 X45.718 Y23.796 E0.04958
G1 X47.052 Y22.934 E0.04982
G1 X48.666 Y22.291 E0.05447
G1 X50.260 Y22.002 E0.05080
G1 X58.858 Y21.972 E0.26958
G1 X59.212 Y21.410 E0.02083
G1 X61.120 Y19.614 E0.08215
G1 X63.035 Y18.665 E0.06702
G1 X65.119 Y18.264 E0.06654
G1 X65.857 Y18.274 E0.02314
G1 X66.164 Y18.250 E0.00966
G1 X135.677 Y18.252 E2.17953
G1 X135.900 Y18.269 E0.00701
G1 X136.377 Y18.250 E0.01497
G1 X183.342 Y18.254 E1.47257
G1 X185.344 Y18.652 E0.06399
G1 X187.206 Y19.535 E0.06462
G1 X189.004 Y21.099 E0.07471
G1 X189.584 Y21.919 E0.03148
G1 X189.421 Y22.345 F10800.000
G1 F1200
G1 X199.345 Y22.349 E0.31116
G1 X200.777 Y22.539 E0.04527
G1 X202.172 Y22.985 E0.04592
G1 X204.061 Y24.125 E0.06917
G1 X205.193 Y25.209 E0.04916
G1 X206.484 Y27.250 E0.07570
G1 X207.109 Y29.583 E0.07574
G1 X207.157 Y179.873 E4.71222
G1 X206.557 Y182.569 E0.08662
G1 X205.149 Y184.873 E0.08465
G1 X203.983 Y185.959 E0.04998
G1 X202.636 Y186.801 E0.04979
G1 X201.159 Y187.366 E0.04958
G1 X199.611 Y187.630 E0.04925
G1 X180.453 Y187.637 E0.60067
G1 X179.366 Y187.493 E0.03439
G1 X178.263 Y187.195 E0.03582
G1 X175.586 Y185.603 E0.09768
G1 X173.948 Y183.602 E0.08106
G1 X173.026 Y181.240 E0.07950
G1 X172.928 Y180.509 E0.02311
G1 X172.846 Y56.372 E3.89223
G1 X157.497 Y56.372 E0.48127
G1 X157.003 Y56.353 E0.01550
G1 X156.755 Y56.372 E0.00779
G1 X132.610 Y56.372 E0.75707
G1 X132.116 Y56.353 E0.01550
G1 X131.868 Y56.372 E0.00779
G1 X92.639 Y56.372 E1.22999
G1 X92.145 Y56.353 E0.01550
G1 X91.898 Y56.372 E0.00779
G1 X77.153 Y56.372 E0.46230
G1 X77.047 Y180.718 E3.89878
G1 X76.988 Y181.185 E0.01477
G1 X76.088 Y183.538 E0.07899
G1 X74.491 Y185.534 E0.08013
G1 X71.805 Y187.170 E0.09863
G1 X70.771 Y187.464 E0.03370
G1 X69.675 Y187.628 E0.03474
G1 X50.620 Y187.657 E0.59745
G1 X47.985 Y187.079 E0.08460
G1 X45.631 Y185.648 E0.08636
G1 X44.481 Y184.402 E0.05318
G1 X43.620 Y182.975 E0.05226
G1 X43.069 Y181.404 E0.05220
G1 X42.843 Y179.741 E0.05262
G1 X42.843 Y30.128 E4.69102
G1 X43.440 Y27.438 E0.08640
G1 X44.842 Y25.137 E0.08448
G1 X45.963 Y24.083 E0.04824
G1 X47.241 Y23.261 E0.04763
G1 X48.753 Y22.659 E0.05103
G1 X50.278 Y22.379 E0.04863
G1 X59.071 Y22.349 E0.27568
G1 X59.490 Y21.666 E0.02512
G1 X61.313 Y19.939 E0.07875
G1 X63.132 Y19.030 E0.06375
G1 X65.133 Y18.641 E0.06390
G1 X65.870 Y18.652 E0.02310
G1 X66.172 Y18.627 E0.00950
G1 X135.669 Y18.629 E2.17905
G1 X135.892 Y18.646 E0.00701
G1 X136.381 Y18.627 E0.01532
G1 X183.323 Y18.631 E1.47186
M73 Q2 S236
G1 X185.247 Y19.017 E0.06150
G1 X187.020 Y19.864 E0.06162
G1 X188.737 Y21.368 E0.07158
G1 X189.387 Y22.296 E0.03552
G1 X189.223 Y22.722 F10800.000
G1 F1200
G1 X199.333 Y22.726 E0.31698
G1 X200.679 Y22.904 E0.04259
G1 X201.997 Y23.319 E0.04330
G1 X203.848 Y24.437 E0.06781
G1 X204.887 Y25.430 E0.04507
G1 X206.149 Y27.427 E0.07406
G1 X206.738 Y29.656 E0.07229
G1 X206.780 Y179.853 E4.70931
M73 P2 R232
G1 X206.219 Y182.400 E0.08180
G1 X204.872 Y184.615 E0.08127
G1 X203.767 Y185.649 E0.04745
G1 X202.452 Y186.472 E0.04863
G1 X201.043 Y187.007 E0.04726
G1 X199.564 Y187.256 E0.04703
G1 X180.490 Y187.262 E0.59804
G1 X179.450 Y187.125 E0.03290
G1 X178.432 Y186.857 E0.03302
G1 X175.856 Y185.338 E0.09375
G1 X174.260 Y183.386 E0.07905
G1 X173.386 Y181.126 E0.07598
