; generated by PrusaSlicer 2.0.0+win64 on 2020-04-30 at 16:27:43

; 

; external perimeters extrusion width = 0.60mm
; perimeters extrusion width = 0.50mm
; infill extrusion width = 0.50mm
; solid infill extrusion width = 0.50mm
; top infill extrusion width = 0.45mm
; support material extrusion width = 0.35mm
; first layer extrusion width = 0.42mm

M73 P0 R61
M73 Q0 S61
M201 X1000 Y1000 Z1000 E5000 ; sets maximum accelerations, mm/sec^2
M203 X200 Y200 Z12 E120 ; sets maximum feedrates, mm/sec
M204 P1250 R1250 T1250 ; sets acceleration (P, T) and retract acceleration (R), mm/sec^2
M205 X8.00 Y8.00 Z0.40 E1.50 ; sets the jerk limits, mm/sec
M205 S0 T0 ; sets the minimum extruding and travel feed rate, mm/sec
M107
M115 U3.8.0 ; tell printer latest fw version
G90 ; use absolute coordinates
M83 ; extruder relative mode
M104 S215 ; set extruder temp
M140 S70 ; set bed temp
M190 S70 ; wait for bed temp
M109 S215 ; wait for extruder temp
G28 W ; home all without mesh bed level
G80 ; mesh bed leveling
G1 Y-3.0 F1000.0 ; go outside print area
G92 E0.0
G1 X60.0 E9.0 F1000.0 ; intro line
M73 Q0 S61
M73 P0 R61
G1 X100.0 E12.5 F1000.0 ; intro line
G92 E0.0
M221 S95
M900 K30 ; Filament gcode
G21 ; set units to millimeters
G90 ; use absolute coordinates
M83 ; use relative distances for extrusion
;BEFORE_LAYER_CHANGE
G92 E0.0
;0.2


G1 E-0.80000 F2100.00000
G1 Z0.600 F10800.000
;AFTER_LAYER_CHANGE
;0.2
G1 X107.385 Y109.416
G1 Z0.200
G1 E0.80000 F2100.00000
M204 S1000
G1 F1200
G1 X110.627 Y106.328 E0.14036
G1 X111.499 Y105.682 E0.03402
G1 X112.436 Y105.135 E0.03402
G1 X113.426 Y104.693 E0.03402
G1 X114.459 Y104.360 E0.03402
G1 X115.638 Y104.125 E0.03769
G1 X116.829 Y104.033 E0.03744
G1 X133.955 Y104.032 E0.53698
G1 X135.664 Y104.180 E0.05380
G1 X137.316 Y104.617 E0.05356
G1 X138.876 Y105.332 E0.05380
G1 X140.284 Y106.298 E0.05356
G1 X141.477 Y107.455 E0.05210
G1 X143.970 Y110.523 E0.12394
G1 X144.810 Y111.920 E0.05112
G1 X145.409 Y113.428 E0.05088
G1 X145.721 Y114.774 E0.04331
G1 X145.845 Y116.149 E0.04331
G1 X145.842 Y134.421 E0.57289
G1 X145.737 Y135.595 E0.03695
G1 X145.496 Y136.741 E0.03671
G1 X145.123 Y137.850 E0.03671
G1 X144.622 Y138.909 E0.03671
G1 X143.956 Y139.965 E0.03915
G1 X143.169 Y140.924 E0.03891
G1 X139.758 Y144.138 E0.14695
G1 X138.776 Y144.818 E0.03744
G1 X137.720 Y145.375 E0.03744
G1 X136.605 Y145.803 E0.03744
G1 X135.454 Y146.093 E0.03720
G1 X132.258 Y146.436 E0.10081
G1 X115.879 Y146.431 E0.51355
G1 X114.729 Y146.322 E0.03622
G1 X113.599 Y146.081 E0.03622
G1 X112.505 Y145.711 E0.03622
G1 X111.454 Y145.214 E0.03646
G1 X110.454 Y144.588 E0.03695
G1 X109.536 Y143.850 E0.03695
G1 X108.711 Y143.008 E0.03695
G1 X107.986 Y142.069 E0.03720
G1 X105.720 Y138.253 E0.13916
G1 X105.201 Y136.931 E0.04453
G1 X104.874 Y135.549 E0.04453
G1 X104.745 Y134.009 E0.04843
G1 X104.755 Y115.730 E0.57313
G1 X104.870 Y114.604 E0.03549
G1 X105.114 Y113.491 E0.03573
G1 X105.480 Y112.420 E0.03549
G1 X105.969 Y111.391 E0.03573
G1 X106.617 Y110.360 E0.03818
G1 X107.348 Y109.462 E0.03629
G1 F8640
G1 X109.727 Y107.188 E-0.76000
G1 E-0.04000 F2100.00000
G1 Z0.800 F10800.000
G1 X109.031 Y108.316
G1 Z0.200
G1 E0.80000 F2100.00000
G1 F1200
G1 X109.265 Y107.976 E0.01294
G1 X110.724 Y106.446 E0.06627
G1 X114.881 Y104.405 E0.14518
G1 X116.522 Y104.220 E0.05178
G1 X134.559 Y104.223 E0.56554
G1 X136.882 Y104.648 E0.07405
G1 X139.025 Y105.608 E0.07364
G1 X141.325 Y107.545 E0.09429
G1 X142.226 Y108.897 E0.05092
G1 X143.316 Y109.983 E0.04824
G1 X144.336 Y111.367 E0.05393
G1 X145.449 Y114.230 E0.09631
G1 X145.660 Y134.796 E0.64486
G1 X145.188 Y137.196 E0.07669
G1 X144.133 Y139.379 E0.07603
G1 X142.092 Y141.613 E0.09487
G1 X141.554 Y141.988 E0.02057
G1 X141.287 Y142.365 E0.01446
G1 X139.364 Y144.221 E0.08381
G1 X137.316 Y145.364 E0.07353
G1 X135.057 Y145.988 E0.07348
G1 X132.573 Y146.080 E0.07794
G1 X132.034 Y146.062 E0.01689
G1 X131.783 Y146.080 E0.00790
G1 X115.455 Y146.066 E0.51195
G1 X113.022 Y145.605 E0.07766
G1 X110.793 Y144.536 E0.07750
G1 X108.469 Y142.383 E0.09933
G1 X107.206 Y140.266 E0.07730
G1 X107.101 Y140.008 E0.00874
G1 X106.331 Y139.045 E0.03867
G1 X105.456 Y137.165 E0.06502
G1 X104.996 Y135.187 E0.06368
G1 X104.933 Y115.488 E0.61765
G1 X105.404 Y113.102 E0.07624
G1 X106.459 Y110.920 E0.07599
G1 X108.500 Y108.687 E0.09485
G1 X108.982 Y108.350 E0.01844
G1 X109.303 Y108.586 F10800.000
G1 F1200
G1 X109.549 Y108.224 E0.01373
G1 X110.974 Y106.731 E0.06472
G1 X114.955 Y104.776 E0.13906
G1 X116.532 Y104.597 E0.04976
G1 X134.542 Y104.600 E0.56467
G1 X136.748 Y105.002 E0.07033
G1 X138.846 Y105.942 E0.07208
G1 X141.061 Y107.815 E0.09095
G1 X141.932 Y109.137 E0.04963
G1 X143.021 Y110.218 E0.04812
G1 X144.018 Y111.570 E0.05268
G1 X145.085 Y114.334 E0.09289
G1 X145.282 Y134.781 E0.64111
G1 X144.838 Y137.054 E0.07262
G1 X143.805 Y139.190 E0.07439
G1 X141.829 Y141.341 E0.09160
G1 X141.283 Y141.716 E0.02076
G1 X141.011 Y142.108 E0.01494
G1 X139.158 Y143.904 E0.08094
G1 X137.193 Y145.007 E0.07062
G1 X134.978 Y145.618 E0.07206
G1 X132.566 Y145.703 E0.07566
G1 X132.028 Y145.685 E0.01690
G1 X131.777 Y145.702 E0.00789
G1 X115.474 Y145.689 E0.51117
G1 X113.117 Y145.240 E0.07521
G1 X110.983 Y144.209 E0.07430
G1 X108.746 Y142.126 E0.09584
G1 X107.539 Y140.087 E0.07429
G1 X107.431 Y139.817 E0.00913
G1 X106.640 Y138.827 E0.03974
G1 X105.806 Y137.025 E0.06227
G1 X105.368 Y135.123 E0.06120
G1 X105.310 Y115.505 E0.61509
G1 X105.769 Y113.200 E0.07371
G1 X106.786 Y111.110 E0.07287
G1 X108.762 Y108.958 E0.09160
G1 X109.254 Y108.620 E0.01870
G1 X109.576 Y108.858 F10800.000
G1 F1200
G1 X109.834 Y108.472 E0.01454
G1 X111.224 Y107.015 E0.06314
G1 X115.030 Y105.147 E0.13295
G1 X116.543 Y104.974 E0.04774
G1 X134.524 Y104.977 E0.56379
G1 X136.657 Y105.369 E0.06800
G1 X138.667 Y106.274 E0.06911
G1 X140.795 Y108.084 E0.08761
G1 X141.638 Y109.376 E0.04836
G1 X142.726 Y110.454 E0.04802
G1 X143.699 Y111.774 E0.05141
G1 X144.721 Y114.437 E0.08945
G1 X144.905 Y134.765 E0.63737
G1 X144.473 Y136.956 E0.07005
G1 X143.479 Y139.000 E0.07125
G1 X141.568 Y141.069 E0.08831
G1 X141.012 Y141.444 E0.02101
G1 X140.734 Y141.851 E0.01547
G1 X138.951 Y143.588 E0.07802
G1 X137.029 Y144.666 E0.06911
G1 X134.900 Y145.249 E0.06920
G1 X132.561 Y145.326 E0.07340
G1 X132.020 Y145.307 E0.01695
G1 X131.770 Y145.325 E0.00787
G1 X115.491 Y145.312 E0.51040
G1 X113.259 Y144.889 E0.07125
G1 X111.173 Y143.882 E0.07262
G1 X109.024 Y141.870 E0.09231
G1 X107.872 Y139.911 E0.07126
G1 X107.762 Y139.626 E0.00956
G1 X106.972 Y138.647 E0.03946
G1 X106.169 Y136.921 E0.05969
G1 X105.740 Y135.059 E0.05991
G1 X105.687 Y115.523 E0.61253
G1 X106.119 Y113.343 E0.06969
G1 X107.113 Y111.300 E0.07123
G1 X109.024 Y109.231 E0.08831
G1 X109.526 Y108.891 E0.01901
G1 X109.849 Y109.130 F10800.000
G1 F1200
G1 X110.119 Y108.720 E0.01539
G1 X111.474 Y107.300 E0.06155
G1 X115.105 Y105.518 E0.12684
G1 X116.554 Y105.351 E0.04571
G1 X134.507 Y105.354 E0.56290
G1 X136.566 Y105.735 E0.06565
G1 X138.486 Y106.606 E0.06613
G1 X140.529 Y108.353 E0.08426
G1 X141.343 Y109.615 E0.04711
G1 X142.432 Y110.689 E0.04794
G1 X143.380 Y111.977 E0.05013
G1 X144.356 Y114.540 E0.08600
G1 X144.528 Y134.748 E0.63364
G1 X144.108 Y136.858 E0.06746
G1 X143.152 Y138.809 E0.06809
G1 X141.307 Y140.795 E0.08501
G1 X140.741 Y141.171 E0.02131
G1 X140.456 Y141.596 E0.01605
G1 X138.745 Y143.271 E0.07507
G1 X136.865 Y144.326 E0.06759
G1 X134.823 Y144.879 E0.06633
G1 X132.555 Y144.949 E0.07114
G1 X132.013 Y144.930 E0.01702
G1 X131.763 Y144.948 E0.00786
G1 X115.510 Y144.935 E0.50962
G1 X113.354 Y144.524 E0.06879
G1 X111.364 Y143.556 E0.06939
G1 X109.303 Y141.614 E0.08879
G1 X108.207 Y139.735 E0.06820
G1 X108.094 Y139.436 E0.01003
G1 X107.304 Y138.466 E0.03923
G1 X106.520 Y136.780 E0.05831
G1 X106.112 Y134.995 E0.05739
G1 X106.064 Y115.541 E0.60997
G1 X106.484 Y113.441 E0.06715
G1 X107.439 Y111.491 E0.06808
G1 X109.284 Y109.504 E0.08501
G1 X109.799 Y109.163 E0.01936
G1 X110.122 Y109.402 F10800.000
G1 F1200
G1 X110.404 Y108.967 E0.01627
G1 X111.724 Y107.584 E0.05993
G1 X115.181 Y105.889 E0.12074
G1 X116.565 Y105.728 E0.04368
G1 X134.489 Y105.731 E0.56201
G1 X136.474 Y106.101 E0.06329
G1 X138.305 Y106.938 E0.06313
G1 X140.262 Y108.620 E0.08090
G1 X141.065 Y109.880 E0.04687
G1 X141.182 Y109.972 E0.00466
G1 X142.154 Y110.945 E0.04313
G1 X143.061 Y112.179 E0.04800
G1 X143.992 Y114.642 E0.08255
G1 X144.151 Y134.732 E0.62992
G1 X143.743 Y136.760 E0.06486
G1 X142.827 Y138.617 E0.06492
G1 X141.048 Y140.520 E0.08170
G1 X140.469 Y140.898 E0.02167
G1 X140.176 Y141.342 E0.01668
G1 X138.538 Y142.955 E0.07210
G1 X136.744 Y143.968 E0.06460
G1 X134.746 Y144.509 E0.06487
G1 X132.551 Y144.572 E0.06886
G1 X132.005 Y144.552 E0.01712
G1 X131.756 Y144.571 E0.00786
G1 X116.572 Y144.571 E0.47606
G1 X116.265 Y144.547 E0.00966
G1 X115.522 Y144.557 E0.02330
G1 X113.451 Y144.158 E0.06614
G1 X111.556 Y143.230 E0.06615
G1 X109.582 Y141.360 E0.08527
G1 X108.542 Y139.562 E0.06513
G1 X108.426 Y139.246 E0.01053
G1 X107.635 Y138.284 E0.03906
G1 X106.883 Y136.676 E0.05567
G1 X106.485 Y134.932 E0.05609
G1 X106.441 Y115.559 E0.60741
G1 X106.849 Y113.540 E0.06459
G1 X107.765 Y111.683 E0.06492
G1 X109.543 Y109.779 E0.08169
G1 X110.071 Y109.435 E0.01976
G1 X110.395 Y109.675 F10800.000
G1 F1200
G1 X110.690 Y109.214 E0.01718
G1 X111.973 Y107.869 E0.05829
G1 X115.257 Y106.259 E0.11464
G1 X116.576 Y106.106 E0.04164
G1 X134.472 Y106.108 E0.56111
G1 X136.381 Y106.468 E0.06091
G1 X138.123 Y107.269 E0.06013
G1 X139.993 Y108.886 E0.07753
G1 X140.782 Y110.139 E0.04642
G1 X140.925 Y110.248 E0.00563
G1 X141.877 Y111.202 E0.04225
G1 X142.741 Y112.381 E0.04583
G1 X143.627 Y114.743 E0.07909
G1 X143.773 Y134.714 E0.62622
G1 X143.378 Y136.660 E0.06225
G1 X142.502 Y138.423 E0.06175
G1 X140.790 Y140.244 E0.07836
G1 X140.197 Y140.624 E0.02208
G1 X139.896 Y141.089 E0.01737
G1 X138.330 Y142.639 E0.06909
G1 X136.579 Y143.628 E0.06304
G1 X134.671 Y144.139 E0.06194
G1 X132.547 Y144.195 E0.06660
G1 X131.997 Y144.175 E0.01726
G1 X131.748 Y144.194 E0.00785
G1 X116.580 Y144.194 E0.47558
G1 X116.278 Y144.169 E0.00950
G1 X115.536 Y144.180 E0.02326
G1 X113.548 Y143.793 E0.06352
G1 X111.749 Y142.905 E0.06289
G1 X109.862 Y141.106 E0.08174
G1 X108.878 Y139.390 E0.06203
G1 X108.760 Y139.057 E0.01107
G1 X107.966 Y138.102 E0.03894
G1 X107.233 Y136.535 E0.05425
G1 X106.857 Y134.869 E0.05354
G1 X106.818 Y115.578 E0.60487
G1 X107.213 Y113.640 E0.06202
G1 X108.090 Y111.876 E0.06175
G1 X109.801 Y110.055 E0.07836
G1 X110.344 Y109.708 E0.02021
G1 X110.668 Y109.949 F10800.000
G1 F1200
G1 X110.976 Y109.460 E0.01813
G1 X112.223 Y108.153 E0.05662
G1 X115.332 Y106.630 E0.10856
G1 X116.587 Y106.483 E0.03960
G1 X134.454 Y106.485 E0.56022
G1 X136.244 Y106.820 E0.05710
G1 X137.941 Y107.600 E0.05855
G1 X139.724 Y109.152 E0.07411
G1 X140.500 Y110.399 E0.04605
G1 X140.668 Y110.525 E0.00661
G1 X141.600 Y111.458 E0.04134
G1 X142.421 Y112.582 E0.04364
G1 X143.262 Y114.843 E0.07564
G1 X143.396 Y134.698 E0.62255
G1 X143.030 Y136.514 E0.05811
G1 X142.177 Y138.230 E0.06008
G1 X140.533 Y139.967 E0.07497
G1 X139.924 Y140.350 E0.02256
G1 X139.614 Y140.838 E0.01812
G1 X138.121 Y142.324 E0.06606
G1 X136.458 Y143.270 E0.05999
G1 X134.595 Y143.769 E0.06047
G1 X132.545 Y143.818 E0.06432
G1 X131.989 Y143.797 E0.01743
G1 X131.740 Y143.817 E0.00783
G1 X116.588 Y143.817 E0.47507
G1 X116.291 Y143.792 E0.00934
G1 X115.550 Y143.803 E0.02324
G1 X113.692 Y143.444 E0.05934
G1 X111.943 Y142.580 E0.06118
G1 X110.144 Y140.853 E0.07817
G1 X109.215 Y139.220 E0.05891
G1 X109.094 Y138.869 E0.01165
G1 X108.297 Y137.919 E0.03889
G1 X107.596 Y136.432 E0.05154
G1 X107.229 Y134.807 E0.05223
G1 X107.196 Y115.596 E0.60233
G1 X107.562 Y113.785 E0.05793
G1 X108.415 Y112.069 E0.06008
G1 X110.058 Y110.333 E0.07497
G1 X110.618 Y109.981 E0.02071
G1 X110.942 Y110.224 F10800.000
G1 F1200
G1 X111.263 Y109.705 E0.01912
G1 X112.473 Y108.438 E0.05494
G1 X115.408 Y107.001 E0.10248
G1 X116.598 Y106.860 E0.03756
G1 X134.436 Y106.862 E0.55931
M73 Q1 S60
M73 P1 R60
G1 X136.151 Y107.186 E0.05471
G1 X137.757 Y107.931 E0.05551
G1 X139.454 Y109.416 E0.07070
G1 X140.217 Y110.660 E0.04577
G1 X140.413 Y110.803 E0.00759
G1 X141.323 Y111.714 E0.04038
G1 X142.101 Y112.782 E0.04143
G1 X142.897 Y114.942 E0.07217
G1 X143.019 Y134.680 E0.61889
G1 X142.665 Y136.414 E0.05549
G1 X141.853 Y138.036 E0.05687
G1 X140.278 Y139.689 E0.07158
G1 X139.650 Y140.075 E0.02310
G1 X139.331 Y140.587 E0.01893
G1 X137.912 Y142.010 E0.06302
G1 X136.337 Y142.912 E0.05691
G1 X134.520 Y143.399 E0.05897
G1 X132.542 Y143.441 E0.06201
G1 X131.980 Y143.419 E0.01764
G1 X131.732 Y143.440 E0.00781
G1 X116.597 Y143.440 E0.47456
G1 X116.305 Y143.415 E0.00917
G1 X115.565 Y143.425 E0.02322
G1 X113.790 Y143.079 E0.05670
G1 X112.137 Y142.255 E0.05790
G1 X110.426 Y140.602 E0.07461
G1 X109.553 Y139.052 E0.05577
G1 X109.429 Y138.681 E0.01227
G1 X108.627 Y137.735 E0.03888
G1 X107.946 Y136.290 E0.05009
G1 X107.602 Y134.745 E0.04964
G1 X107.573 Y115.615 E0.59980
G1 X107.926 Y113.886 E0.05535
G1 X108.739 Y112.264 E0.05687
G1 X110.313 Y110.611 E0.07158
G1 X110.891 Y110.255 E0.02127
G1 X111.217 Y110.500 F10800.000
G1 F1200
G1 X111.551 Y109.950 E0.02015
G1 X112.722 Y108.722 E0.05323
G1 X115.485 Y107.371 E0.09641
G1 X116.609 Y107.237 E0.03551
G1 X134.418 Y107.239 E0.55839
G1 X136.057 Y107.552 E0.05230
G1 X137.572 Y108.261 E0.05247
G1 X139.182 Y109.679 E0.06728
G1 X139.935 Y110.923 E0.04558
G1 X140.158 Y111.082 E0.00857
G1 X141.046 Y111.970 E0.03938
G1 X141.780 Y112.982 E0.03921
G1 X142.531 Y115.040 E0.06870
G1 X142.642 Y134.662 E0.61524
G1 X142.301 Y136.313 E0.05285
G1 X141.529 Y137.840 E0.05365
G1 X140.024 Y139.409 E0.06817
G1 X139.376 Y139.799 E0.02371
G1 X139.047 Y140.338 E0.01980
G1 X137.701 Y141.696 E0.05997
G1 X136.215 Y142.554 E0.05380
G1 X134.445 Y143.028 E0.05746
G1 X132.541 Y143.064 E0.05969
G1 X131.971 Y143.041 E0.01789
G1 X131.723 Y143.063 E0.00779
G1 X116.605 Y143.063 E0.47402
G1 X116.319 Y143.037 E0.00899
G1 X115.579 Y143.048 E0.02321
G1 X113.889 Y142.714 E0.05403
G1 X112.333 Y141.932 E0.05460
G1 X110.709 Y140.351 E0.07105
G1 X109.892 Y138.886 E0.05261
G1 X109.765 Y138.493 E0.01294
G1 X108.956 Y137.550 E0.03895
G1 X108.310 Y136.187 E0.04731
G1 X107.975 Y134.683 E0.04832
G1 X107.950 Y115.634 E0.59726
G1 X108.290 Y113.987 E0.05274
G1 X109.062 Y112.460 E0.05366
G1 X110.567 Y110.891 E0.06817
G1 X111.165 Y110.531 E0.02188
G1 X111.491 Y110.776 F10800.000
G1 F1200
G1 X111.838 Y110.195 E0.02122
G1 X112.972 Y109.007 E0.05149
G1 X115.562 Y107.742 E0.09036
G1 X116.621 Y107.614 E0.03345
G1 X134.400 Y107.616 E0.55746
G1 X135.962 Y107.917 E0.04986
G1 X137.387 Y108.590 E0.04941
G1 X138.910 Y109.942 E0.06385
G1 X139.653 Y111.187 E0.04548
G1 X139.904 Y111.361 E0.00956
G1 X140.768 Y112.226 E0.03834
G1 X141.459 Y113.181 E0.03696
G1 X142.166 Y115.138 E0.06523
G1 X142.265 Y134.644 E0.61161
G1 X141.937 Y136.211 E0.05019
G1 X141.206 Y137.643 E0.05042
G1 X139.771 Y139.128 E0.06474
G1 X139.102 Y139.523 E0.02438
G1 X138.762 Y140.091 E0.02074
G1 X137.489 Y141.384 E0.05690
G1 X136.093 Y142.197 E0.05065
G1 X134.370 Y142.658 E0.05592
G1 X132.541 Y142.686 E0.05736
G1 X131.961 Y142.664 E0.01819
G1 X131.715 Y142.686 E0.00776
G1 X116.614 Y142.686 E0.47347
G1 X116.334 Y142.660 E0.00881
G1 X115.594 Y142.671 E0.02322
G1 X113.988 Y142.349 E0.05134
G1 X112.530 Y141.609 E0.05129
G1 X110.993 Y140.102 E0.06749
G1 X110.232 Y138.722 E0.04942
G1 X110.102 Y138.306 E0.01366
G1 X109.286 Y137.365 E0.03905
G1 X108.660 Y136.045 E0.04580
G1 X108.347 Y134.622 E0.04568
G1 X108.327 Y115.654 E0.59475
G1 X108.654 Y114.089 E0.05011
G1 X109.385 Y112.657 E0.05043
G1 X110.820 Y111.172 E0.06474
G1 X111.439 Y110.806 E0.02255
G1 X111.766 Y111.053 F10800.000
G1 F1200
G1 X112.127 Y110.439 E0.02233
G1 X113.222 Y109.291 E0.04973
G1 X115.638 Y108.112 E0.08431
G1 X116.632 Y107.991 E0.03139
G1 X134.382 Y107.993 E0.55654
G1 X135.822 Y108.269 E0.04596
G1 X137.201 Y108.919 E0.04779
G1 X138.636 Y110.202 E0.06037
G1 X139.372 Y111.452 E0.04547
G1 X139.651 Y111.641 E0.01056
G1 X140.491 Y112.481 E0.03726
G1 X141.137 Y113.379 E0.03469
G1 X141.800 Y115.234 E0.06176
G1 X141.888 Y134.625 E0.60800
G1 X141.574 Y136.107 E0.04750
