; generated by PrusaSlicer 2.0.0+win64 on 2020-04-22 at 21:30:39

; 

; external perimeters extrusion width = 0.60mm
; perimeters extrusion width = 0.50mm
; infill extrusion width = 0.50mm
; solid infill extrusion width = 0.50mm
; top infill extrusion width = 0.45mm
; support material extrusion width = 0.35mm
; first layer extrusion width = 0.42mm

M73 P0 R77
M73 Q0 S78
M201 X1000 Y1000 Z1000 E5000 ; sets maximum accelerations, mm/sec^2
M203 X200 Y200 Z12 E120 ; sets maximum feedrates, mm/sec
M204 P1250 R1250 T1250 ; sets acceleration (P, T) and retract acceleration (R), mm/sec^2
M205 X8.00 Y8.00 Z0.40 E1.50 ; sets the jerk limits, mm/sec
M205 S0 T0 ; sets the minimum extruding and travel feed rate, mm/sec
M107
M115 U3.8.0 ; tell printer latest fw version
G90 ; use absolute coordinates
M83 ; extruder relative mode
M104 S215 ; set extruder temp
M140 S70 ; set bed temp
M190 S70 ; wait for bed temp
M109 S215 ; wait for extruder temp
G28 W ; home all without mesh bed level
G80 ; mesh bed leveling
G1 Y-3.0 F1000.0 ; go outside print area
G92 E0.0
G1 X60.0 E9.0 F1000.0 ; intro line
M73 Q0 S78
M73 P0 R77
G1 X100.0 E12.5 F1000.0 ; intro line
G92 E0.0
M221 S95
M900 K30 ; Filament gcode
G21 ; set units to millimeters
G90 ; use absolute coordinates
M83 ; use relative distances for extrusion
;BEFORE_LAYER_CHANGE
G92 E0.0
;0.2


G1 E-0.80000 F2100.00000
G1 Z0.600 F10800.000
;AFTER_LAYER_CHANGE
;0.2
G1 X97.686 Y69.957
G1 Z0.200
G1 E0.80000 F2100.00000
M204 S1000
G1 F1200
G1 X98.351 Y69.070 E0.03475
G1 X99.105 Y68.268 E0.03451
G1 X99.948 Y67.549 E0.03475
G1 X100.866 Y66.927 E0.03475
G1 X101.847 Y66.411 E0.03475
G1 X102.879 Y66.007 E0.03475
G1 X103.950 Y65.720 E0.03475
G1 X105.045 Y65.553 E0.03475
G1 X144.008 Y65.507 E1.22164
G1 X145.694 Y65.652 E0.05307
G1 X147.332 Y66.079 E0.05307
G1 X148.868 Y66.773 E0.05283
G1 X150.271 Y67.720 E0.05307
G1 X151.494 Y68.890 E0.05307
G1 X152.498 Y70.243 E0.05283
G1 X153.263 Y71.753 E0.05307
G1 X153.761 Y73.362 E0.05283
G1 X161.945 Y133.522 E1.90364
G1 X161.965 Y135.238 E0.05380
G1 X161.694 Y136.924 E0.05356
G1 X161.136 Y138.547 E0.05380
G1 X160.314 Y140.044 E0.05356
G1 X159.608 Y140.978 E0.03671
G1 X158.792 Y141.829 E0.03695
G1 X157.888 Y142.573 E0.03671
G1 X156.897 Y143.210 E0.03695
G1 X155.845 Y143.723 E0.03671
G1 X154.732 Y144.112 E0.03695
G1 X153.581 Y144.367 E0.03695
G1 X152.408 Y144.484 E0.03695
G1 X97.719 Y144.489 E1.71475
G1 X96.321 Y144.351 E0.04404
G1 X94.964 Y144.020 E0.04380
G1 X93.666 Y143.504 E0.04380
G1 X92.453 Y142.812 E0.04380
G1 X91.413 Y142.014 E0.04111
G1 X90.480 Y141.081 E0.04135
G1 X89.679 Y140.033 E0.04135
G1 X89.026 Y138.896 E0.04111
G1 X88.526 Y137.676 E0.04135
G1 X88.191 Y136.408 E0.04111
G1 X88.025 Y135.100 E0.04135
G1 X88.033 Y133.781 E0.04135
G1 X96.120 Y74.003 E1.89138
G1 X96.343 Y72.933 E0.03426
G1 X96.681 Y71.894 E0.03426
G1 X97.130 Y70.898 E0.03426
G1 X97.655 Y70.008 E0.03238
G1 X98.112 Y69.924 F10800.000
G1 F1200
G1 X101.237 Y67.095 E0.13216
G1 X103.108 Y66.306 E0.06366
G1 X105.267 Y65.884 E0.06898
G1 X144.664 Y65.888 E1.23526
G1 X146.520 Y66.190 E0.05898
G1 X148.276 Y66.840 E0.05870
G1 X150.632 Y68.511 E0.09057
G1 X152.499 Y70.942 E0.09610
G1 X153.497 Y73.838 E0.09605
G1 X157.617 Y115.031 E1.29803
G1 X159.448 Y123.765 E0.27978
G1 X161.565 Y133.254 E0.30486
G1 X161.486 Y136.400 E0.09867
G1 X160.921 Y138.207 E0.05936
G1 X160.010 Y139.863 E0.05925
G1 X158.587 Y141.542 E0.06901
G1 X156.826 Y142.875 E0.06924
G1 X154.832 Y143.738 E0.06814
G1 X152.727 Y144.116 E0.06703
G1 X97.237 Y144.116 E1.73986
G1 X94.818 Y143.625 E0.07737
G1 X92.605 Y142.518 E0.07760
G1 X90.683 Y140.758 E0.08170
G1 X89.237 Y138.587 E0.08178
G1 X88.784 Y137.408 E0.03961
G1 X88.472 Y136.173 E0.03995
G1 X88.374 Y133.868 E0.07231
G1 X90.551 Y123.773 E0.32381
G1 X92.383 Y115.031 E0.28006
G1 X96.505 Y73.813 E1.29880
G1 X97.140 Y71.707 E0.06898
G1 X98.083 Y69.976 E0.06179
G1 X98.414 Y70.157 F10800.000
G1 F1200
G1 X101.414 Y67.430 E0.12712
G1 X103.200 Y66.673 E0.06085
G1 X105.286 Y66.262 E0.06664
G1 X144.649 Y66.265 E1.23420
G1 X146.407 Y66.550 E0.05584
G1 X148.121 Y67.185 E0.05734
G1 X150.391 Y68.802 E0.08736
G1 X152.153 Y71.094 E0.09066
G1 X153.124 Y73.898 E0.09303
G1 X157.244 Y115.089 E1.29797
G1 X159.079 Y123.844 E0.28049
G1 X161.192 Y133.314 E0.30422
G1 X161.119 Y136.314 E0.09408
G1 X160.581 Y138.042 E0.05675
G1 X159.689 Y139.664 E0.05805
G1 X158.313 Y141.282 E0.06658
G1 X156.655 Y142.539 E0.06523
G1 X154.743 Y143.370 E0.06540
G1 X152.710 Y143.738 E0.06476
G1 X97.256 Y143.738 E1.73873
G1 X94.919 Y143.260 E0.07480
G1 X92.798 Y142.193 E0.07446
G1 X90.984 Y140.530 E0.07716
G1 X89.582 Y138.432 E0.07911
G1 X89.140 Y137.284 E0.03858
G1 X88.842 Y136.100 E0.03827
G1 X88.752 Y133.877 E0.06975
G1 X90.919 Y123.852 E0.32161
G1 X92.756 Y115.088 E0.28073
G1 X96.879 Y73.869 E1.29885
G1 X97.495 Y71.835 E0.06664
G1 X98.385 Y70.210 E0.05809
G1 X98.715 Y70.392 F10800.000
G1 F1200
G1 X98.742 Y70.342 E0.00178
G1 X101.591 Y67.765 E0.12044
G1 X103.293 Y67.038 E0.05804
G1 X105.304 Y66.639 E0.06428
G1 X144.633 Y66.642 E1.23313
G1 X146.327 Y66.919 E0.05382
G1 X147.966 Y67.530 E0.05483
G1 X150.148 Y69.092 E0.08414
G1 X151.835 Y71.299 E0.08709
G1 X152.751 Y73.957 E0.08816
G1 X156.871 Y115.147 E1.29791
G1 X158.711 Y123.924 E0.28120
G1 X160.815 Y133.329 E0.30216
G1 X160.751 Y136.227 E0.09089
G1 X160.227 Y137.911 E0.05531
G1 X159.368 Y139.465 E0.05566
G1 X158.068 Y140.994 E0.06293
G1 X156.483 Y142.202 E0.06249
G1 X154.653 Y143.004 E0.06264
G1 X152.693 Y143.361 E0.06247
G1 X97.275 Y143.361 E1.73760
G1 X95.066 Y142.912 E0.07068
G1 X92.991 Y141.868 E0.07283
G1 X91.256 Y140.268 E0.07400
G1 X89.926 Y138.277 E0.07508
G1 X89.503 Y137.180 E0.03685
G1 X89.213 Y136.027 E0.03728
G1 X89.130 Y133.887 E0.06717
G1 X91.288 Y123.930 E0.31943
G1 X93.129 Y115.146 E0.28141
G1 X97.252 Y73.925 E1.29890
G1 X97.850 Y71.964 E0.06428
G1 X98.686 Y70.444 E0.05439
G1 X99.016 Y70.626 F10800.000
G1 F1200
G1 X99.057 Y70.552 E0.00267
G1 X101.768 Y68.099 E0.11464
G1 X103.387 Y67.404 E0.05524
G1 X105.323 Y67.016 E0.06191
G1 X144.618 Y67.019 E1.23205
G1 X146.247 Y67.288 E0.05179
M73 Q1 S77
G1 X147.810 Y67.874 E0.05232
G1 X149.905 Y69.381 E0.08091
M73 P1 R76
G1 X151.516 Y71.502 E0.08353
G1 X152.378 Y74.016 E0.08332
G1 X156.498 Y115.204 E1.29787
G1 X158.342 Y124.004 E0.28192
G1 X160.437 Y133.344 E0.30013
G1 X160.383 Y136.141 E0.08769
G1 X159.873 Y137.781 E0.05385
G1 X159.047 Y139.265 E0.05325
G1 X157.823 Y140.707 E0.05932
G1 X156.310 Y141.867 E0.05976
G1 X154.563 Y142.637 E0.05987
G1 X152.676 Y142.984 E0.06016
G1 X97.294 Y142.984 E1.73645
G1 X95.167 Y142.548 E0.06809
G1 X93.185 Y141.543 E0.06966
G1 X91.557 Y140.040 E0.06950
G1 X90.270 Y138.121 E0.07243
G1 X89.859 Y137.056 E0.03582
G1 X89.584 Y135.955 E0.03557
G1 X89.507 Y133.897 E0.06459
G1 X91.657 Y124.009 E0.31726
G1 X93.502 Y115.204 E0.28209
G1 X97.625 Y73.981 E1.29894
G1 X98.205 Y72.094 E0.06191
G1 X98.987 Y70.679 E0.05069
G1 X99.316 Y70.862 F10800.000
G1 F1200
G1 X99.371 Y70.762 E0.00357
G1 X101.946 Y68.432 E0.10887
G1 X103.482 Y67.770 E0.05244
G1 X105.342 Y67.393 E0.05952
G1 X144.602 Y67.396 E1.23096
G1 X146.167 Y67.657 E0.04974
G1 X147.653 Y68.218 E0.04980
G1 X149.661 Y69.670 E0.07771
G1 X151.169 Y71.654 E0.07814
G1 X152.005 Y74.076 E0.08032
G1 X156.124 Y115.262 E1.29781
G1 X157.974 Y124.084 E0.28263
G1 X160.064 Y133.405 E0.29951
G1 X160.014 Y136.055 E0.08311
G1 X159.533 Y137.615 E0.05118
G1 X158.727 Y139.066 E0.05205
G1 X157.576 Y140.421 E0.05573
G1 X156.137 Y141.531 E0.05700
G1 X154.431 Y142.283 E0.05845
G1 X152.659 Y142.607 E0.05649
G1 X97.313 Y142.607 E1.73531
G1 X95.268 Y142.184 E0.06548
G1 X93.380 Y141.220 E0.06649
G1 X91.857 Y139.811 E0.06504
G1 X90.614 Y137.965 E0.06978
G1 X90.222 Y136.953 E0.03405
G1 X89.954 Y135.883 E0.03457
G1 X89.885 Y133.907 E0.06199
G1 X92.026 Y124.088 E0.31511
G1 X93.876 Y115.261 E0.28277
G1 X97.999 Y74.038 E1.29897
G1 X98.559 Y72.224 E0.05952
G1 X99.287 Y70.914 E0.04699
G1 X99.616 Y71.098 F10800.000
G1 F1200
G1 X99.685 Y70.973 E0.00448
G1 X102.125 Y68.766 E0.10315
G1 X103.577 Y68.135 E0.04964
G1 X105.361 Y67.770 E0.05711
G1 X144.586 Y67.773 E1.22986
G1 X146.085 Y68.026 E0.04768
G1 X147.495 Y68.561 E0.04728
G1 X149.416 Y69.958 E0.07448
G1 X150.850 Y71.857 E0.07461
G1 X151.632 Y74.135 E0.07550
G1 X155.751 Y115.319 E1.29776
G1 X157.605 Y124.164 E0.28335
G1 X159.692 Y133.466 E0.29889
G1 X159.646 Y135.969 E0.07852
G1 X159.179 Y137.485 E0.04971
G1 X158.407 Y138.866 E0.04962
G1 X157.330 Y140.135 E0.05220
G1 X155.962 Y141.196 E0.05426
G1 X154.340 Y141.916 E0.05565
G1 X152.641 Y142.230 E0.05416
G1 X97.333 Y142.230 E1.73415
G1 X95.371 Y141.820 E0.06285
G1 X93.576 Y140.896 E0.06331
G1 X92.157 Y139.582 E0.06064
G1 X90.958 Y137.809 E0.06711
G1 X90.578 Y136.828 E0.03300
G1 X90.325 Y135.812 E0.03282
G1 X90.262 Y133.918 E0.05940
G1 X92.394 Y124.167 E0.31297
G1 X94.249 Y115.319 E0.28345
G1 X98.372 Y74.095 E1.29900
G1 X98.913 Y72.355 E0.05711
G1 X99.586 Y71.150 E0.04328
G1 X99.999 Y71.185 F10800.000
G1 F1200
G1 X102.304 Y69.099 E0.09747
G1 X103.673 Y68.500 E0.04685
G1 X105.381 Y68.147 E0.05468
G1 X144.570 Y68.150 E1.22876
G1 X145.969 Y68.385 E0.04447
G1 X147.337 Y68.904 E0.04589
G1 X149.171 Y70.246 E0.07122
G1 X150.531 Y72.059 E0.07107
G1 X151.259 Y74.194 E0.07071
G1 X155.378 Y115.377 E1.29772
G1 X157.236 Y124.244 E0.28406
G1 X159.319 Y133.526 E0.29827
G1 X159.278 Y135.885 E0.07396
G1 X158.840 Y137.319 E0.04702
G1 X158.107 Y138.637 E0.04728
G1 X157.082 Y139.850 E0.04980
G1 X155.787 Y140.861 E0.05151
G1 X154.249 Y141.550 E0.05284
G1 X152.624 Y141.853 E0.05182
G1 X97.353 Y141.853 E1.73298
G1 X95.474 Y141.457 E0.06020
G1 X93.772 Y140.574 E0.06012
G1 X92.457 Y139.352 E0.05628
G1 X91.301 Y137.652 E0.06446
G1 X90.941 Y136.725 E0.03119
G1 X90.696 Y135.740 E0.03180
G1 X90.640 Y133.930 E0.05678
G1 X92.763 Y124.246 E0.31085
G1 X94.622 Y115.376 E0.28414
G1 X98.745 Y74.152 E1.29903
G1 X99.267 Y72.487 E0.05468
G1 X99.970 Y71.237 E0.04497
G1 X100.298 Y71.423 F10800.000
G1 F1200
G1 X102.484 Y69.432 E0.09271
G1 X103.770 Y68.865 E0.04406
G1 X105.400 Y68.524 E0.05223
G1 X144.554 Y68.527 E1.22764
G1 X145.887 Y68.753 E0.04239
G1 X147.178 Y69.247 E0.04335
G1 X148.925 Y70.533 E0.06799
G1 X150.184 Y72.210 E0.06575
G1 X150.886 Y74.253 E0.06774
G1 X155.005 Y115.435 E1.29766
G1 X156.868 Y124.324 E0.28478
G1 X158.946 Y133.587 E0.29765
G1 X158.910 Y135.800 E0.06939
G1 X158.485 Y137.190 E0.04556
G1 X157.806 Y138.408 E0.04373
G1 X156.833 Y139.566 E0.04743
G1 X155.610 Y140.527 E0.04876
G1 X154.156 Y141.183 E0.05003
G1 X152.606 Y141.476 E0.04946
G1 X97.373 Y141.476 E1.73179
G1 X95.578 Y141.093 E0.05753
G1 X93.970 Y140.251 E0.05693
G1 X92.756 Y139.122 E0.05197
G1 X91.645 Y137.495 E0.06179
G1 X91.296 Y136.599 E0.03013
G1 X91.067 Y135.670 E0.03002
G1 X91.018 Y133.943 E0.05417
G1 X93.132 Y124.325 E0.30875
G1 X94.995 Y115.434 E0.28484
M73 Q2 S76
M73 P2 R75
G1 X99.118 Y74.209 E1.29904
G1 X99.620 Y72.620 E0.05223
G1 X100.268 Y71.475 E0.04126
G1 X100.595 Y71.661 F10800.000
G1 F1200
G1 X100.625 Y71.610 E0.00186
G1 X102.665 Y69.764 E0.08625
G1 X103.868 Y69.230 E0.04127
G1 X105.420 Y68.901 E0.04976
G1 X144.538 Y68.904 E1.22651
G1 X145.805 Y69.122 E0.04029
G1 X147.019 Y69.590 E0.04080
G1 X148.678 Y70.819 E0.06474
G1 X149.864 Y72.411 E0.06225
G1 X150.513 Y74.312 E0.06298
G1 X154.632 Y115.492 E1.29762
G1 X156.499 Y124.404 E0.28550
G1 X158.573 Y133.648 E0.29704
G1 X158.541 Y135.716 E0.06486
G1 X158.145 Y137.025 E0.04287
G1 X157.505 Y138.181 E0.04142
G1 X156.584 Y139.283 E0.04505
G1 X155.433 Y140.194 E0.04601
G1 X154.063 Y140.817 E0.04720
G1 X152.588 Y141.099 E0.04708
G1 X97.392 Y141.099 E1.73062
G1 X95.730 Y140.747 E0.05327
G1 X94.167 Y139.929 E0.05532
G1 X93.055 Y138.892 E0.04768
G1 X91.988 Y137.337 E0.05913
G1 X91.660 Y136.497 E0.02828
G1 X91.438 Y135.599 E0.02899
G1 X91.395 Y133.956 E0.05154
G1 X93.500 Y124.405 E0.30668
G1 X95.368 Y115.492 E0.28553
G1 X99.492 Y74.266 E1.29905
G1 X99.973 Y72.754 E0.04976
G1 X100.566 Y71.713 E0.03754
G1 X100.893 Y71.901 F10800.000
G1 F1200
G1 X100.937 Y71.823 E0.00280
G1 X102.846 Y70.096 E0.08072
G1 X103.967 Y69.594 E0.03850
G1 X105.440 Y69.278 E0.04726
G1 X144.522 Y69.281 E1.22536
G1 X145.721 Y69.490 E0.03817
G1 X146.858 Y69.932 E0.03824
G1 X148.429 Y71.104 E0.06148
G1 X149.543 Y72.611 E0.05875
G1 X150.140 Y74.371 E0.05826
G1 X154.258 Y115.550 E1.29759
G1 X156.131 Y124.484 E0.28621
G1 X158.200 Y133.709 E0.29643
G1 X158.172 Y135.634 E0.06035
G1 X157.805 Y136.861 E0.04018
G1 X157.203 Y137.954 E0.03910
G1 X156.333 Y139.001 E0.04269
G1 X155.254 Y139.861 E0.04327
G1 X153.969 Y140.452 E0.04436
G1 X152.570 Y140.722 E0.04467
G1 X97.413 Y140.722 E1.72941
G1 X95.835 Y140.384 E0.05058
G1 X94.366 Y139.608 E0.05210
G1 X93.354 Y138.661 E0.04345
G1 X92.331 Y137.179 E0.05645
G1 X92.015 Y136.371 E0.02719
G1 X91.809 Y135.530 E0.02716
G1 X91.773 Y133.970 E0.04891
G1 X93.869 Y124.484 E0.30462
G1 X95.742 Y115.549 E0.28623
G1 X99.865 Y74.324 E1.29905
G1 X100.326 Y72.889 E0.04726
G1 X100.863 Y71.953 E0.03382
G1 X101.248 Y72.038 F10800.000
G1 F1200
G1 X103.028 Y70.427 E0.07525
G1 X104.067 Y69.958 E0.03573
G1 X105.461 Y69.655 E0.04474
G1 X144.505 Y69.658 E1.22420
G1 X145.637 Y69.858 E0.03603
G1 X146.696 Y70.273 E0.03567
G1 X148.181 Y71.389 E0.05824
G1 X149.196 Y72.761 E0.05351
G1 X149.767 Y74.430 E0.05531
G1 X153.885 Y115.607 E1.29753
G1 X155.762 Y124.564 E0.28693
G1 X157.828 Y133.770 E0.29582
G1 X157.803 Y135.552 E0.05587
G1 X157.464 Y136.698 E0.03749
G1 X156.901 Y137.728 E0.03679
G1 X156.081 Y138.719 E0.04033
G1 X155.075 Y139.528 E0.04048
G1 X153.832 Y140.099 E0.04290
G1 X152.552 Y140.345 E0.04086
G1 X97.433 Y140.345 E1.72822
G1 X95.941 Y140.021 E0.04786
G1 X94.566 Y139.287 E0.04888
G1 X93.653 Y138.429 E0.03929
G1 X92.674 Y137.020 E0.05379
G1 X92.378 Y136.269 E0.02531
G1 X92.180 Y135.461 E0.02610
G1 X92.150 Y133.986 E0.04626
G1 X94.238 Y124.563 E0.30259
G1 X96.115 Y115.607 E0.28693
G1 X100.238 Y74.381 E1.29904
G1 X100.678 Y73.024 E0.04474
G1 X101.218 Y72.089 E0.03385
G1 X101.544 Y72.279 F10800.000
G1 F1200
G1 X103.211 Y70.758 E0.07076
G1 X104.168 Y70.322 E0.03296
G1 X105.482 Y70.032 E0.04218
G1 X144.489 Y70.036 E1.22303
G1 X145.517 Y70.216 E0.03273
G1 X146.534 Y70.615 E0.03425
G1 X147.931 Y71.672 E0.05494
G1 X148.874 Y72.960 E0.05005
G1 X149.394 Y74.489 E0.05062
G1 X153.512 Y115.665 E1.29750
G1 X155.394 Y124.644 E0.28764
G1 X157.455 Y133.831 E0.29522
G1 X157.434 Y135.471 E0.05143
G1 X157.123 Y136.537 E0.03480
G1 X156.598 Y137.503 E0.03447
G1 X155.829 Y138.439 E0.03799
G1 X154.895 Y139.196 E0.03771
G1 X153.737 Y139.734 E0.04002
G1 X152.534 Y139.968 E0.03843
G1 X97.454 Y139.968 E1.72700
G1 X96.049 Y139.659 E0.04511
G1 X94.767 Y138.968 E0.04565
G1 X93.950 Y138.197 E0.03520
G1 X93.017 Y136.861 E0.05110
G1 X92.734 Y136.143 E0.02419
G1 X92.552 Y135.392 E0.02423
G1 X92.527 Y134.002 E0.04361
G1 X94.606 Y124.643 E0.30058
G1 X96.488 Y115.664 E0.28764
G1 X100.611 Y74.440 E1.29902
G1 X101.030 Y73.161 E0.04219
G1 X101.514 Y72.331 E0.03013
G1 X101.839 Y72.522 F10800.000
G1 F1200
G1 X101.870 Y72.469 E0.00193
G1 X103.395 Y71.088 E0.06451
G1 X104.270 Y70.685 E0.03021
G1 X105.503 Y70.409 E0.03960
G1 X144.472 Y70.413 E1.22184
G1 X145.431 Y70.584 E0.03056
G1 X146.370 Y70.955 E0.03166
G1 X147.680 Y71.955 E0.05165
G1 X148.552 Y73.158 E0.04659
G1 X149.021 Y74.547 E0.04598
G1 X153.139 Y115.723 E1.29747
G1 X155.025 Y124.724 E0.28836
G1 X157.082 Y133.892 E0.29462
G1 X157.065 Y135.392 E0.04701
G1 X156.781 Y136.376 E0.03212
G1 X156.294 Y137.279 E0.03216
G1 X155.575 Y138.160 E0.03567
G1 X154.713 Y138.865 E0.03493
G1 X153.641 Y139.368 E0.03712
G1 X152.515 Y139.591 E0.03598
G1 X97.475 Y139.591 E1.72575
M73 Q3 S75
M73 P3 R74
G1 X96.157 Y139.297 E0.04232
G1 X94.970 Y138.649 E0.04242
G1 X94.248 Y137.965 E0.03118
G1 X93.359 Y136.702 E0.04841
G1 X93.090 Y136.018 E0.02306
G1 X92.923 Y135.325 E0.02234
G1 X92.905 Y134.018 E0.04097
G1 X94.975 Y124.723 E0.29860
G1 X96.861 Y115.722 E0.28835
G1 X100.984 Y74.498 E1.29899
G1 X101.382 Y73.299 E0.03960
G1 X101.808 Y72.573 E0.02640
G1 X102.132 Y72.765 F10800.000
G1 F1200
G1 X102.179 Y72.686 E0.00291
G1 X103.580 Y71.418 E0.05924
G1 X104.374 Y71.048 E0.02746
G1 X105.524 Y70.786 E0.03698
