; generated by PrusaSlicer 2.0.0+win64 on 2020-04-21 at 21:17:06

; 

; external perimeters extrusion width = 0.60mm
; perimeters extrusion width = 0.50mm
; infill extrusion width = 0.50mm
; solid infill extrusion width = 0.50mm
; top infill extrusion width = 0.45mm
; support material extrusion width = 0.35mm
; first layer extrusion width = 0.42mm

M73 P0 R78
M73 Q0 S78
M201 X1000 Y1000 Z1000 E5000 ; sets maximum accelerations, mm/sec^2
M203 X200 Y200 Z12 E120 ; sets maximum feedrates, mm/sec
M204 P1250 R1250 T1250 ; sets acceleration (P, T) and retract acceleration (R), mm/sec^2
M205 X8.00 Y8.00 Z0.40 E1.50 ; sets the jerk limits, mm/sec
M205 S0 T0 ; sets the minimum extruding and travel feed rate, mm/sec
M107
M115 U3.8.0 ; tell printer latest fw version
G90 ; use absolute coordinates
M83 ; extruder relative mode
M104 S215 ; set extruder temp
M140 S70 ; set bed temp
M190 S70 ; wait for bed temp
M109 S215 ; wait for extruder temp
G28 W ; home all without mesh bed level
G80 ; mesh bed leveling
G1 Y-3.0 F1000.0 ; go outside print area
G92 E0.0
G1 X60.0 E9.0 F1000.0 ; intro line
M73 Q0 S78
M73 P0 R78
G1 X100.0 E12.5 F1000.0 ; intro line
G92 E0.0
M221 S95
M900 K30 ; Filament gcode
G21 ; set units to millimeters
G90 ; use absolute coordinates
M83 ; use relative distances for extrusion
;BEFORE_LAYER_CHANGE
G92 E0.0
;0.2


G1 E-0.80000 F2100.00000
G1 Z0.600 F10800.000
;AFTER_LAYER_CHANGE
;0.2
G1 X97.686 Y69.957
G1 Z0.200
G1 E0.80000 F2100.00000
M204 S1000
G1 F1200
G1 X98.351 Y69.070 E0.03475
G1 X99.105 Y68.268 E0.03451
G1 X99.948 Y67.549 E0.03475
G1 X100.866 Y66.927 E0.03475
G1 X101.847 Y66.411 E0.03475
G1 X102.879 Y66.007 E0.03475
G1 X103.950 Y65.720 E0.03475
G1 X105.045 Y65.553 E0.03475
G1 X144.008 Y65.507 E1.22164
G1 X145.694 Y65.652 E0.05307
G1 X147.332 Y66.079 E0.05307
G1 X148.868 Y66.773 E0.05283
G1 X150.271 Y67.720 E0.05307
G1 X151.494 Y68.890 E0.05307
G1 X152.498 Y70.243 E0.05283
G1 X153.263 Y71.753 E0.05307
G1 X153.761 Y73.362 E0.05283
G1 X161.945 Y133.522 E1.90364
G1 X161.965 Y135.238 E0.05380
G1 X161.694 Y136.924 E0.05356
G1 X161.136 Y138.547 E0.05380
G1 X160.314 Y140.044 E0.05356
G1 X159.608 Y140.978 E0.03671
G1 X158.792 Y141.829 E0.03695
G1 X157.888 Y142.573 E0.03671
G1 X156.897 Y143.210 E0.03695
G1 X155.845 Y143.723 E0.03671
G1 X154.732 Y144.112 E0.03695
G1 X153.581 Y144.367 E0.03695
G1 X152.408 Y144.484 E0.03695
G1 X97.719 Y144.489 E1.71475
G1 X96.321 Y144.351 E0.04404
G1 X94.964 Y144.020 E0.04380
G1 X93.666 Y143.504 E0.04380
G1 X92.453 Y142.812 E0.04380
G1 X91.413 Y142.014 E0.04111
G1 X90.480 Y141.081 E0.04135
G1 X89.679 Y140.033 E0.04135
G1 X89.026 Y138.896 E0.04111
G1 X88.526 Y137.676 E0.04135
G1 X88.191 Y136.408 E0.04111
G1 X88.025 Y135.100 E0.04135
G1 X88.033 Y133.781 E0.04135
G1 X96.120 Y74.003 E1.89138
G1 X96.343 Y72.933 E0.03426
G1 X96.681 Y71.894 E0.03426
G1 X97.130 Y70.898 E0.03426
G1 X97.655 Y70.008 E0.03238
G1 X98.137 Y69.882 F10800.000
G1 F1200
G1 X101.621 Y66.881 E0.14418
G1 X103.401 Y66.211 E0.05960
G1 X105.294 Y65.892 E0.06021
G1 X144.694 Y65.890 E1.23536
G1 X146.520 Y66.190 E0.05803
G1 X148.272 Y66.839 E0.05858
G1 X150.572 Y68.460 E0.08822
G1 X152.466 Y70.881 E0.09637
G1 X153.491 Y73.774 E0.09623
G1 X157.615 Y115.006 E1.29925
G1 X161.615 Y133.731 E0.60036
G1 X161.621 Y135.384 E0.05183
G1 X161.338 Y137.031 E0.05243
G1 X159.929 Y139.993 E0.10282
G1 X158.521 Y141.602 E0.06705
G1 X156.797 Y142.891 E0.06751
G1 X154.813 Y143.743 E0.06769
G1 X152.722 Y144.116 E0.06658
G1 X97.240 Y144.116 E1.73961
G1 X94.825 Y143.626 E0.07725
G1 X92.578 Y142.498 E0.07882
G1 X90.685 Y140.760 E0.08058
G1 X89.262 Y138.639 E0.08009
G1 X88.801 Y137.461 E0.03964
G1 X88.480 Y136.217 E0.04030
G1 X88.386 Y133.760 E0.07708
G1 X92.385 Y115.006 E0.60126
G1 X96.505 Y73.813 E1.29801
G1 X97.141 Y71.706 E0.06902
G1 X98.108 Y69.934 E0.06329
G1 X98.439 Y70.116 F10800.000
G1 F1200
G1 X101.785 Y67.222 E0.13871
G1 X103.516 Y66.571 E0.05798
G1 X105.341 Y66.267 E0.05800
G1 X144.649 Y66.265 E1.23248
G1 X146.407 Y66.550 E0.05584
G1 X148.118 Y67.184 E0.05722
G1 X150.332 Y68.752 E0.08505
G1 X152.121 Y71.036 E0.09098
G1 X153.118 Y73.834 E0.09313
G1 X157.242 Y115.064 E1.29918
G1 X161.238 Y133.752 E0.59918
G1 X161.244 Y135.368 E0.05069
G1 X160.971 Y136.941 E0.05006
G1 X159.628 Y139.765 E0.09802
G1 X158.279 Y141.313 E0.06440
G1 X156.626 Y142.554 E0.06480
G1 X154.724 Y143.375 E0.06496
G1 X152.705 Y143.738 E0.06432
G1 X97.259 Y143.738 E1.73848
G1 X94.925 Y143.262 E0.07467
G1 X92.772 Y142.174 E0.07565
G1 X90.985 Y140.531 E0.07609
G1 X89.606 Y138.482 E0.07746
G1 X89.157 Y137.335 E0.03863
G1 X88.850 Y136.143 E0.03858
G1 X88.764 Y133.770 E0.07445
G1 X92.758 Y115.064 E0.59974
G1 X96.879 Y73.869 E1.29808
G1 X97.496 Y71.834 E0.06667
G1 X98.410 Y70.168 E0.05958
G1 X98.740 Y70.350 F10800.000
G1 F1200
G1 X98.765 Y70.304 E0.00163
G1 X101.949 Y67.563 E0.13174
G1 X103.631 Y66.930 E0.05635
G1 X105.386 Y66.641 E0.05578
G1 X144.633 Y66.642 E1.23056
G1 X146.327 Y66.919 E0.05382
G1 X147.963 Y67.529 E0.05472
G1 X150.090 Y69.043 E0.08188
G1 X151.805 Y71.244 E0.08748
G1 X152.745 Y73.894 E0.08818
G1 X156.868 Y115.122 E1.29913
G1 X160.861 Y133.773 E0.59803
G1 X160.870 Y135.320 E0.04851
G1 X160.604 Y136.852 E0.04873
G1 X159.327 Y139.537 E0.09323
G1 X158.035 Y141.024 E0.06175
G1 X156.455 Y142.218 E0.06209
G1 X154.635 Y143.008 E0.06222
G1 X152.688 Y143.361 E0.06205
G1 X97.278 Y143.361 E1.73734
G1 X95.027 Y142.898 E0.07208
G1 X92.966 Y141.849 E0.07249
G1 X91.285 Y140.302 E0.07163
G1 X89.949 Y138.324 E0.07483
G1 X89.519 Y137.229 E0.03689
G1 X89.220 Y136.069 E0.03757
G1 X89.141 Y133.781 E0.07180
G1 X93.132 Y115.122 E0.59824
G1 X97.252 Y73.925 E1.29815
G1 X97.850 Y71.963 E0.06432
G1 X98.711 Y70.403 E0.05588
G1 X99.040 Y70.585 F10800.000
G1 F1200
G1 X99.079 Y70.517 E0.00246
G1 X102.113 Y67.904 E0.12554
G1 X103.746 Y67.290 E0.05472
G1 X105.432 Y67.016 E0.05355
G1 X144.618 Y67.019 E1.22865
G1 X146.247 Y67.288 E0.05179
M73 Q1 S77
G1 X147.807 Y67.873 E0.05222
G1 X149.848 Y69.333 E0.07870
M73 P1 R77
G1 X151.488 Y71.450 E0.08397
G1 X152.372 Y73.954 E0.08325
G1 X156.495 Y115.181 E1.29909
G1 X160.484 Y133.795 E0.59687
G1 X160.493 Y135.305 E0.04737
G1 X160.237 Y136.761 E0.04634
G1 X159.025 Y139.310 E0.08849
G1 X157.791 Y140.736 E0.05912
G1 X156.283 Y141.881 E0.05938
G1 X154.546 Y142.641 E0.05947
G1 X152.671 Y142.984 E0.05975
G1 X97.298 Y142.984 E1.73619
G1 X95.128 Y142.534 E0.06946
G1 X93.161 Y141.526 E0.06931
G1 X91.585 Y140.072 E0.06722
G1 X90.292 Y138.167 E0.07219
G1 X89.874 Y137.103 E0.03585
G1 X89.591 Y135.996 E0.03582
G1 X89.519 Y133.791 E0.06915
G1 X93.505 Y115.181 E0.59675
G1 X97.625 Y73.981 E1.29822
G1 X98.205 Y72.093 E0.06194
G1 X99.011 Y70.638 E0.05216
G1 X99.340 Y70.821 F10800.000
G1 F1200
G1 X99.392 Y70.729 E0.00329
G1 X102.277 Y68.245 E0.11939
G1 X103.826 Y67.659 E0.05193
G1 X105.447 Y67.393 E0.05151
G1 X144.602 Y67.396 E1.22767
G1 X146.167 Y67.657 E0.04974
G1 X147.650 Y68.217 E0.04971
G1 X149.606 Y69.623 E0.07553
G1 X151.143 Y71.605 E0.07864
G1 X151.999 Y74.014 E0.08017
G1 X156.122 Y115.239 E1.29903
G1 X160.107 Y133.817 E0.59574
G1 X160.118 Y135.257 E0.04516
G1 X159.870 Y136.671 E0.04500
G1 X158.722 Y139.083 E0.08376
G1 X157.547 Y140.449 E0.05650
G1 X156.111 Y141.545 E0.05664
G1 X154.415 Y142.287 E0.05806
G1 X152.654 Y142.607 E0.05611
G1 X97.317 Y142.607 E1.73505
G1 X95.231 Y142.170 E0.06683
G1 X93.357 Y141.203 E0.06613
G1 X91.885 Y139.842 E0.06286
G1 X90.635 Y138.009 E0.06956
G1 X90.236 Y136.998 E0.03408
G1 X89.961 Y135.923 E0.03479
G1 X89.897 Y133.803 E0.06649
G1 X93.878 Y115.239 E0.59528
G1 X97.999 Y74.038 E1.29829
G1 X98.559 Y72.223 E0.05955
G1 X99.311 Y70.873 E0.04845
G1 X99.640 Y71.058 F10800.000
G1 F1200
G1 X99.704 Y70.943 E0.00413
G1 X102.442 Y68.586 E0.11327
G1 X103.907 Y68.028 E0.04914
G1 X105.463 Y67.770 E0.04946
G1 X144.586 Y67.773 E1.22668
G1 X146.086 Y68.026 E0.04768
G1 X147.493 Y68.560 E0.04720
G1 X149.362 Y69.913 E0.07235
G1 X150.826 Y71.811 E0.07517
G1 X151.626 Y74.074 E0.07526
G1 X155.749 Y115.298 E1.29898
G1 X159.730 Y133.840 E0.59462
G1 X159.744 Y135.209 E0.04293
G1 X159.503 Y136.580 E0.04365
G1 X158.420 Y138.857 E0.07904
G1 X157.301 Y140.162 E0.05390
G1 X155.938 Y141.209 E0.05390
G1 X154.325 Y141.920 E0.05528
G1 X152.637 Y142.230 E0.05380
G1 X97.336 Y142.230 E1.73390
G1 X95.381 Y141.823 E0.06262
G1 X93.553 Y140.879 E0.06452
G1 X92.184 Y139.611 E0.05850
G1 X90.978 Y137.851 E0.06691
G1 X90.592 Y136.871 E0.03303
G1 X90.332 Y135.850 E0.03301
G1 X90.274 Y133.815 E0.06383
G1 X94.251 Y115.298 E0.59383
G1 X98.372 Y74.095 E1.29834
G1 X98.913 Y72.355 E0.05714
G1 X99.611 Y71.110 E0.04473
G1 X100.016 Y71.156 F10800.000
G1 F1200
G1 X102.607 Y68.926 E0.10718
G1 X104.023 Y68.387 E0.04751
G1 X105.478 Y68.147 E0.04623
G1 X144.570 Y68.150 E1.22571
G1 X145.969 Y68.385 E0.04447
G1 X147.335 Y68.904 E0.04582
G1 X149.119 Y70.202 E0.06916
G1 X150.481 Y71.966 E0.06990
G1 X151.253 Y74.135 E0.07219
G1 X155.376 Y115.357 E1.29892
G1 X159.354 Y133.863 E0.59350
G1 X159.367 Y135.195 E0.04178
G1 X159.136 Y136.489 E0.04121
G1 X158.117 Y138.631 E0.07438
G1 X157.055 Y139.876 E0.05131
G1 X155.764 Y140.874 E0.05117
G1 X154.234 Y141.554 E0.05249
G1 X152.619 Y141.853 E0.05148
G1 X97.356 Y141.853 E1.73274
G1 X95.485 Y141.460 E0.05997
G1 X93.749 Y140.557 E0.06132
G1 X92.483 Y139.381 E0.05421
G1 X91.321 Y137.692 E0.06427
G1 X90.954 Y136.766 E0.03123
G1 X90.703 Y135.778 E0.03196
G1 X90.652 Y133.828 E0.06115
G1 X94.624 Y115.357 E0.59240
G1 X98.745 Y74.152 E1.29840
G1 X99.267 Y72.487 E0.05471
G1 X99.987 Y71.209 E0.04599
G1 X100.315 Y71.394 F10800.000
G1 F1200
G1 X102.773 Y69.267 E0.10193
G1 X104.104 Y68.756 E0.04472
G1 X105.494 Y68.524 E0.04417
G1 X144.554 Y68.527 E1.22471
G1 X145.887 Y68.753 E0.04239
G1 X147.176 Y69.247 E0.04328
G1 X148.874 Y70.489 E0.06596
G1 X150.164 Y72.171 E0.06646
G1 X150.880 Y74.195 E0.06730
G1 X155.003 Y115.415 E1.29888
G1 X158.977 Y133.886 E0.59241
G1 X158.992 Y135.147 E0.03952
G1 X158.769 Y136.398 E0.03985
G1 X157.813 Y138.406 E0.06972
G1 X156.807 Y139.591 E0.04874
G1 X155.588 Y140.540 E0.04844
G1 X154.142 Y141.187 E0.04969
G1 X152.602 Y141.476 E0.04913
G1 X97.376 Y141.476 E1.73156
G1 X95.589 Y141.096 E0.05730
G1 X93.947 Y140.235 E0.05812
G1 X92.781 Y139.149 E0.04996
G1 X91.663 Y137.533 E0.06162
G1 X91.309 Y136.638 E0.03016
G1 X91.073 Y135.706 E0.03015
G1 X91.029 Y133.842 E0.05848
G1 X94.997 Y115.415 E0.59099
M73 Q2 S76
M73 P2 R76
G1 X99.118 Y74.209 E1.29845
G1 X99.620 Y72.620 E0.05225
G1 X100.285 Y71.447 E0.04227
G1 X100.613 Y71.633 F10800.000
G1 F1200
G1 X100.640 Y71.586 E0.00171
G1 X102.939 Y69.607 E0.09513
G1 X104.186 Y69.124 E0.04192
G1 X105.510 Y68.901 E0.04208
G1 X144.538 Y68.904 E1.22370
G1 X145.805 Y69.122 E0.04029
G1 X147.017 Y69.589 E0.04073
G1 X148.628 Y70.777 E0.06275
G1 X149.846 Y72.376 E0.06303
G1 X150.507 Y74.255 E0.06245
G1 X154.630 Y115.474 E1.29884
G1 X158.600 Y133.910 E0.59130
G1 X158.615 Y135.133 E0.03836
G1 X158.403 Y136.306 E0.03737
G1 X157.510 Y138.181 E0.06512
G1 X156.559 Y139.306 E0.04618
G1 X155.412 Y140.206 E0.04571
G1 X154.049 Y140.821 E0.04688
G1 X152.584 Y141.099 E0.04676
G1 X97.396 Y141.099 E1.73036
G1 X95.694 Y140.733 E0.05460
G1 X94.146 Y139.914 E0.05491
G1 X93.079 Y138.917 E0.04577
G1 X92.006 Y137.374 E0.05896
G1 X91.664 Y136.511 E0.02908
G1 X91.444 Y135.635 E0.02832
G1 X91.407 Y133.856 E0.05580
G1 X95.370 Y115.474 E0.58960
G1 X99.492 Y74.266 E1.29849
G1 X99.974 Y72.753 E0.04978
G1 X100.583 Y71.685 E0.03855
G1 X100.909 Y71.873 F10800.000
G1 F1200
G1 X100.950 Y71.802 E0.00258
G1 X103.106 Y69.946 E0.08919
G1 X104.269 Y69.493 E0.03913
G1 X105.526 Y69.278 E0.03998
G1 X144.522 Y69.281 E1.22268
G1 X145.721 Y69.490 E0.03818
G1 X146.856 Y69.931 E0.03818
G1 X148.382 Y71.063 E0.05957
G1 X149.500 Y72.530 E0.05783
G1 X150.134 Y74.315 E0.05940
G1 X154.257 Y115.532 E1.29879
G1 X158.223 Y133.934 E0.59023
G1 X158.241 Y135.084 E0.03606
G1 X158.036 Y136.214 E0.03600
G1 X157.205 Y137.957 E0.06054
G1 X156.310 Y139.023 E0.04364
G1 X155.234 Y139.872 E0.04298
G1 X153.955 Y140.455 E0.04406
G1 X152.566 Y140.722 E0.04437
G1 X97.416 Y140.722 E1.72918
G1 X95.846 Y140.387 E0.05034
G1 X94.384 Y139.620 E0.05177
G1 X93.376 Y138.685 E0.04311
G1 X92.348 Y137.214 E0.05628
G1 X92.027 Y136.407 E0.02721
G1 X91.815 Y135.564 E0.02724
G1 X91.784 Y133.871 E0.05311
G1 X95.743 Y115.533 E0.58823
G1 X99.865 Y74.324 E1.29853
G1 X100.326 Y72.888 E0.04728
G1 X100.879 Y71.925 E0.03482
G1 F8640
G1 X100.950 Y71.802 E-0.03288
G1 X103.106 Y69.946 E-0.65680
G1 X103.390 Y69.835 E-0.07032
G1 E-0.04000 F2100.00000
G1 Z0.800 F10800.000
G1 X103.273 Y70.286
G1 Z0.200
G1 E0.80000 F2100.00000
G1 F1200
G1 X104.388 Y69.851 E0.03752
G1 X105.542 Y69.655 E0.03669
G1 X144.505 Y69.658 E1.22166
G1 X145.637 Y69.858 E0.03603
G1 X146.694 Y70.273 E0.03562
G1 X148.134 Y71.349 E0.05636
G1 X149.182 Y72.734 E0.05445
G1 X149.761 Y74.375 E0.05457
G1 X153.884 Y115.591 E1.29875
G1 X157.847 Y133.960 E0.58919
G1 X157.866 Y135.036 E0.03374
G1 X157.670 Y136.122 E0.03462
G1 X156.901 Y137.734 E0.05598
G1 X156.060 Y138.740 E0.04113
G1 X155.056 Y139.539 E0.04021
G1 X153.820 Y140.103 E0.04261
G1 X152.548 Y140.345 E0.04059
G1 X97.436 Y140.345 E1.72799
G1 X95.951 Y140.024 E0.04763
G1 X94.583 Y139.299 E0.04856
G1 X93.673 Y138.452 E0.03897
G1 X92.690 Y137.053 E0.05360
G1 X92.382 Y136.280 E0.02611
G1 X92.187 Y135.495 E0.02537
G1 X92.161 Y133.887 E0.05042
G1 X96.116 Y115.591 E0.58689
G1 X100.238 Y74.382 E1.29856
G1 X100.679 Y73.024 E0.04475
G1 X101.261 Y72.018 E0.03644
G1 X103.228 Y70.325 E0.08138
G1 X103.441 Y70.625 F10800.000
G1 F1200
G1 X104.471 Y70.219 E0.03472
G1 X105.558 Y70.032 E0.03457
G1 X144.489 Y70.036 E1.22064
G1 X145.517 Y70.216 E0.03273
G1 X146.533 Y70.614 E0.03421
G1 X147.886 Y71.634 E0.05314
G1 X148.836 Y72.888 E0.04933
G1 X149.388 Y74.436 E0.05152
G1 X153.511 Y115.650 E1.29869
G1 X157.470 Y133.985 E0.58814
G1 X157.489 Y135.023 E0.03256
G1 X157.304 Y136.029 E0.03206
G1 X156.596 Y137.511 E0.05148
G1 X155.808 Y138.458 E0.03863
G1 X154.877 Y139.207 E0.03746
G1 X153.725 Y139.737 E0.03975
G1 X152.530 Y139.968 E0.03818
G1 X97.457 Y139.968 E1.72677
G1 X96.058 Y139.662 E0.04490
G1 X94.783 Y138.978 E0.04536
G1 X93.970 Y138.218 E0.03490
G1 X93.032 Y136.892 E0.05093
G1 X92.745 Y136.176 E0.02420
G1 X92.558 Y135.425 E0.02427
G1 X92.538 Y133.904 E0.04770
G1 X96.489 Y115.650 E0.58557
G1 X100.611 Y74.440 E1.29858
G1 X101.030 Y73.161 E0.04219
G1 X101.570 Y72.235 E0.03360
G1 X103.396 Y70.664 E0.07552
G1 X103.610 Y70.963 F10800.000
G1 F1200
G1 X104.556 Y70.587 E0.03192
G1 X105.574 Y70.409 E0.03242
G1 X144.472 Y70.413 E1.21959
G1 X145.431 Y70.584 E0.03057
G1 X146.369 Y70.955 E0.03163
G1 X147.637 Y71.918 E0.04991
G1 X148.517 Y73.091 E0.04599
G1 X149.016 Y74.496 E0.04673
G1 X153.137 Y115.709 E1.29866
G1 X157.093 Y134.012 E0.58713
G1 X157.114 Y134.974 E0.03019
G1 X156.937 Y135.936 E0.03067
G1 X156.290 Y137.288 E0.04700
G1 X155.556 Y138.178 E0.03617
G1 X154.696 Y138.875 E0.03470
G1 X153.630 Y139.371 E0.03687
G1 X152.511 Y139.591 E0.03574
G1 X97.478 Y139.591 E1.72554
M73 Q3 S75
M73 P3 R75
G1 X96.166 Y139.300 E0.04213
G1 X94.985 Y138.659 E0.04214
G1 X94.266 Y137.984 E0.03091
G1 X93.373 Y136.731 E0.04824
G1 X93.100 Y136.048 E0.02306
G1 X92.929 Y135.356 E0.02236
G1 X92.911 Y133.963 E0.04368
G1 X96.862 Y115.709 E0.58558
G1 X100.984 Y74.498 E1.29859
G1 X101.382 Y73.299 E0.03961
G1 X101.879 Y72.454 E0.03076
G1 X103.564 Y71.002 E0.06973
G1 X103.778 Y71.302 F10800.000
G1 F1200
G1 X104.677 Y70.945 E0.03032
G1 X105.590 Y70.787 E0.02907
G1 X144.454 Y70.790 E1.21855
G1 X145.345 Y70.951 E0.02837
G1 X146.205 Y71.295 E0.02903
G1 X147.386 Y72.201 E0.04667
G1 X148.198 Y73.293 E0.04266
G1 X148.643 Y74.555 E0.04198
G1 X152.764 Y115.768 E1.29863
G1 X156.717 Y134.038 E0.58611
G1 X156.737 Y134.963 E0.02900
G1 X156.571 Y135.842 E0.02806
G1 X155.984 Y137.067 E0.04259
G1 X155.302 Y137.898 E0.03373
G1 X154.513 Y138.544 E0.03195
G1 X153.533 Y139.006 E0.03399
G1 X152.493 Y139.213 E0.03326
G1 X97.499 Y139.213 E1.72428
G1 X96.276 Y138.938 E0.03932
G1 X95.188 Y138.340 E0.03891
G1 X94.562 Y137.749 E0.02699
G1 X93.714 Y136.569 E0.04557
G1 X93.463 Y135.945 E0.02110
G1 X93.300 Y135.287 E0.02124
G1 X93.289 Y133.981 E0.04095
