; generated by PrusaSlicer 2.0.0+win64 on 2020-04-27 at 17:28:37

; 

; external perimeters extrusion width = 0.60mm
; perimeters extrusion width = 0.50mm
; infill extrusion width = 0.50mm
; solid infill extrusion width = 0.50mm
; top infill extrusion width = 0.45mm
; support material extrusion width = 0.35mm
; first layer extrusion width = 0.42mm

M73 P0 R12
M73 Q0 S12
M201 X1000 Y1000 Z1000 E5000 ; sets maximum accelerations, mm/sec^2
M203 X200 Y200 Z12 E120 ; sets maximum feedrates, mm/sec
M204 P1250 R1250 T1250 ; sets acceleration (P, T) and retract acceleration (R), mm/sec^2
M205 X8.00 Y8.00 Z0.40 E1.50 ; sets the jerk limits, mm/sec
M205 S0 T0 ; sets the minimum extruding and travel feed rate, mm/sec
M107
M115 U3.8.0 ; tell printer latest fw version
G90 ; use absolute coordinates
M83 ; extruder relative mode
M104 S215 ; set extruder temp
M140 S70 ; set bed temp
M190 S70 ; wait for bed temp
M109 S215 ; wait for extruder temp
G28 W ; home all without mesh bed level
G80 ; mesh bed leveling
G1 Y-3.0 F1000.0 ; go outside print area
G92 E0.0
G1 X60.0 E9.0 F1000.0 ; intro line
M73 Q0 S12
M73 P0 R12
G1 X100.0 E12.5 F1000.0 ; intro line
G92 E0.0
M221 S95
M900 K30 ; Filament gcode
G21 ; set units to millimeters
G90 ; use absolute coordinates
M83 ; use relative distances for extrusion
;BEFORE_LAYER_CHANGE
G92 E0.0
;0.2


G1 E-0.80000 F2100.00000
G1 Z0.600 F10800.000
;AFTER_LAYER_CHANGE
;0.2
G1 X105.310 Y88.574
G1 Z0.200
G1 E0.80000 F2100.00000
M204 S1000
G1 F1200
G1 X105.947 Y86.550 E0.06652
G1 X106.527 Y85.388 E0.04070
G1 X107.178 Y84.388 E0.03744
G1 X108.013 Y83.373 E0.04120
G1 X108.957 Y82.479 E0.04077
G1 X109.958 Y81.726 E0.03927
G1 X111.092 Y81.070 E0.04107
G1 X112.231 Y80.574 E0.03895
G1 X113.495 Y80.197 E0.04134
G1 X114.643 Y79.989 E0.03660
G1 X115.858 Y79.904 E0.03818
G1 X134.008 Y79.903 E0.56908
G1 X135.824 Y80.058 E0.05716
G1 X137.642 Y80.529 E0.05889
G1 X139.245 Y81.248 E0.05507
G1 X140.773 Y82.258 E0.05744
G1 X142.108 Y83.506 E0.05728
G1 X143.239 Y84.998 E0.05873
G1 X144.097 Y86.654 E0.05847
G1 X144.655 Y88.408 E0.05772
G1 X144.844 Y89.493 E0.03451
G1 X144.928 Y90.740 E0.03920
G1 X144.926 Y117.566 E0.84110
G1 X144.831 Y118.883 E0.04143
G1 X144.659 Y119.907 E0.03255
G1 X144.330 Y121.188 E0.04146
G1 X143.840 Y122.479 E0.04331
G1 X143.077 Y123.938 E0.05160
G1 X142.386 Y124.969 E0.03891
G1 X141.396 Y126.144 E0.04820
G1 X140.197 Y127.249 E0.05114
G1 X138.918 Y128.158 E0.04917
G1 X137.847 Y128.754 E0.03842
G1 X136.479 Y129.343 E0.04672
G1 X134.851 Y129.809 E0.05309
G1 X133.525 Y130.019 E0.04208
G1 X132.505 Y130.088 E0.03206
G1 X117.336 Y130.086 E0.47560
G1 X115.084 Y129.797 E0.07119
G1 X112.906 Y129.105 E0.07165
G1 X111.431 Y128.373 E0.05163
G1 X110.014 Y127.419 E0.05359
G1 X108.715 Y126.260 E0.05456
G1 X107.701 Y125.084 E0.04869
G1 X106.959 Y124.003 E0.04111
G1 X106.166 Y122.499 E0.05333
G1 X105.610 Y120.998 E0.05017
G1 X105.234 Y119.363 E0.05261
G1 X105.072 Y117.388 E0.06214
G1 X105.074 Y90.613 E0.83953
G1 X105.303 Y88.633 E0.06248
G1 F8640
G1 X105.947 Y86.550 E-0.50349
G1 X106.443 Y85.556 E-0.25651
G1 E-0.04000 F2100.00000
G1 Z0.800 F10800.000
G1 X125.011 Y126.792
G1 Z0.200
G1 E0.80000 F2100.00000
G1 F1200
G1 X123.952 Y127.517 E0.04021
G1 X122.519 Y128.250 E0.05049
G1 X120.824 Y128.830 E0.05615
G1 X119.056 Y129.149 E0.05633
G1 X117.267 Y129.197 E0.05614
G1 X115.494 Y128.978 E0.05600
G1 X113.874 Y128.531 E0.05270
G1 X112.326 Y127.855 E0.05296
G1 X110.876 Y126.957 E0.05346
G1 X109.557 Y125.857 E0.05387
G1 X107.811 Y123.709 E0.08677
G1 X107.046 Y122.299 E0.05032
G1 X106.509 Y120.909 E0.04671
G1 X106.153 Y119.476 E0.04629
G1 X105.981 Y118.028 E0.04572
G1 X105.957 Y90.251 E0.87095
G1 X106.614 Y87.366 E0.09275
G1 X107.043 Y86.257 E0.03730
G1 X108.406 Y84.255 E0.07593
G1 X110.254 Y82.594 E0.07790
G1 X112.440 Y81.439 E0.07752
G1 X114.806 Y80.865 E0.07633
G1 X135.146 Y80.861 E0.63775
G1 X138.571 Y81.865 E0.11192
G1 X139.879 Y82.688 E0.04845
G1 X141.075 Y83.679 E0.04870
G1 X142.995 Y86.359 E0.10336
G1 X143.951 Y89.571 E0.10506
G1 X144.049 Y117.514 E0.87614
G1 X143.932 Y118.987 E0.04635
G1 X143.633 Y120.452 E0.04685
G1 X142.805 Y122.624 E0.07291
G1 X141.810 Y124.272 E0.06035
G1 X140.683 Y125.618 E0.05504
G1 X139.374 Y126.779 E0.05487
G1 X138.126 Y127.612 E0.04703
G1 X136.593 Y128.361 E0.05349
G1 X134.140 Y129.051 E0.07991
G1 X132.737 Y129.203 E0.04425
G1 X131.334 Y129.188 E0.04399
G1 X129.403 Y128.891 E0.06125
G1 X127.705 Y128.349 E0.05588
G1 X126.152 Y127.584 E0.05428
G1 X125.060 Y126.827 E0.04168
G1 X125.012 Y126.334 F10800.000
G1 F1200
G1 X123.769 Y127.187 E0.04727
G1 X122.383 Y127.898 E0.04884
G1 X120.743 Y128.461 E0.05439
G1 X119.031 Y128.772 E0.05454
G1 X117.299 Y128.821 E0.05434
G1 X115.554 Y128.605 E0.05510
G1 X113.988 Y128.171 E0.05097
G1 X112.490 Y127.515 E0.05128
G1 X111.087 Y126.644 E0.05178
G1 X109.813 Y125.580 E0.05206
G1 X108.115 Y123.486 E0.08451
G1 X107.393 Y122.151 E0.04757
G1 X106.872 Y120.806 E0.04524
G1 X106.526 Y119.420 E0.04480
G1 X106.358 Y118.017 E0.04430
G1 X106.334 Y90.272 E0.86992
G1 X106.979 Y87.464 E0.09032
G1 X107.387 Y86.414 E0.03534
G1 X108.705 Y84.487 E0.07319
G1 X110.488 Y82.890 E0.07505
G1 X112.594 Y81.784 E0.07460
G1 X114.872 Y81.237 E0.07345
G1 X135.119 Y81.238 E0.63482
G1 X138.393 Y82.198 E0.10697
G1 X139.668 Y83.000 E0.04724
G1 X140.815 Y83.953 E0.04677
G1 X142.669 Y86.552 E0.10009
G1 X143.581 Y89.651 E0.10130
G1 X143.672 Y117.507 E0.87341
G1 X143.557 Y118.946 E0.04525
G1 X143.267 Y120.361 E0.04528
G1 X142.459 Y122.474 E0.07094
G1 X141.511 Y124.041 E0.05743
G1 X140.422 Y125.346 E0.05327
G1 X139.153 Y126.473 E0.05322
G1 X137.949 Y127.279 E0.04543
G1 X136.443 Y128.015 E0.05256
G1 X134.083 Y128.678 E0.07685
G1 X132.729 Y128.825 E0.04271
G1 X131.351 Y128.811 E0.04321
G1 X129.503 Y128.527 E0.05862
G1 X127.859 Y128.004 E0.05410
G1 X126.332 Y127.252 E0.05338
G1 X125.061 Y126.368 E0.04853
G1 X124.970 Y125.844 F10800.000
G1 F1200
G1 X124.685 Y126.101 E0.01204
G1 X123.586 Y126.857 E0.04182
G1 X122.247 Y127.546 E0.04720
G1 X120.660 Y128.093 E0.05263
G1 X119.006 Y128.396 E0.05274
G1 X117.303 Y128.444 E0.05343
G1 X115.615 Y128.233 E0.05331
G1 X114.102 Y127.811 E0.04925
G1 X112.654 Y127.175 E0.04960
G1 X111.297 Y126.331 E0.05010
G1 X110.069 Y125.302 E0.05024
G1 X108.420 Y123.262 E0.08225
G1 X107.741 Y122.004 E0.04484
G1 X107.235 Y120.703 E0.04377
G1 X106.898 Y119.363 E0.04332
G1 X106.735 Y118.005 E0.04287
G1 X106.711 Y90.293 E0.86889
G1 X107.343 Y87.563 E0.08787
G1 X107.730 Y86.571 E0.03338
G1 X109.002 Y84.720 E0.07044
G1 X110.721 Y83.188 E0.07219
G1 X112.748 Y82.130 E0.07169
G1 X114.938 Y81.609 E0.07058
G1 X135.040 Y81.607 E0.63028
G1 X138.215 Y82.532 E0.10369
G1 X139.437 Y83.298 E0.04523
G1 X140.556 Y84.227 E0.04560
G1 X142.343 Y86.744 E0.09679
G1 X143.212 Y89.731 E0.09753
G1 X143.295 Y117.500 E0.87070
G1 X143.182 Y118.904 E0.04415
G1 X142.901 Y120.269 E0.04371
G1 X142.113 Y122.323 E0.06897
G1 X141.212 Y123.811 E0.05454
G1 X140.161 Y125.074 E0.05151
G1 X138.932 Y126.167 E0.05157
G1 X137.772 Y126.946 E0.04382
G1 X136.293 Y127.669 E0.05161
G1 X134.027 Y128.304 E0.07379
G1 X132.700 Y128.449 E0.04186
G1 X131.369 Y128.435 E0.04173
G1 X129.603 Y128.163 E0.05601
G1 X128.013 Y127.660 E0.05231
G1 X126.511 Y126.920 E0.05248
G1 X125.020 Y125.879 E0.05705
G1 X124.995 Y125.310 F10800.000
G1 F1200
G1 X124.460 Y125.798 E0.02270
G1 X123.382 Y126.540 E0.04102
G1 X122.111 Y127.194 E0.04482
G1 X120.578 Y127.725 E0.05087
G1 X118.980 Y128.019 E0.05094
G1 X117.335 Y128.068 E0.05161
G1 X115.676 Y127.861 E0.05241
G1 X114.217 Y127.452 E0.04751
G1 X112.818 Y126.836 E0.04792
G1 X111.508 Y126.018 E0.04842
G1 X110.326 Y125.025 E0.04842
G1 X108.724 Y123.040 E0.07999
G1 X108.088 Y121.856 E0.04213
G1 X107.597 Y120.599 E0.04231
G1 X107.271 Y119.305 E0.04183
G1 X107.112 Y117.994 E0.04143
G1 X107.088 Y90.315 E0.86785
G1 X107.707 Y87.662 E0.08540
G1 X108.073 Y86.730 E0.03141
G1 X109.299 Y84.953 E0.06769
G1 X110.953 Y83.485 E0.06933
G1 X112.900 Y82.475 E0.06877
G1 X115.003 Y81.981 E0.06772
G1 X134.961 Y81.977 E0.62577
G1 X138.037 Y82.865 E0.10039
G1 X139.226 Y83.611 E0.04400
G1 X140.295 Y84.501 E0.04363
G1 X142.017 Y86.936 E0.09349
G1 X142.842 Y89.810 E0.09375
G1 X142.918 Y117.494 E0.86802
G1 X142.810 Y118.839 E0.04232
G1 X142.535 Y120.178 E0.04285
G1 X141.767 Y122.171 E0.06699
G1 X140.913 Y123.580 E0.05165
G1 X139.880 Y124.821 E0.05063
G1 X138.711 Y125.861 E0.04905
G1 X137.594 Y126.613 E0.04221
G1 X136.143 Y127.323 E0.05067
G1 X133.970 Y127.931 E0.07074
G1 X132.692 Y128.072 E0.04031
G1 X131.386 Y128.058 E0.04095
G1 X129.703 Y127.799 E0.05339
G1 X128.140 Y127.304 E0.05140
G1 X126.691 Y126.589 E0.05069
G1 X125.361 Y125.661 E0.05085
G1 X125.038 Y125.352 E0.01402
G1 X125.003 Y124.790 F10800.000
G1 F1200
G1 X124.235 Y125.495 E0.03268
G1 X123.178 Y126.222 E0.04022
G1 X121.951 Y126.853 E0.04326
G1 X120.469 Y127.364 E0.04916
G1 X118.927 Y127.646 E0.04915
G1 X117.339 Y127.691 E0.04981
G1 X115.738 Y127.488 E0.05061
G1 X114.332 Y127.093 E0.04577
G1 X112.983 Y126.497 E0.04624
G1 X111.720 Y125.706 E0.04674
G1 X110.582 Y124.749 E0.04661
G1 X109.048 Y122.846 E0.07665
G1 X108.425 Y121.688 E0.04122
G1 X107.953 Y120.473 E0.04085
G1 X107.640 Y119.225 E0.04035
G1 X107.488 Y117.960 E0.03997
G1 X107.466 Y90.337 E0.86611
G1 X108.071 Y87.762 E0.08292
G1 X108.415 Y86.889 E0.02944
G1 X109.596 Y85.187 E0.06494
G1 X111.185 Y83.784 E0.06646
G1 X113.052 Y82.821 E0.06585
G1 X115.067 Y82.354 E0.06486
G1 X134.934 Y82.354 E0.62293
G1 X137.859 Y83.199 E0.09546
G1 X138.994 Y83.909 E0.04198
G1 X140.035 Y84.775 E0.04244
G1 X141.690 Y87.126 E0.09015
G1 X142.472 Y89.887 E0.08998
G1 X142.541 Y117.487 E0.86537
G1 X142.435 Y118.797 E0.04122
G1 X142.169 Y120.086 E0.04127
G1 X141.435 Y121.991 E0.06399
G1 X140.614 Y123.351 E0.04981
G1 X139.618 Y124.550 E0.04886
G1 X138.490 Y125.556 E0.04741
G1 X137.417 Y126.280 E0.04058
G1 X135.992 Y126.976 E0.04972
G1 X133.914 Y127.558 E0.06768
G1 X132.663 Y127.696 E0.03946
G1 X131.404 Y127.681 E0.03946
G1 X129.803 Y127.435 E0.05080
G1 X128.294 Y126.960 E0.04959
G1 X126.871 Y126.257 E0.04978
G1 X125.590 Y125.361 E0.04901
G1 X125.046 Y124.832 E0.02380
G1 X125.011 Y124.269 F10800.000
G1 F1200
G1 X124.010 Y125.192 E0.04269
G1 X122.975 Y125.905 E0.03940
G1 X121.791 Y126.511 E0.04169
G1 X120.360 Y127.002 E0.04745
G1 X118.874 Y127.272 E0.04736
G1 X117.343 Y127.313 E0.04800
G1 X115.800 Y127.116 E0.04880
G1 X114.448 Y126.734 E0.04404
G1 X113.149 Y126.157 E0.04456
G1 X111.932 Y125.394 E0.04506
G1 X110.839 Y124.472 E0.04480
G1 X109.372 Y122.651 E0.07334
G1 X108.772 Y121.540 E0.03959
G1 X108.316 Y120.370 E0.03938
G1 X108.013 Y119.168 E0.03885
G1 X107.864 Y117.926 E0.03923
G1 X107.843 Y90.359 E0.86436
G1 X108.434 Y87.863 E0.08042
G1 X108.758 Y87.048 E0.02748
G1 X109.892 Y85.421 E0.06218
G1 X111.416 Y84.083 E0.06360
G1 X113.202 Y83.168 E0.06293
G1 X115.130 Y82.726 E0.06201
G1 X134.856 Y82.724 E0.61849
G1 X137.682 Y83.533 E0.09216
G1 X138.783 Y84.222 E0.04074
G1 X139.774 Y85.048 E0.04045
G1 X141.362 Y87.316 E0.08681
G1 X142.102 Y89.964 E0.08620
G1 X142.164 Y117.480 E0.86275
G1 X142.060 Y118.755 E0.04012
G1 X141.803 Y119.994 E0.03969
G1 X141.104 Y121.811 E0.06101
G1 X140.314 Y123.121 E0.04797
G1 X139.356 Y124.278 E0.04709
G1 X138.268 Y125.251 E0.04578
G1 X137.239 Y125.947 E0.03894
G1 X135.842 Y126.630 E0.04876
G1 X133.857 Y127.185 E0.06464
G1 X132.656 Y127.319 E0.03789
G1 X131.422 Y127.304 E0.03868
G1 X129.902 Y127.071 E0.04822
G1 X128.448 Y126.615 E0.04777
G1 X127.051 Y125.925 E0.04886
G1 X125.819 Y125.062 E0.04715
G1 X125.054 Y124.311 E0.03362
G1 X125.019 Y123.747 F10800.000
G1 F1200
G1 X123.785 Y124.889 E0.05273
G1 X122.771 Y125.587 E0.03858
G1 X121.632 Y126.169 E0.04012
G1 X120.279 Y126.634 E0.04486
G1 X118.821 Y126.898 E0.04645
G1 X117.349 Y126.936 E0.04617
G1 X115.862 Y126.744 E0.04700
G1 X114.564 Y126.375 E0.04230
G1 X113.315 Y125.818 E0.04289
G1 X112.144 Y125.082 E0.04338
G1 X111.097 Y124.196 E0.04300
G1 X109.695 Y122.457 E0.07004
G1 X109.119 Y121.392 E0.03795
G1 X108.672 Y120.244 E0.03864
G1 X108.382 Y119.088 E0.03735
G1 X108.239 Y117.893 E0.03776
G1 X108.220 Y90.381 E0.86261
M73 Q8 S11
G1 X108.798 Y87.964 E0.07790
G1 X109.100 Y87.209 E0.02550
G1 X110.187 Y85.657 E0.05943
G1 X111.646 Y84.382 E0.06073
G1 X113.352 Y83.515 E0.06001
M73 P8 R11
G1 X115.192 Y83.098 E0.05917
G1 X134.830 Y83.101 E0.61571
G1 X137.505 Y83.866 E0.08724
G1 X138.552 Y84.520 E0.03869
G1 X139.513 Y85.322 E0.03926
G1 X141.008 Y87.448 E0.08149
G1 X141.732 Y90.041 E0.08439
G1 X141.786 Y117.473 E0.86012
G1 X141.689 Y118.690 E0.03828
G1 X141.437 Y119.903 E0.03884
G1 X140.772 Y121.631 E0.05804
G1 X140.015 Y122.892 E0.04612
G1 X139.075 Y124.027 E0.04620
G1 X138.046 Y124.946 E0.04327
G1 X137.061 Y125.614 E0.03730
G1 X135.692 Y126.284 E0.04779
G1 X133.799 Y126.812 E0.06161
G1 X132.648 Y126.942 E0.03634
G1 X131.466 Y126.929 E0.03707
G1 X129.973 Y126.701 E0.04734
G1 X128.575 Y126.260 E0.04595
G1 X127.255 Y125.608 E0.04616
G1 X126.049 Y124.762 E0.04620
G1 X125.062 Y123.789 E0.04346
G1 X124.969 Y123.166 F10800.000
G1 F1200
G1 X124.560 Y123.671 E0.02038
G1 X123.561 Y124.586 E0.04248
G1 X122.588 Y125.257 E0.03703
G1 X121.472 Y125.827 E0.03930
G1 X120.170 Y126.272 E0.04315
G1 X118.769 Y126.525 E0.04466
G1 X117.354 Y126.559 E0.04435
G1 X115.925 Y126.372 E0.04520
G1 X114.681 Y126.016 E0.04057
G1 X113.481 Y125.480 E0.04122
G1 X112.356 Y124.770 E0.04170
G1 X111.354 Y123.920 E0.04120
G1 X110.018 Y122.262 E0.06677
G1 X109.466 Y121.243 E0.03633
G1 X109.034 Y120.140 E0.03714
G1 X108.750 Y119.009 E0.03658
G1 X108.615 Y117.859 E0.03628
G1 X108.597 Y90.403 E0.86088
G1 X109.161 Y88.066 E0.07537
G1 X109.441 Y87.370 E0.02353
G1 X110.482 Y85.893 E0.05666
G1 X111.875 Y84.683 E0.05786
G1 X113.500 Y83.862 E0.05709
G1 X115.254 Y83.471 E0.05634
G1 X134.752 Y83.471 E0.61135
G1 X137.328 Y84.201 E0.08394
G1 X138.341 Y84.833 E0.03744
G1 X139.252 Y85.595 E0.03724
G1 X140.680 Y87.637 E0.07815
G1 X141.362 Y90.116 E0.08060
G1 X141.409 Y117.466 E0.85753
G1 X141.314 Y118.648 E0.03718
G1 X141.071 Y119.811 E0.03725
G1 X140.440 Y121.451 E0.05510
G1 X139.715 Y122.662 E0.04426
G1 X138.794 Y123.775 E0.04530
G1 X137.823 Y124.641 E0.04079
G1 X136.883 Y125.281 E0.03565
G1 X135.542 Y125.937 E0.04683
G1 X133.742 Y126.439 E0.05859
G1 X132.639 Y126.565 E0.03479
G1 X131.509 Y126.554 E0.03544
G1 X130.045 Y126.330 E0.04645
G1 X128.703 Y125.905 E0.04413
G1 X127.460 Y125.291 E0.04346
G1 X126.279 Y124.463 E0.04524
G1 X125.011 Y123.208 E0.05592
G1 X124.999 Y122.523 F10800.000
G1 F1200
G1 X124.294 Y123.403 E0.03536
G1 X123.316 Y124.299 E0.04160
G1 X122.385 Y124.939 E0.03541
G1 X121.337 Y125.475 E0.03690
G1 X120.088 Y125.904 E0.04139
G1 X118.744 Y126.148 E0.04284
G1 X117.388 Y126.183 E0.04253
G1 X116.015 Y126.006 E0.04341
G1 X114.798 Y125.657 E0.03969
G1 X113.648 Y125.141 E0.03952
G1 X112.570 Y124.459 E0.04002
G1 X111.612 Y123.645 E0.03940
G1 X110.342 Y122.067 E0.06351
G1 X109.803 Y121.074 E0.03542
G1 X109.390 Y120.015 E0.03565
G1 X109.119 Y118.929 E0.03508
G1 X108.991 Y117.827 E0.03480
G1 X108.974 Y90.426 E0.85914
G1 X109.524 Y88.170 E0.07281
G1 X109.782 Y87.533 E0.02155
G1 X110.776 Y86.130 E0.05390
G1 X112.103 Y84.984 E0.05499
G1 X113.648 Y84.210 E0.05416
G1 X115.315 Y83.843 E0.05351
G1 X134.675 Y83.841 E0.60704
G1 X137.152 Y84.535 E0.08064
G1 X138.109 Y85.130 E0.03535
G1 X138.990 Y85.868 E0.03603
G1 X140.352 Y87.825 E0.07476
G1 X140.991 Y90.190 E0.07680
G1 X141.032 Y117.458 E0.85498
G1 X140.939 Y118.605 E0.03607
G1 X140.705 Y119.718 E0.03566
G1 X140.108 Y121.272 E0.05219
G1 X139.415 Y122.433 E0.04240
G1 X138.512 Y123.524 E0.04439
G1 X137.600 Y124.337 E0.03831
G1 X136.705 Y124.949 E0.03399
G1 X135.392 Y125.591 E0.04585
G1 X133.684 Y126.066 E0.05558
G1 X132.630 Y126.187 E0.03325
G1 X131.553 Y126.179 E0.03379
G1 X130.117 Y125.960 E0.04555
G1 X128.831 Y125.550 E0.04230
G1 X127.665 Y124.974 E0.04079
G1 X126.507 Y124.162 E0.04433
G1 X125.462 Y123.141 E0.04583
G1 X125.035 Y122.571 E0.02233
G1 X125.009 Y121.903 F10800.000
G1 F1200
G1 X124.028 Y123.135 E0.04939
G1 X123.071 Y124.012 E0.04070
G1 X122.182 Y124.621 E0.03379
G1 X121.201 Y125.123 E0.03454
G1 X120.006 Y125.536 E0.03964
G1 X118.719 Y125.772 E0.04103
