; generated by PrusaSlicer 2.0.0+win64 on 2020-04-21 at 18:50:17

; 

; external perimeters extrusion width = 0.60mm
; perimeters extrusion width = 0.50mm
; infill extrusion width = 0.50mm
; solid infill extrusion width = 0.50mm
; top infill extrusion width = 0.45mm
; first layer extrusion width = 0.42mm

M73 P0 R77
M73 Q0 S78
M201 X1000 Y1000 Z1000 E5000 ; sets maximum accelerations, mm/sec^2
M203 X200 Y200 Z12 E120 ; sets maximum feedrates, mm/sec
M204 P1250 R1250 T1250 ; sets acceleration (P, T) and retract acceleration (R), mm/sec^2
M205 X8.00 Y8.00 Z0.40 E1.50 ; sets the jerk limits, mm/sec
M205 S0 T0 ; sets the minimum extruding and travel feed rate, mm/sec
M107
M115 U3.8.0 ; tell printer latest fw version
G90 ; use absolute coordinates
M83 ; extruder relative mode
M104 S215 ; set extruder temp
M140 S70 ; set bed temp
M190 S70 ; wait for bed temp
M109 S215 ; wait for extruder temp
G28 W ; home all without mesh bed level
G80 ; mesh bed leveling
G1 Y-3.0 F1000.0 ; go outside print area
G92 E0.0
G1 X60.0 E9.0 F1000.0 ; intro line
M73 Q0 S77
M73 P0 R77
G1 X100.0 E12.5 F1000.0 ; intro line
G92 E0.0
M221 S95
M900 K30 ; Filament gcode
G21 ; set units to millimeters
G90 ; use absolute coordinates
M83 ; use relative distances for extrusion
;BEFORE_LAYER_CHANGE
G92 E0.0
;0.2


G1 E-0.80000 F2100.00000
G1 Z0.600 F10800.000
;AFTER_LAYER_CHANGE
;0.2
G1 X97.686 Y69.957
G1 Z0.200
G1 E0.80000 F2100.00000
M204 S1000
G1 F1200
G1 X98.351 Y69.070 E0.03475
G1 X99.110 Y68.262 E0.03475
G1 X99.948 Y67.549 E0.03451
G1 X100.866 Y66.927 E0.03475
G1 X101.847 Y66.411 E0.03475
G1 X102.879 Y66.007 E0.03475
G1 X103.950 Y65.720 E0.03475
G1 X105.045 Y65.553 E0.03475
G1 X144.008 Y65.507 E1.22164
G1 X145.694 Y65.652 E0.05307
G1 X147.332 Y66.079 E0.05307
G1 X148.868 Y66.773 E0.05283
G1 X150.271 Y67.720 E0.05307
G1 X151.494 Y68.890 E0.05307
G1 X152.498 Y70.243 E0.05283
G1 X153.263 Y71.753 E0.05307
G1 X153.761 Y73.362 E0.05283
G1 X161.945 Y133.522 E1.90364
G1 X161.965 Y135.238 E0.05380
G1 X161.694 Y136.924 E0.05356
G1 X161.136 Y138.547 E0.05380
G1 X160.314 Y140.044 E0.05356
G1 X159.608 Y140.978 E0.03671
G1 X158.792 Y141.829 E0.03695
G1 X157.888 Y142.573 E0.03671
G1 X156.897 Y143.210 E0.03695
G1 X155.845 Y143.723 E0.03671
G1 X154.732 Y144.112 E0.03695
G1 X153.581 Y144.367 E0.03695
G1 X152.408 Y144.484 E0.03695
G1 X97.719 Y144.489 E1.71475
G1 X96.321 Y144.351 E0.04404
G1 X94.964 Y144.020 E0.04380
G1 X93.666 Y143.504 E0.04380
G1 X92.453 Y142.812 E0.04380
G1 X91.413 Y142.014 E0.04111
G1 X90.480 Y141.081 E0.04135
G1 X89.679 Y140.033 E0.04135
G1 X89.026 Y138.896 E0.04111
G1 X88.526 Y137.676 E0.04135
G1 X88.191 Y136.408 E0.04111
G1 X88.025 Y135.100 E0.04135
G1 X88.033 Y133.781 E0.04135
G1 X96.120 Y74.003 E1.89138
G1 X96.343 Y72.933 E0.03426
G1 X96.681 Y71.894 E0.03426
G1 X97.130 Y70.898 E0.03426
G1 X97.655 Y70.008 E0.03238
G1 X97.960 Y70.166 F10800.000
G1 F1200
G1 X98.015 Y70.060 E0.00375
G1 X101.158 Y67.139 E0.13455
G1 X103.057 Y66.322 E0.06482
G1 X105.253 Y65.884 E0.07023
G1 X144.676 Y65.888 E1.23607
G1 X146.565 Y66.201 E0.06004
G1 X148.345 Y66.873 E0.05964
G1 X150.668 Y68.550 E0.08982
G1 X152.496 Y70.933 E0.09417
G1 X153.485 Y73.779 E0.09446
G1 X156.521 Y114.855 E1.29142
G1 X161.538 Y133.090 E0.59301
G1 X161.547 Y136.085 E0.09390
G1 X160.981 Y138.066 E0.06460
G1 X160.020 Y139.845 E0.06339
G1 X158.646 Y141.491 E0.06721
G1 X156.861 Y142.858 E0.07051
G1 X154.863 Y143.730 E0.06835
G1 X152.743 Y144.116 E0.06757
G1 X97.225 Y144.116 E1.74072
G1 X94.843 Y143.635 E0.07620
G1 X92.638 Y142.545 E0.07711
G1 X90.619 Y140.687 E0.08603
G1 X89.114 Y138.321 E0.08794
G1 X88.686 Y137.090 E0.04083
G1 X88.417 Y135.833 E0.04031
G1 X88.376 Y133.692 E0.06715
G1 X93.479 Y114.859 E0.61179
G1 X96.465 Y74.053 E1.28286
G1 X97.061 Y71.894 E0.07022
G1 X97.932 Y70.220 E0.05919
G1 X98.266 Y70.394 F10800.000
G1 F1200
G1 X98.334 Y70.264 E0.00461
G1 X101.337 Y67.472 E0.12856
G1 X103.151 Y66.687 E0.06195
G1 X105.272 Y66.262 E0.06785
G1 X144.661 Y66.265 E1.23500
G1 X146.450 Y66.561 E0.05684
G1 X148.188 Y67.217 E0.05826
G1 X150.424 Y68.839 E0.08660
G1 X152.177 Y71.137 E0.09065
G1 X153.121 Y73.878 E0.09088
G1 X156.147 Y114.919 E1.29031
G1 X161.161 Y133.117 E0.59185
G1 X161.177 Y136.008 E0.09064
G1 X160.639 Y137.906 E0.06184
G1 X159.717 Y139.618 E0.06099
G1 X158.399 Y141.205 E0.06467
G1 X156.688 Y142.522 E0.06771
G1 X154.773 Y143.363 E0.06557
G1 X152.726 Y143.738 E0.06527
G1 X97.244 Y143.738 E1.73958
G1 X94.942 Y143.271 E0.07365
G1 X92.830 Y142.220 E0.07395
G1 X90.893 Y140.427 E0.08276
G1 X89.463 Y138.176 E0.08364
G1 X89.053 Y137.000 E0.03905
G1 X88.790 Y135.772 E0.03936
G1 X88.754 Y133.712 E0.06460
G1 X93.852 Y114.923 E0.61044
G1 X96.839 Y74.099 E1.28341
G1 X97.419 Y72.015 E0.06784
G1 X98.238 Y70.447 E0.05546
G1 X98.653 Y70.467 F10800.000
G1 F1200
G1 X101.517 Y67.805 E0.12262
G1 X103.245 Y67.053 E0.05909
G1 X105.291 Y66.639 E0.06545
G1 X144.645 Y66.642 E1.23391
G1 X146.369 Y66.930 E0.05479
G1 X148.030 Y67.560 E0.05572
G1 X150.179 Y69.127 E0.08338
G1 X151.859 Y71.340 E0.08712
G1 X152.756 Y73.976 E0.08731
G1 X155.774 Y114.984 E1.28923
G1 X160.785 Y133.145 E0.59072
G1 X160.807 Y135.932 E0.08738
G1 X160.297 Y137.746 E0.05908
G1 X159.414 Y139.393 E0.05858
G1 X158.152 Y140.920 E0.06212
G1 X156.514 Y142.187 E0.06492
G1 X154.683 Y142.997 E0.06278
G1 X152.708 Y143.361 E0.06296
G1 X97.263 Y143.361 E1.73844
G1 X95.043 Y142.906 E0.07108
G1 X93.024 Y141.895 E0.07079
G1 X91.168 Y140.168 E0.07949
G1 X89.812 Y138.031 E0.07936
G1 X89.413 Y136.887 E0.03799
G1 X89.163 Y135.712 E0.03766
G1 X89.131 Y133.733 E0.06206
G1 X94.226 Y114.987 E0.60910
G1 X97.214 Y74.146 E1.28396
G1 X97.777 Y72.136 E0.06544
G1 X98.625 Y70.520 E0.05721
G1 X98.958 Y70.696 F10800.000
G1 F1200
G1 X101.698 Y68.138 E0.11754
G1 X103.341 Y67.418 E0.05624
G1 X105.310 Y67.016 E0.06303
G1 X144.629 Y67.019 E1.23281
M73 Q1 S76
G1 X146.287 Y67.298 E0.05272
G1 X147.871 Y67.903 E0.05317
G1 X149.933 Y69.414 E0.08015
M73 P1 R76
G1 X151.539 Y71.543 E0.08359
G1 X152.391 Y74.074 E0.08374
G1 X155.401 Y115.048 E1.28819
G1 X160.408 Y133.174 E0.58960
G1 X160.437 Y135.857 E0.08413
G1 X159.954 Y137.587 E0.05631
G1 X159.111 Y139.168 E0.05618
G1 X157.903 Y140.635 E0.05958
G1 X156.340 Y141.852 E0.06213
G1 X154.592 Y142.630 E0.05999
G1 X152.691 Y142.984 E0.06063
G1 X97.282 Y142.984 E1.73730
G1 X95.189 Y142.558 E0.06698
G1 X93.217 Y141.570 E0.06916
G1 X91.473 Y139.945 E0.07474
G1 X90.160 Y137.886 E0.07658
G1 X89.779 Y136.797 E0.03618
G1 X89.535 Y135.652 E0.03670
G1 X89.509 Y133.755 E0.05950
G1 X94.599 Y115.051 E0.60778
G1 X97.589 Y74.193 E1.28450
G1 X98.134 Y72.258 E0.06303
G1 X98.930 Y70.749 E0.05348
G1 X99.263 Y70.926 F10800.000
G1 F1200
G1 X99.289 Y70.876 E0.00176
G1 X101.879 Y68.470 E0.11084
G1 X103.437 Y67.783 E0.05339
G1 X105.330 Y67.393 E0.06060
G1 X144.613 Y67.396 E1.23170
G1 X146.205 Y67.667 E0.05064
G1 X147.712 Y68.246 E0.05061
G1 X149.687 Y69.701 E0.07692
G1 X151.219 Y71.744 E0.08005
G1 X152.026 Y74.170 E0.08018
G1 X155.027 Y115.113 E1.28717
G1 X160.031 Y133.204 E0.58851
G1 X160.066 Y135.783 E0.08088
G1 X159.612 Y137.429 E0.05354
G1 X158.807 Y138.944 E0.05378
G1 X157.654 Y140.352 E0.05705
G1 X156.165 Y141.517 E0.05930
G1 X154.459 Y142.277 E0.05856
G1 X152.674 Y142.607 E0.05692
G1 X97.302 Y142.607 E1.73615
G1 X95.290 Y142.194 E0.06439
G1 X93.411 Y141.246 E0.06597
G1 X91.749 Y139.687 E0.07148
G1 X90.509 Y137.740 E0.07235
G1 X90.139 Y136.683 E0.03511
G1 X89.908 Y135.592 E0.03497
G1 X89.886 Y133.776 E0.05694
G1 X94.973 Y115.115 E0.60648
G1 X97.963 Y74.239 E1.28504
G1 X98.491 Y72.380 E0.06059
G1 X99.235 Y70.979 E0.04974
G1 X99.567 Y71.157 F10800.000
G1 F1200
G1 X99.607 Y71.082 E0.00266
G1 X102.060 Y68.802 E0.10501
G1 X103.534 Y68.148 E0.05054
G1 X105.349 Y67.770 E0.05815
G1 X144.597 Y67.773 E1.23058
G1 X146.123 Y68.035 E0.04854
G1 X147.552 Y68.588 E0.04805
G1 X149.440 Y69.987 E0.07368
G1 X150.898 Y71.944 E0.07651
G1 X151.660 Y74.266 E0.07662
G1 X154.654 Y115.178 E1.28620
G1 X159.655 Y133.234 E0.58745
G1 X159.695 Y135.709 E0.07761
G1 X159.254 Y137.309 E0.05203
G1 X158.503 Y138.720 E0.05012
G1 X157.404 Y140.068 E0.05454
G1 X155.989 Y141.183 E0.05648
G1 X154.367 Y141.910 E0.05573
G1 X152.656 Y142.230 E0.05458
G1 X97.321 Y142.230 E1.73499
G1 X95.391 Y141.830 E0.06179
G1 X93.606 Y140.922 E0.06279
G1 X92.054 Y139.464 E0.06680
G1 X90.857 Y137.594 E0.06958
G1 X90.505 Y136.593 E0.03327
G1 X90.281 Y135.533 E0.03399
G1 X90.263 Y133.799 E0.05437
G1 X95.346 Y115.179 E0.60519
G1 X98.338 Y74.287 E1.28557
G1 X98.848 Y72.504 E0.05814
G1 X99.539 Y71.209 E0.04600
G1 X99.871 Y71.388 F10800.000
G1 F1200
G1 X99.924 Y71.288 E0.00355
G1 X102.243 Y69.133 E0.09923
G1 X103.632 Y68.513 E0.04769
G1 X105.369 Y68.147 E0.05567
G1 X144.581 Y68.150 E1.22946
G1 X146.004 Y68.394 E0.04527
G1 X147.392 Y68.931 E0.04665
G1 X149.193 Y70.273 E0.07043
G1 X150.549 Y72.092 E0.07115
G1 X151.286 Y74.317 E0.07348
G1 X154.281 Y115.243 E1.28663
G1 X159.278 Y133.265 E0.58641
G1 X159.324 Y135.636 E0.07435
G1 X158.910 Y137.151 E0.04924
G1 X158.199 Y138.497 E0.04774
G1 X157.154 Y139.786 E0.05202
G1 X155.812 Y140.849 E0.05367
G1 X154.274 Y141.544 E0.05290
G1 X152.638 Y141.853 E0.05221
G1 X97.341 Y141.853 E1.73381
G1 X95.494 Y141.466 E0.05916
G1 X93.802 Y140.599 E0.05960
G1 X92.358 Y139.240 E0.06218
G1 X91.206 Y137.448 E0.06680
G1 X90.865 Y136.480 E0.03218
G1 X90.654 Y135.474 E0.03223
G1 X90.640 Y133.822 E0.05180
G1 X95.719 Y115.243 E0.60392
G1 X98.713 Y74.334 E1.28610
G1 X99.205 Y72.628 E0.05567
G1 X99.842 Y71.441 E0.04226
G1 X100.241 Y71.494 F10800.000
G1 F1200
G1 X102.426 Y69.464 E0.09350
G1 X103.730 Y68.878 E0.04486
G1 X105.389 Y68.524 E0.05318
G1 X144.565 Y68.527 E1.22832
G1 X145.921 Y68.762 E0.04316
G1 X147.230 Y69.272 E0.04406
G1 X148.944 Y70.558 E0.06717
G1 X150.228 Y72.292 E0.06765
G1 X150.912 Y74.367 E0.06851
G1 X153.907 Y115.307 E1.28707
G1 X156.221 Y123.699 E0.27296
G1 X158.902 Y133.298 E0.31247
G1 X158.953 Y135.565 E0.07109
G1 X158.567 Y136.995 E0.04645
G1 X157.893 Y138.275 E0.04537
G1 X156.902 Y139.505 E0.04951
G1 X155.634 Y140.516 E0.05085
G1 X154.181 Y141.178 E0.05006
G1 X152.620 Y141.476 E0.04983
G1 X97.361 Y141.476 E1.73263
G1 X95.597 Y141.103 E0.05651
G1 X93.999 Y140.277 E0.05641
G1 X92.662 Y139.016 E0.05761
G1 X91.554 Y137.302 E0.06401
G1 X91.225 Y136.367 E0.03108
G1 X91.027 Y135.416 E0.03046
G1 X91.018 Y133.846 E0.04923
G1 X96.093 Y115.307 E0.60266
M73 Q2 S75
M73 P2 R75
G1 X99.087 Y74.381 E1.28662
G1 X99.561 Y72.753 E0.05318
G1 X100.213 Y71.547 E0.04297
G1 X100.544 Y71.727 F10800.000
G1 F1200
G1 X102.609 Y69.795 E0.08869
G1 X103.830 Y69.242 E0.04202
G1 X105.409 Y68.901 E0.05066
G1 X144.548 Y68.904 E1.22717
G1 X145.837 Y69.130 E0.04102
G1 X147.068 Y69.614 E0.04147
G1 X148.694 Y70.842 E0.06391
G1 X149.907 Y72.490 E0.06415
G1 X150.537 Y74.417 E0.06358
G1 X153.534 Y115.371 E1.28752
G1 X155.858 Y123.800 E0.27414
G1 X158.526 Y133.331 E0.31032
G1 X158.582 Y135.494 E0.06783
G1 X158.223 Y136.839 E0.04364
G1 X157.587 Y138.054 E0.04300
G1 X156.650 Y139.224 E0.04701
G1 X155.455 Y140.183 E0.04804
G1 X154.087 Y140.812 E0.04721
G1 X152.602 Y141.099 E0.04742
G1 X97.381 Y141.099 E1.73143
G1 X95.702 Y140.739 E0.05383
G1 X94.197 Y139.955 E0.05321
G1 X92.966 Y138.792 E0.05309
G1 X91.902 Y137.155 E0.06123
G1 X91.591 Y136.277 E0.02918
G1 X91.400 Y135.358 E0.02945
G1 X91.395 Y133.870 E0.04664
G1 X96.466 Y115.371 E0.60143
G1 X99.462 Y74.429 E1.28714
G1 X99.917 Y72.879 E0.05066
G1 X100.515 Y71.780 E0.03923
G1 X100.845 Y71.961 F10800.000
G1 F1200
G1 X100.874 Y71.910 E0.00184
G1 X102.794 Y70.125 E0.08219
G1 X103.931 Y69.606 E0.03919
G1 X105.430 Y69.278 E0.04812
G1 X144.531 Y69.282 E1.22600
G1 X145.752 Y69.498 E0.03886
G1 X146.904 Y69.955 E0.03887
G1 X148.445 Y71.126 E0.06066
G1 X149.558 Y72.637 E0.05887
G1 X150.163 Y74.468 E0.06047
G1 X153.161 Y115.436 E1.28794
G1 X155.495 Y123.901 E0.27533
G1 X158.156 Y133.411 E0.30962
G1 X158.210 Y135.424 E0.06316
G1 X157.878 Y136.684 E0.04085
G1 X157.281 Y137.834 E0.04062
G1 X156.396 Y138.944 E0.04452
G1 X155.276 Y139.850 E0.04518
G1 X153.950 Y140.460 E0.04574
G1 X152.584 Y140.722 E0.04361
G1 X97.400 Y140.722 E1.73025
G1 X95.853 Y140.393 E0.04959
G1 X94.395 Y139.632 E0.05158
G1 X93.270 Y138.567 E0.04859
G1 X92.250 Y137.007 E0.05843
G1 X91.951 Y136.164 E0.02806
G1 X91.773 Y135.301 E0.02763
G1 X91.772 Y133.896 E0.04405
G1 X96.839 Y115.435 E0.60022
G1 X99.836 Y74.477 E1.28765
G1 X100.273 Y73.006 E0.04811
G1 X100.817 Y72.014 E0.03547
G1 X101.146 Y72.196 F10800.000
G1 F1200
G1 X101.189 Y72.119 E0.00277
G1 X102.979 Y70.455 E0.07662
G1 X104.032 Y69.969 E0.03637
G1 X105.451 Y69.655 E0.04555
G1 X144.514 Y69.659 E1.22481
G1 X145.666 Y69.865 E0.03668
G1 X146.740 Y70.295 E0.03627
G1 X148.193 Y71.408 E0.05740
G1 X149.236 Y72.835 E0.05542
G1 X149.789 Y74.519 E0.05556
G1 X152.787 Y115.500 E1.28839
G1 X155.131 Y124.002 E0.27651
G1 X157.787 Y133.490 E0.30892
G1 X157.839 Y135.356 E0.05852
G1 X157.533 Y136.530 E0.03805
G1 X156.974 Y137.614 E0.03825
G1 X156.141 Y138.665 E0.04203
G1 X155.095 Y139.519 E0.04234
G1 X153.855 Y140.094 E0.04285
G1 X152.566 Y140.345 E0.04118
G1 X97.421 Y140.345 E1.72904
G1 X95.958 Y140.030 E0.04689
G1 X94.594 Y139.311 E0.04836
G1 X93.573 Y138.341 E0.04416
G1 X92.597 Y136.859 E0.05564
G1 X92.318 Y136.075 E0.02611
G1 X92.146 Y135.244 E0.02660
G1 X92.149 Y133.922 E0.04145
G1 X97.213 Y115.500 E0.59903
G1 X100.211 Y74.525 E1.28816
G1 X100.628 Y73.134 E0.04554
G1 X101.117 Y72.248 E0.03172
G1 X101.504 Y72.328 F10800.000
G1 F1200
G1 X103.165 Y70.784 E0.07112
G1 X104.135 Y70.333 E0.03356
G1 X105.472 Y70.032 E0.04295
G1 X144.498 Y70.036 E1.22363
G1 X145.544 Y70.223 E0.03332
G1 X146.575 Y70.635 E0.03483
G1 X147.942 Y71.690 E0.05412
G1 X148.887 Y72.982 E0.05021
G1 X149.414 Y74.570 E0.05245
G1 X152.414 Y115.565 E1.28881
G1 X154.768 Y124.103 E0.27770
G1 X157.418 Y133.570 E0.30822
G1 X157.467 Y135.287 E0.05386
G1 X157.174 Y136.415 E0.03655
G1 X156.666 Y137.395 E0.03461
G1 X155.886 Y138.387 E0.03958
G1 X154.913 Y139.188 E0.03950
G1 X153.759 Y139.729 E0.03995
G1 X152.547 Y139.968 E0.03873
G1 X97.441 Y139.968 E1.72782
G1 X96.065 Y139.667 E0.04417
G1 X94.794 Y138.991 E0.04514
G1 X93.875 Y138.115 E0.03979
G1 X92.945 Y136.711 E0.05283
G1 X92.678 Y135.961 E0.02496
G1 X92.520 Y135.188 E0.02474
G1 X92.526 Y133.949 E0.03885
G1 X97.586 Y115.564 E0.59787
G1 X100.586 Y74.574 E1.28866
G1 X100.983 Y73.263 E0.04295
G1 X101.474 Y72.381 E0.03168
G1 X101.803 Y72.565 F10800.000
G1 F1200
G1 X103.352 Y71.113 E0.06659
G1 X104.240 Y70.696 E0.03075
G1 X105.493 Y70.409 E0.04032
G1 X144.480 Y70.413 E1.22241
G1 X145.457 Y70.590 E0.03112
G1 X146.409 Y70.975 E0.03220
G1 X147.688 Y71.971 E0.05083
G1 X148.565 Y73.179 E0.04681
G1 X149.040 Y74.620 E0.04757
G1 X152.040 Y115.629 E1.28925
G1 X154.405 Y124.204 E0.27888
G1 X157.048 Y133.649 E0.30753
G1 X157.095 Y135.219 E0.04926
G1 X156.828 Y136.262 E0.03374
G1 X156.358 Y137.178 E0.03228
G1 X155.629 Y138.111 E0.03713
G1 X154.729 Y138.858 E0.03666
G1 X153.662 Y139.364 E0.03704
G1 X152.528 Y139.591 E0.03624
G1 X97.462 Y139.591 E1.72657
M73 Q3 S74
M73 P3 R74
G1 X96.172 Y139.305 E0.04141
G1 X94.996 Y138.671 E0.04191
G1 X94.177 Y137.889 E0.03550
G1 X93.292 Y136.561 E0.05004
G1 X93.044 Y135.872 E0.02296
G1 X92.893 Y135.132 E0.02368
G1 X92.902 Y133.977 E0.03622
G1 X97.960 Y115.629 E0.59674
G1 X100.960 Y74.623 E1.28915
G1 X101.337 Y73.394 E0.04031
G1 X101.773 Y72.618 E0.02792
G1 X102.101 Y72.804 F10800.000
G1 F1200
G1 X102.131 Y72.750 E0.00192
G1 X103.540 Y71.441 E0.06032
G1 X104.346 Y71.058 E0.02795
G1 X105.515 Y70.786 E0.03765
G1 X144.463 Y70.790 E1.22118
G1 X145.369 Y70.957 E0.02888
G1 X146.242 Y71.313 E0.02956
G1 X147.434 Y72.250 E0.04753
G1 X148.241 Y73.375 E0.04342
G1 X148.665 Y74.671 E0.04274
G1 X151.667 Y115.694 E1.28970
G1 X154.042 Y124.305 E0.28007
G1 X156.679 Y133.729 E0.30684
G1 X156.723 Y135.153 E0.04469
G1 X156.482 Y136.110 E0.03094
G1 X156.049 Y136.961 E0.02994
G1 X155.370 Y137.835 E0.03470
G1 X154.544 Y138.528 E0.03382
G1 X153.563 Y138.999 E0.03411
G1 X152.509 Y139.213 E0.03372
G1 X97.483 Y139.213 E1.72530
G1 X96.282 Y138.943 E0.03861
G1 X95.199 Y138.353 E0.03867
G1 X94.479 Y137.662 E0.03129
G1 X93.638 Y136.412 E0.04722
G1 X93.404 Y135.758 E0.02178
