; generated by PrusaSlicer 2.0.0+win64 on 2020-04-27 at 17:49:43

; 

; external perimeters extrusion width = 0.60mm
; perimeters extrusion width = 0.50mm
; infill extrusion width = 0.50mm
; solid infill extrusion width = 0.50mm
; top infill extrusion width = 0.45mm
; support material extrusion width = 0.35mm
; first layer extrusion width = 0.42mm

M73 P0 R60
M73 Q0 S61
M201 X1000 Y1000 Z1000 E5000 ; sets maximum accelerations, mm/sec^2
M203 X200 Y200 Z12 E120 ; sets maximum feedrates, mm/sec
M204 P1250 R1250 T1250 ; sets acceleration (P, T) and retract acceleration (R), mm/sec^2
M205 X8.00 Y8.00 Z0.40 E1.50 ; sets the jerk limits, mm/sec
M205 S0 T0 ; sets the minimum extruding and travel feed rate, mm/sec
M107
M115 U3.8.0 ; tell printer latest fw version
G90 ; use absolute coordinates
M83 ; extruder relative mode
M104 S215 ; set extruder temp
M140 S70 ; set bed temp
M190 S70 ; wait for bed temp
M109 S215 ; wait for extruder temp
G28 W ; home all without mesh bed level
G80 ; mesh bed leveling
G1 Y-3.0 F1000.0 ; go outside print area
G92 E0.0
G1 X60.0 E9.0 F1000.0 ; intro line
M73 Q0 S61
M73 P0 R60
G1 X100.0 E12.5 F1000.0 ; intro line
G92 E0.0
M221 S95
M900 K30 ; Filament gcode
G21 ; set units to millimeters
G90 ; use absolute coordinates
M83 ; use relative distances for extrusion
;BEFORE_LAYER_CHANGE
G92 E0.0
;0.2


G1 E-0.80000 F2100.00000
G1 Z0.600 F10800.000
;AFTER_LAYER_CHANGE
;0.2
G1 X106.007 Y42.779
G1 Z0.200
G1 E0.80000 F2100.00000
M204 S1000
G1 F1200
G1 X106.697 Y41.538 E0.04453
G1 X107.561 Y40.401 E0.04477
G1 X108.578 Y39.399 E0.04477
G1 X109.721 Y38.556 E0.04453
G1 X110.979 Y37.881 E0.04477
G1 X112.320 Y37.391 E0.04477
G1 X113.594 Y37.116 E0.04086
G1 X114.893 Y37.009 E0.04086
G1 X134.944 Y37.007 E0.62867
G1 X136.799 Y37.183 E0.05844
G1 X138.583 Y37.697 E0.05819
G1 X140.247 Y38.536 E0.05844
G1 X141.726 Y39.669 E0.05844
G1 X142.970 Y41.058 E0.05844
G1 X143.933 Y42.653 E0.05844
G1 X144.584 Y44.399 E0.05844
G1 X144.899 Y46.229 E0.05819
G1 X144.929 Y162.008 E3.63018
G1 X144.801 Y163.662 E0.05201
G1 X144.455 Y165.177 E0.04872
G1 X143.953 Y166.505 E0.04453
G1 X143.236 Y167.841 E0.04752
G1 X142.274 Y169.140 E0.05069
G1 X141.154 Y170.262 E0.04971
G1 X139.921 Y171.184 E0.04825
G1 X138.529 Y171.942 E0.04972
G1 X137.194 Y172.450 E0.04477
G1 X135.710 Y172.794 E0.04777
G1 X134.154 Y172.927 E0.04898
G1 X115.938 Y172.928 E0.57116
G1 X114.338 Y172.801 E0.05030
G1 X112.496 Y172.351 E0.05947
G1 X110.806 Y171.615 E0.05778
G1 X109.240 Y170.586 E0.05876
G1 X107.915 Y169.351 E0.05679
G1 X106.761 Y167.836 E0.05972
G1 X105.921 Y166.222 E0.05704
G1 X105.350 Y164.446 E0.05852
G1 X105.097 Y162.715 E0.05484
G1 X105.071 Y46.992 E3.62840
G1 X105.185 Y45.498 E0.04697
G1 X105.498 Y44.113 E0.04453
G1 X105.985 Y42.835 E0.04289
G1 F8640
G1 X106.697 Y41.538 E-0.34164
G1 X107.561 Y40.401 E-0.32972
G1 X107.834 Y40.131 E-0.08865
G1 E-0.04000 F2100.00000
G1 Z0.800 F10800.000
G1 X113.792 Y37.519
G1 Z0.200
G1 E0.80000 F2100.00000
G1 F1200
G1 X135.774 Y37.452 E0.68924
G1 X137.448 Y37.834 E0.05384
G1 X139.014 Y38.493 E0.05327
G1 X141.356 Y40.308 E0.09290
G1 X143.212 Y43.008 E0.10273
G1 X144.043 Y46.178 E0.10274
G1 X143.908 Y163.636 E3.68282
G1 X143.035 Y166.385 E0.09046
G1 X141.434 Y168.766 E0.08995
G1 X138.632 Y170.891 E0.11027
G1 X136.258 Y171.781 E0.07950
G1 X134.447 Y172.033 E0.05732
G1 X114.916 Y171.996 E0.61240
G1 X110.989 Y170.711 E0.12955
G1 X109.245 Y169.404 E0.06834
G1 X108.450 Y168.641 E0.03453
G1 X106.453 Y165.182 E0.12526
G1 X106.124 Y163.824 E0.04378
G1 X105.967 Y162.418 E0.04438
G1 X106.132 Y44.956 E3.68293
G1 X106.649 Y43.328 E0.05355
G1 X107.434 Y41.812 E0.05354
G1 X109.036 Y39.922 E0.07768
G1 X111.209 Y38.394 E0.08327
G1 X113.735 Y37.538 E0.08363
G1 X113.855 Y37.896 F10800.000
G1 F1200
G1 X135.712 Y37.825 E0.68531
G1 X137.317 Y38.188 E0.05161
G1 X138.844 Y38.831 E0.05196
G1 X141.102 Y40.588 E0.08968
G1 X142.855 Y43.136 E0.09701
G1 X143.666 Y46.202 E0.09943
G1 X143.540 Y163.550 E3.67937
G1 X142.707 Y166.198 E0.08703
G1 X141.139 Y168.529 E0.08809
G1 X138.427 Y170.573 E0.10647
G1 X136.146 Y171.420 E0.07629
G1 X134.435 Y171.656 E0.05417
G1 X114.946 Y171.619 E0.61106
G1 X111.190 Y170.391 E0.12390
G1 X109.480 Y169.109 E0.06700
G1 X108.731 Y168.388 E0.03261
G1 X106.813 Y165.067 E0.12026
G1 X106.493 Y163.747 E0.04256
G1 X106.343 Y162.387 E0.04292
G1 X106.500 Y45.042 E3.67927
G1 X106.991 Y43.487 E0.05113
G1 X107.759 Y42.004 E0.05235
G1 X109.307 Y40.185 E0.07491
G1 X111.402 Y38.719 E0.08017
G1 X113.798 Y37.915 E0.07924
G1 X113.917 Y38.272 F10800.000
G1 F1200
G1 X113.973 Y38.254 E0.00185
G1 X135.649 Y38.197 E0.67965
G1 X137.217 Y38.552 E0.05042
G1 X138.674 Y39.169 E0.04960
G1 X140.846 Y40.866 E0.08644
G1 X142.526 Y43.322 E0.09328
G1 X143.289 Y46.226 E0.09414
G1 X143.172 Y163.464 E3.67593
M73 Q1 S60
M73 P1 R59
G1 X142.355 Y166.058 E0.08526
G1 X140.845 Y168.292 E0.08454
G1 X138.224 Y170.255 E0.10267
G1 X136.036 Y171.059 E0.07309
G1 X134.423 Y171.279 E0.05104
G1 X114.976 Y171.242 E0.60973
G1 X111.392 Y170.071 E0.11825
G1 X109.716 Y168.815 E0.06566
G1 X109.012 Y168.135 E0.03068
G1 X107.173 Y164.952 E0.11528
G1 X106.863 Y163.671 E0.04133
G1 X106.719 Y162.356 E0.04146
G1 X106.869 Y45.128 E3.67561
G1 X107.346 Y43.616 E0.04970
G1 X108.083 Y42.198 E0.05013
G1 X109.578 Y40.448 E0.07214
G1 X111.595 Y39.044 E0.07706
G1 X113.860 Y38.291 E0.07484
G1 X113.978 Y38.649 F10800.000
G1 F1200
G1 X114.062 Y38.621 E0.00279
G1 X135.587 Y38.570 E0.67491
G1 X137.086 Y38.906 E0.04817
G1 X138.504 Y39.506 E0.04827
G1 X140.590 Y41.145 E0.08318
G1 X142.196 Y43.507 E0.08955
G1 X142.912 Y46.250 E0.08888
G1 X142.795 Y163.435 E3.67426
G1 X142.005 Y165.917 E0.08169
G1 X140.551 Y168.053 E0.08100
G1 X138.021 Y169.935 E0.09887
G1 X135.926 Y170.698 E0.06990
G1 X134.411 Y170.902 E0.04795
G1 X115.007 Y170.865 E0.60841
G1 X111.593 Y169.750 E0.11260
G1 X109.951 Y168.520 E0.06431
G1 X109.293 Y167.883 E0.02874
G1 X107.533 Y164.836 E0.11031
G1 X107.232 Y163.594 E0.04009
G1 X107.095 Y162.326 E0.03999
G1 X107.237 Y45.214 E3.67196
G1 X107.700 Y43.746 E0.04828
G1 X108.407 Y42.392 E0.04790
G1 X109.848 Y40.712 E0.06937
G1 X111.787 Y39.370 E0.07394
G1 X113.921 Y38.668 E0.07044
G1 X114.037 Y39.026 F10800.000
G1 F1200
G1 X114.150 Y38.989 E0.00373
G1 X135.525 Y38.942 E0.67019
G1 X136.987 Y39.270 E0.04696
G1 X138.333 Y39.843 E0.04587
G1 X140.334 Y41.423 E0.07994
G1 X141.839 Y43.634 E0.08389
G1 X142.535 Y46.274 E0.08558
G1 X142.426 Y163.349 E3.67082
G1 X141.677 Y165.728 E0.07821
G1 X140.257 Y167.814 E0.07912
G1 X137.820 Y169.616 E0.09503
G1 X135.818 Y170.336 E0.06670
G1 X134.399 Y170.525 E0.04488
G1 X115.037 Y170.488 E0.60707
G1 X111.741 Y169.402 E0.10882
G1 X110.189 Y168.227 E0.06105
G1 X109.574 Y167.630 E0.02685
G1 X107.893 Y164.721 E0.10536
G1 X107.606 Y163.541 E0.03809
G1 X107.471 Y162.296 E0.03927
G1 X107.605 Y45.299 E3.66834
G1 X108.042 Y43.905 E0.04581
G1 X108.731 Y42.586 E0.04668
G1 X110.117 Y40.977 E0.06657
G1 X111.978 Y39.696 E0.07082
G1 X113.980 Y39.044 E0.06603
G1 X114.096 Y39.402 F10800.000
G1 F1200
G1 X114.238 Y39.357 E0.00469
G1 X135.464 Y39.315 E0.66553
G1 X136.855 Y39.624 E0.04468
G1 X138.161 Y40.180 E0.04451
G1 X140.076 Y41.700 E0.07665
G1 X141.509 Y43.819 E0.08019
G1 X142.157 Y46.298 E0.08035
G1 X142.058 Y163.263 E3.66738
G1 X141.326 Y165.588 E0.07642
G1 X139.965 Y167.574 E0.07550
G1 X137.620 Y169.295 E0.09120
G1 X135.711 Y169.974 E0.06352
G1 X134.388 Y170.148 E0.04185
G1 X115.068 Y170.111 E0.60575
G1 X111.944 Y169.083 E0.10313
G1 X110.426 Y167.933 E0.05970
G1 X109.856 Y167.379 E0.02494
G1 X108.253 Y164.606 E0.10043
G1 X107.975 Y163.464 E0.03685
G1 X107.847 Y162.266 E0.03778
G1 X107.974 Y45.385 E3.66472
G1 X108.397 Y44.034 E0.04438
G1 X109.055 Y42.780 E0.04440
G1 X110.386 Y41.243 E0.06377
G1 X112.168 Y40.023 E0.06769
G1 X114.038 Y39.421 E0.06162
G1 X114.152 Y39.779 F10800.000
G1 F1200
G1 X114.324 Y39.725 E0.00565
G1 X135.403 Y39.687 E0.66092
G1 X136.724 Y39.978 E0.04239
G1 X137.990 Y40.517 E0.04315
G1 X139.819 Y41.976 E0.07337
G1 X141.152 Y43.946 E0.07458
G1 X141.780 Y46.322 E0.07706
G1 X141.681 Y163.234 E3.66568
M73 Q3 S59
M73 P3 R58
G1 X140.975 Y165.446 E0.07282
G1 X139.673 Y167.334 E0.07190
G1 X137.420 Y168.974 E0.08737
G1 X135.605 Y169.612 E0.06033
G1 X134.376 Y169.770 E0.03885
G1 X115.099 Y169.734 E0.60444
G1 X112.147 Y168.763 E0.09744
G1 X110.663 Y167.640 E0.05834
G1 X110.138 Y167.127 E0.02302
G1 X108.613 Y164.490 E0.09551
G1 X108.344 Y163.387 E0.03560
G1 X108.223 Y162.236 E0.03629
G1 X108.342 Y45.470 E3.66111
G1 X108.752 Y44.164 E0.04294
G1 X109.378 Y42.976 E0.04210
G1 X110.654 Y41.509 E0.06097
G1 X112.357 Y40.351 E0.06456
G1 X114.095 Y39.798 E0.05720
G1 X114.409 Y40.093 F10800.000
G1 F1200
G1 X135.342 Y40.060 E0.65633
G1 X136.625 Y40.342 E0.04119
G1 X137.817 Y40.853 E0.04067
G1 X139.560 Y42.252 E0.07007
G1 X140.822 Y44.130 E0.07092
G1 X141.403 Y46.346 E0.07184
G1 X141.304 Y163.203 E3.66399
G1 X140.626 Y165.303 E0.06919
G1 X139.382 Y167.092 E0.06829
G1 X137.223 Y168.651 E0.08353
G1 X135.501 Y169.249 E0.05715
G1 X134.365 Y169.393 E0.03589
G1 X115.129 Y169.357 E0.60313
G1 X112.349 Y168.444 E0.09175
G1 X110.900 Y167.347 E0.05698
G1 X110.420 Y166.876 E0.02108
G1 X108.973 Y164.375 E0.09061
G1 X108.714 Y163.310 E0.03435
G1 X108.599 Y162.207 E0.03478
G1 X108.710 Y45.556 E3.65752
G1 X109.106 Y44.293 E0.04149
G1 X109.701 Y43.172 E0.03978
G1 X110.922 Y41.776 E0.05817
G1 X112.545 Y40.679 E0.06142
G1 X114.352 Y40.111 E0.05941
G1 X114.464 Y40.471 F10800.000
G1 F1200
G1 X135.282 Y40.433 E0.65275
G1 X136.493 Y40.696 E0.03886
G1 X137.645 Y41.189 E0.03927
G1 X139.300 Y42.527 E0.06673
G1 X140.490 Y44.312 E0.06727
G1 X141.026 Y46.369 E0.06666
G1 X140.936 Y163.117 E3.66053
G1 X140.300 Y165.111 E0.06564
G1 X139.091 Y166.849 E0.06637
G1 X137.026 Y168.328 E0.07964
G1 X135.397 Y168.886 E0.05398
G1 X134.354 Y169.016 E0.03297
G1 X115.160 Y168.980 E0.60181
G1 X112.499 Y168.096 E0.08793
G1 X111.139 Y167.055 E0.05368
G1 X110.703 Y166.625 E0.01921
G1 X109.333 Y164.259 E0.08573
G1 X109.083 Y163.234 E0.03309
G1 X108.975 Y162.178 E0.03327
G1 X109.087 Y45.586 E3.65567
G1 X109.460 Y44.425 E0.03822
G1 X110.023 Y43.369 E0.03752
G1 X111.189 Y42.043 E0.05536
G1 X112.731 Y41.007 E0.05827
G1 X114.406 Y40.489 E0.05498
G1 X114.518 Y40.849 F10800.000
G1 F1200
G1 X114.578 Y40.830 E0.00198
G1 X135.222 Y40.806 E0.64727
G1 X136.395 Y41.061 E0.03764
G1 X137.471 Y41.525 E0.03673
G1 X139.040 Y42.801 E0.06343
G1 X140.134 Y44.439 E0.06173
G1 X140.649 Y46.394 E0.06340
G1 X140.568 Y163.030 E3.65704
G1 X139.949 Y164.969 E0.06382
G1 X138.802 Y166.606 E0.06268
G1 X136.831 Y168.005 E0.07576
G1 X135.296 Y168.522 E0.05080
G1 X134.343 Y168.639 E0.03009
G1 X115.191 Y168.603 E0.60051
G1 X112.703 Y167.778 E0.08219
G1 X111.378 Y166.763 E0.05231
G1 X110.986 Y166.375 E0.01730
G1 X109.693 Y164.144 E0.08086
G1 X109.453 Y163.157 E0.03183
G1 X109.351 Y162.150 E0.03174
G1 X109.456 Y45.672 E3.65208
G1 X109.801 Y44.587 E0.03570
G1 X110.345 Y43.567 E0.03627
G1 X111.455 Y42.311 E0.05254
G1 X112.869 Y41.359 E0.05345
G1 X114.461 Y40.867 E0.05223
G1 X114.570 Y41.227 F10800.000
G1 F1200
G1 X114.661 Y41.199 E0.00297
G1 X135.163 Y41.179 E0.64282
G1 X136.263 Y41.414 E0.03528
G1 X137.297 Y41.861 E0.03531
G1 X138.779 Y43.075 E0.06007
G1 X139.802 Y44.620 E0.05812
G1 X140.272 Y46.418 E0.05825
G1 X140.191 Y163.000 E3.65535
M73 Q5 S58
M73 P5 R57
G1 X139.600 Y164.825 E0.06016
G1 X138.513 Y166.361 E0.05900
G1 X136.638 Y167.680 E0.07188
G1 X135.196 Y168.158 E0.04764
G1 X134.333 Y168.262 E0.02725
G1 X115.222 Y168.226 E0.59921
G1 X112.907 Y167.459 E0.07645
G1 X111.618 Y166.471 E0.05093
G1 X111.270 Y166.125 E0.01538
G1 X110.053 Y164.028 E0.07605
G1 X109.826 Y163.106 E0.02976
G1 X109.728 Y162.141 E0.03042
G1 X109.824 Y45.759 E3.64907
G1 X110.155 Y44.719 E0.03423
G1 X110.667 Y43.765 E0.03394
G1 X111.720 Y42.580 E0.04971
G1 X113.055 Y41.689 E0.05033
G1 X114.513 Y41.244 E0.04778
G1 X114.621 Y41.605 F10800.000
G1 F1200
G1 X114.743 Y41.568 E0.00398
G1 X135.105 Y41.552 E0.63844
G1 X136.131 Y41.768 E0.03290
G1 X137.123 Y42.196 E0.03386
G1 X138.516 Y43.347 E0.05667
G1 X139.469 Y44.801 E0.05451
G1 X139.895 Y46.441 E0.05314
G1 X139.823 Y162.913 E3.65190
G1 X139.275 Y164.631 E0.05654
G1 X138.224 Y166.116 E0.05703
G1 X136.445 Y167.354 E0.06796
G1 X135.132 Y167.786 E0.04336
G1 X134.322 Y167.885 E0.02559
G1 X115.252 Y167.849 E0.59790
G1 X113.111 Y167.140 E0.07071
G1 X111.857 Y166.180 E0.04954
G1 X111.554 Y165.876 E0.01344
G1 X110.412 Y163.911 E0.07126
G1 X110.196 Y163.029 E0.02849
G1 X110.105 Y162.131 E0.02828
G1 X110.192 Y45.845 E3.64610
G1 X110.495 Y44.881 E0.03167
G1 X110.988 Y43.963 E0.03266
G1 X111.985 Y42.850 E0.04685
G1 X113.240 Y42.019 E0.04720
G1 X114.563 Y41.622 E0.04333
G1 X114.670 Y41.982 F10800.000
G1 F1200
G1 X114.823 Y41.937 E0.00500
G1 X135.046 Y41.925 E0.63409
G1 X136.034 Y42.133 E0.03167
G1 X136.947 Y42.531 E0.03121
G1 X138.254 Y43.618 E0.05331
G1 X139.113 Y44.927 E0.04907
G1 X139.518 Y46.466 E0.04990
G1 X139.455 Y162.827 E3.64841
G1 X138.925 Y164.488 E0.05469
G1 X137.937 Y165.870 E0.05324
G1 X136.255 Y167.028 E0.06405
G1 X135.068 Y167.414 E0.03914
G1 X134.310 Y167.508 E0.02393
G1 X115.283 Y167.472 E0.59659
G1 X113.315 Y166.822 E0.06497
G1 X112.097 Y165.888 E0.04813
G1 X111.839 Y165.628 E0.01148
G1 X110.772 Y163.795 E0.06652
G1 X110.570 Y162.977 E0.02640
G1 X110.482 Y162.122 E0.02695
G1 X110.560 Y45.930 E3.64311
G1 X110.849 Y45.012 E0.03020
G1 X111.309 Y44.163 E0.03026
G1 X112.248 Y43.121 E0.04399
G1 X113.423 Y42.349 E0.04406
G1 X114.612 Y41.999 E0.03888
G1 F8640
G1 X114.823 Y41.937 E-0.05069
G1 X117.895 Y41.936 E-0.70931
G1 E-0.04000 F2100.00000
G1 Z0.800 F10800.000
G1 X110.929 Y46.016
G1 Z0.200
G1 E0.80000 F2100.00000
G1 F1200
G1 X111.203 Y45.143 E0.02871
G1 X111.628 Y44.364 E0.02782
G1 X112.510 Y43.393 E0.04113
G1 X113.604 Y42.681 E0.04091
G1 X114.901 Y42.307 E0.04233
G1 X134.989 Y42.298 E0.62984
G1 X135.902 Y42.487 E0.02923
G1 X136.771 Y42.865 E0.02972
G1 X137.989 Y43.888 E0.04988
G1 X138.780 Y45.106 E0.04552
G1 X139.141 Y46.489 E0.04483
G1 X139.078 Y162.796 E3.64672
G1 X138.576 Y164.343 E0.05099
G1 X137.652 Y165.621 E0.04946
G1 X136.066 Y166.701 E0.06015
G1 X135.003 Y167.042 E0.03499
G1 X134.299 Y167.131 E0.02226
G1 X115.314 Y167.095 E0.59527
G1 X113.520 Y166.503 E0.05923
G1 X112.337 Y165.597 E0.04671
G1 X112.125 Y165.381 E0.00950
G1 X111.131 Y163.678 E0.06183
G1 X110.939 Y162.900 E0.02513
G1 X110.859 Y162.113 E0.02480
G1 X110.929 Y46.076 E3.63825
G1 X111.297 Y46.100 F10800.000
G1 F1200
G1 X111.544 Y45.307 E0.02606
G1 X111.948 Y44.565 E0.02649
G1 X112.771 Y43.666 E0.03821
G1 X113.784 Y43.014 E0.03776
G1 X114.978 Y42.677 E0.03890
G1 X134.932 Y42.671 E0.62563
G1 X135.806 Y42.852 E0.02799
G1 X136.593 Y43.199 E0.02698
G1 X137.724 Y44.158 E0.04649
G1 X138.423 Y45.232 E0.04019
G1 X138.764 Y46.514 E0.04159
G1 X138.709 Y162.710 E3.64324
M73 Q6 S57
M73 P7 R56
G1 X138.252 Y164.147 E0.04728
G1 X137.366 Y165.373 E0.04743
G1 X135.879 Y166.372 E0.05619
G1 X134.939 Y166.670 E0.03091
G1 X134.287 Y166.754 E0.02060
G1 X115.344 Y166.718 E0.59395
G1 X113.724 Y166.184 E0.05349
G1 X112.578 Y165.307 E0.04526
G1 X112.411 Y165.135 E0.00749
G1 X111.491 Y163.560 E0.05721
G1 X111.313 Y162.848 E0.02303
G1 X111.236 Y162.103 E0.02346
G1 X111.297 Y46.160 E3.63530
G1 X111.666 Y46.185 F10800.000
G1 F1200
G1 X111.898 Y45.437 E0.02456
G1 X112.267 Y44.768 E0.02397
G1 X113.031 Y43.940 E0.03531
G1 X113.962 Y43.347 E0.03459
G1 X115.053 Y43.047 E0.03549
G1 X134.876 Y43.044 E0.62154
G1 X135.673 Y43.205 E0.02549
G1 X136.415 Y43.533 E0.02545
G1 X137.457 Y44.426 E0.04302
G1 X138.090 Y45.410 E0.03670
G1 X138.387 Y46.538 E0.03657
G1 X138.332 Y162.680 E3.64154
G1 X137.903 Y164.001 E0.04355
G1 X137.082 Y165.123 E0.04358
G1 X135.693 Y166.043 E0.05224
G1 X134.874 Y166.299 E0.02691
G1 X134.275 Y166.377 E0.01894
G1 X115.375 Y166.341 E0.59262
G1 X113.928 Y165.866 E0.04775
G1 X112.819 Y165.017 E0.04378
G1 X112.700 Y164.891 E0.00543
G1 X111.850 Y163.442 E0.05267
G1 X111.682 Y162.770 E0.02175
G1 X111.614 Y162.094 E0.02129
G1 X111.666 Y46.245 E3.63236
G1 X112.034 Y46.270 F10800.000
G1 F1200
G1 X112.252 Y45.568 E0.02304
G1 X112.585 Y44.972 E0.02140
G1 X113.291 Y44.215 E0.03246
