; generated by PrusaSlicer 2.0.0+win64 on 2020-04-23 at 11:33:42

; 

; external perimeters extrusion width = 0.60mm
; perimeters extrusion width = 0.50mm
; infill extrusion width = 0.50mm
; solid infill extrusion width = 0.50mm
; top infill extrusion width = 0.45mm
; support material extrusion width = 0.35mm
; first layer extrusion width = 0.42mm

M73 P0 R156
M73 Q0 S157
M201 X1000 Y1000 Z1000 E5000 ; sets maximum accelerations, mm/sec^2
M203 X200 Y200 Z12 E120 ; sets maximum feedrates, mm/sec
M204 P1250 R1250 T1250 ; sets acceleration (P, T) and retract acceleration (R), mm/sec^2
M205 X8.00 Y8.00 Z0.40 E1.50 ; sets the jerk limits, mm/sec
M205 S0 T0 ; sets the minimum extruding and travel feed rate, mm/sec
M107
M115 U3.8.0 ; tell printer latest fw version
G90 ; use absolute coordinates
M83 ; extruder relative mode
M104 S215 ; set extruder temp
M140 S70 ; set bed temp
M190 S70 ; wait for bed temp
M109 S215 ; wait for extruder temp
G28 W ; home all without mesh bed level
G80 ; mesh bed leveling
G1 Y-3.0 F1000.0 ; go outside print area
G92 E0.0
G1 X60.0 E9.0 F1000.0 ; intro line
M73 Q0 S157
M73 P0 R156
G1 X100.0 E12.5 F1000.0 ; intro line
G92 E0.0
M221 S95
M900 K30 ; Filament gcode
G21 ; set units to millimeters
G90 ; use absolute coordinates
M83 ; use relative distances for extrusion
;BEFORE_LAYER_CHANGE
G92 E0.0
;0.2


G1 E-0.80000 F2100.00000
G1 Z0.600 F10800.000
;AFTER_LAYER_CHANGE
;0.2
G1 X79.479 Y56.618
G1 Z0.200
G1 E0.80000 F2100.00000
M204 S1000
G1 F1200
G1 X80.276 Y55.500 E0.04305
G1 X81.243 Y54.482 E0.04404
G1 X82.344 Y53.609 E0.04404
G1 X83.563 Y52.896 E0.04428
G1 X94.356 Y48.724 E0.36282
G1 X95.456 Y48.397 E0.03598
G1 X96.578 Y48.199 E0.03573
G1 X97.739 Y48.130 E0.03646
G1 X151.757 Y48.130 E1.69370
G1 X153.266 Y48.246 E0.04746
G1 X154.741 Y48.588 E0.04746
G1 X166.694 Y52.590 E0.39524
G1 X168.308 Y53.319 E0.05551
G1 X169.229 Y53.907 E0.03426
G1 X170.081 Y54.592 E0.03426
G1 X170.852 Y55.365 E0.03426
G1 X171.535 Y56.219 E0.03426
G1 X172.124 Y57.148 E0.03451
G1 X172.605 Y58.130 E0.03426
G1 X172.975 Y59.158 E0.03426
G1 X173.231 Y60.220 E0.03426
G1 X173.395 Y62.006 E0.05624
G1 X173.394 Y152.804 E2.84689
G1 X173.288 Y154.134 E0.04184
G1 X173.005 Y155.438 E0.04184
G1 X172.550 Y156.693 E0.04184
G1 X171.929 Y157.883 E0.04209
G1 X170.937 Y159.235 E0.05258
G1 X169.733 Y160.403 E0.05258
G1 X168.351 Y161.353 E0.05258
G1 X166.822 Y162.061 E0.05283
G1 X165.533 Y162.434 E0.04209
G1 X153.776 Y164.908 E0.37671
G1 X152.103 Y165.109 E0.05283
G1 X97.164 Y165.098 E1.72257
G1 X95.322 Y164.816 E0.05844
G1 X85.268 Y162.117 E0.32639
G1 X83.989 Y161.660 E0.04257
G1 X82.778 Y161.029 E0.04282
G1 X81.767 Y160.323 E0.03866
G1 X80.846 Y159.491 E0.03891
G1 X80.035 Y158.552 E0.03891
G1 X79.350 Y157.527 E0.03866
G1 X78.793 Y156.418 E0.03891
G1 X78.381 Y155.255 E0.03866
G1 X78.115 Y154.051 E0.03866
G1 X77.999 Y152.816 E0.03891
G1 X77.995 Y61.707 E2.85665
G1 X78.104 Y60.377 E0.04184
G1 X78.389 Y59.073 E0.04184
G1 X78.842 Y57.827 E0.04160
G1 X79.448 Y56.669 E0.04095
G1 F8640
G1 X80.276 Y55.500 E-0.33082
G1 X81.243 Y54.482 E-0.32432
G1 X81.599 Y54.200 E-0.10486
G1 E-0.04000 F2100.00000
G1 Z0.800 F10800.000
G1 X171.835 Y82.253
G1 Z0.200
G1 E0.80000 F2100.00000
G1 F1200
G1 X172.374 Y83.170 E0.03337
G1 X173.164 Y86.047 E0.09355
G1 X173.191 Y103.317 E0.54147
G1 X172.630 Y105.752 E0.07836
G1 X171.868 Y107.294 E0.05392
G1 X172.827 Y109.529 E0.07627
G1 X173.206 Y111.772 E0.07131
G1 X173.184 Y128.518 E0.52508
G1 X172.627 Y130.901 E0.07672
G1 X171.830 Y132.505 E0.05615
G1 X172.275 Y133.237 E0.02688
G1 X173.199 Y136.566 E0.10830
G1 X173.207 Y153.454 E0.52952
G1 X172.726 Y155.756 E0.07373
G1 X171.818 Y157.750 E0.06870
G1 X169.134 Y160.554 E0.12169
G1 X166.672 Y161.817 E0.08677
G1 X164.856 Y162.227 E0.05837
G1 X163.555 Y162.271 E0.04082
G1 X163.121 Y162.305 E0.01365
G1 X158.046 Y162.301 E0.15912
G1 X157.060 Y163.180 E0.04141
G1 X155.210 Y164.128 E0.06518
G1 X152.538 Y164.738 E0.08593
G1 X96.960 Y164.738 E1.74260
G1 X94.289 Y164.128 E0.08593
G1 X92.438 Y163.180 E0.06518
G1 X91.447 Y162.296 E0.04164
G1 X86.769 Y162.249 E0.14671
G1 X84.643 Y161.731 E0.06860
G1 X82.701 Y160.801 E0.06752
G1 X82.120 Y160.346 E0.02311
G1 X79.356 Y157.248 E0.13019
G1 X78.561 Y155.270 E0.06682
G1 X78.189 Y153.175 E0.06673
G1 X78.203 Y136.385 E0.52642
G1 X78.697 Y134.072 E0.07416
G1 X79.570 Y132.313 E0.06157
G1 X79.095 Y131.529 E0.02875
G1 X78.189 Y128.224 E0.10747
G1 X78.257 Y110.793 E0.54654
G1 X78.878 Y108.461 E0.07566
G1 X79.560 Y107.171 E0.04575
G1 X79.140 Y106.484 E0.02524
G1 X78.191 Y103.112 E0.10982
G1 X78.194 Y86.094 E0.53358
G1 X78.843 Y83.402 E0.08683
G1 X79.592 Y82.050 E0.04849
G1 X78.999 Y81.034 E0.03689
G1 X78.190 Y77.938 E0.10033
G1 X78.183 Y61.073 E0.52879
G1 X78.664 Y58.771 E0.07372
G1 X79.571 Y56.778 E0.06867
G1 X82.237 Y53.988 E0.12099
G1 X84.433 Y52.811 E0.07811
G1 X86.632 Y52.287 E0.07087
G1 X87.830 Y52.257 E0.03757
G1 X88.286 Y52.221 E0.01436
G1 X90.162 Y52.223 E0.05884
G1 X91.702 Y50.623 E0.06962
G1 X93.739 Y49.346 E0.07538
G1 X96.895 Y48.507 E0.10240
G1 X152.510 Y48.511 E1.74376
G1 X154.906 Y49.004 E0.07670
G1 X157.142 Y50.123 E0.07839
G1 X159.382 Y52.224 E0.09630
G1 X162.407 Y52.221 E0.09484
G1 X164.820 Y52.300 E0.07571
G1 X168.208 Y53.445 E0.11212
G1 X169.850 Y54.623 E0.06335
G1 X171.260 Y56.146 E0.06508
G1 X172.412 Y58.113 E0.07148
G1 X173.074 Y60.280 E0.07106
G1 X173.191 Y78.168 E0.56087
G1 X172.653 Y80.545 E0.07641
G1 X171.861 Y82.199 E0.05749
G1 F8640
G1 X172.374 Y83.170 E-0.25374
G1 X172.954 Y85.285 E-0.50626
G1 E-0.04000 F2100.00000
G1 Z0.800 F10800.000
G1 X159.178 Y52.601
G1 Z0.200
G1 E0.80000 F2100.00000
G1 F1200
G1 X162.404 Y52.598 E0.10116
G1 X164.780 Y52.676 E0.07454
G1 X168.011 Y53.768 E0.10694
G1 X169.587 Y54.894 E0.06071
G1 X170.946 Y56.355 E0.06256
G1 X172.058 Y58.245 E0.06875
G1 X172.706 Y60.364 E0.06950
G1 X172.814 Y78.148 E0.55762
G1 X172.290 Y80.440 E0.07370
G1 X171.406 Y82.272 E0.06378
G1 X172.017 Y83.296 E0.03739
G1 X172.787 Y86.074 E0.09037
G1 X172.814 Y103.295 E0.53998
G1 X172.268 Y105.645 E0.07562
G1 X171.419 Y107.349 E0.05970
G1 X171.590 Y107.593 E0.00935
G1 X172.471 Y109.656 E0.07035
G1 X172.828 Y111.787 E0.06774
G1 X172.807 Y128.496 E0.52390
G1 X172.266 Y130.793 E0.07399
G1 X171.398 Y132.525 E0.06075
G1 X171.919 Y133.366 E0.03103
G1 X172.822 Y136.592 E0.10503
G1 X172.830 Y153.434 E0.52808
G1 X172.361 Y155.657 E0.07123
G1 X171.488 Y157.564 E0.06574
G1 X168.885 Y160.269 E0.11773
G1 X166.522 Y161.470 E0.08309
G1 X164.825 Y161.850 E0.05453
G1 X163.533 Y161.894 E0.04054
G1 X163.113 Y161.928 E0.01321
G1 X157.901 Y161.924 E0.16344
G1 X156.866 Y162.856 E0.04366
G1 X155.059 Y163.782 E0.06366
G1 X152.517 Y164.361 E0.08175
G1 X96.982 Y164.361 E1.74127
G1 X94.439 Y163.782 E0.08175
G1 X92.632 Y162.856 E0.06366
G1 X91.594 Y161.920 E0.04383
G1 X86.836 Y161.878 E0.14919
G1 X84.788 Y161.382 E0.06607
G1 X82.883 Y160.470 E0.06624
G1 X82.390 Y160.082 E0.01965
G1 X79.693 Y157.076 E0.12663
G1 X78.929 Y155.184 E0.06396
G1 X78.566 Y153.158 E0.06454
G1 X78.580 Y136.406 E0.52526
G1 X79.060 Y134.175 E0.07154
G1 X80.002 Y132.293 E0.06598
G1 X79.451 Y131.402 E0.03286
G1 X78.566 Y128.199 E0.10419
G1 X78.634 Y110.819 E0.54495
G1 X79.236 Y108.580 E0.07269
G1 X79.997 Y107.155 E0.05064
G1 X79.495 Y106.354 E0.02962
G1 X78.568 Y103.086 E0.10651
G1 X78.571 Y86.117 E0.53205
G1 X79.203 Y83.517 E0.08390
G1 X80.028 Y82.044 E0.05293
G1 X79.357 Y80.911 E0.04128
G1 X78.567 Y77.913 E0.09722
G1 X78.560 Y61.092 E0.52740
M73 Q0 S156
M73 P0 R155
G1 X79.028 Y58.870 E0.07122
G1 X79.901 Y56.964 E0.06571
G1 X82.488 Y54.271 E0.11708
G1 X84.588 Y53.156 E0.07457
G1 X86.661 Y52.663 E0.06679
G1 X87.849 Y52.633 E0.03728
G1 X88.293 Y52.598 E0.01396
G1 X90.324 Y52.600 E0.06366
G1 X91.922 Y50.930 E0.07249
G1 X93.915 Y49.681 E0.07374
G1 X96.920 Y48.884 E0.09746
G1 X152.490 Y48.888 E1.74238
G1 X154.805 Y49.368 E0.07411
G1 X156.947 Y50.447 E0.07521
G1 X159.060 Y52.438 E0.09103
G1 X159.143 Y52.552 E0.00441
G1 X158.971 Y52.978 F10800.000
G1 F1200
G1 X162.401 Y52.975 E0.10755
G1 X164.740 Y53.052 E0.07338
G1 X167.816 Y54.092 E0.10179
G1 X169.325 Y55.165 E0.05807
G1 X170.632 Y56.564 E0.06002
G1 X171.722 Y58.416 E0.06738
G1 X172.337 Y60.447 E0.06654
G1 X172.437 Y78.128 E0.55439
G1 X171.928 Y80.334 E0.07097
G1 X171.106 Y82.027 E0.05902
G1 X170.941 Y82.233 E0.00825
G1 X171.661 Y83.423 E0.04362
G1 X172.410 Y86.100 E0.08715
G1 X172.437 Y103.274 E0.53848
G1 X171.906 Y105.537 E0.07287
G1 X170.976 Y107.390 E0.06501
G1 X171.253 Y107.764 E0.01459
G1 X172.116 Y109.784 E0.06887
G1 X172.451 Y111.802 E0.06416
G1 X172.430 Y128.473 E0.52272
G1 X171.904 Y130.683 E0.07123
G1 X170.964 Y132.547 E0.06543
G1 X171.564 Y133.495 E0.03520
G1 X172.445 Y136.618 E0.10173
G1 X172.453 Y153.415 E0.52664
G1 X171.997 Y155.558 E0.06870
G1 X171.159 Y157.376 E0.06278
G1 X168.636 Y159.984 E0.11376
G1 X166.374 Y161.122 E0.07941
G1 X164.795 Y161.474 E0.05072
G1 X163.511 Y161.518 E0.04028
G1 X163.106 Y161.551 E0.01276
G1 X157.754 Y161.547 E0.16779
G1 X156.672 Y162.532 E0.04590
G1 X154.908 Y163.435 E0.06212
G1 X152.496 Y163.984 E0.07757
G1 X97.003 Y163.984 E1.73995
G1 X94.590 Y163.435 E0.07757
G1 X92.827 Y162.532 E0.06212
G1 X91.742 Y161.544 E0.04602
G1 X86.903 Y161.506 E0.15170
G1 X84.896 Y161.021 E0.06475
G1 X83.065 Y160.139 E0.06371
G1 X82.660 Y159.818 E0.01623
G1 X80.030 Y156.903 E0.12307
G1 X79.286 Y155.061 E0.06230
G1 X78.943 Y153.142 E0.06114
G1 X78.957 Y136.426 E0.52410
G1 X79.424 Y134.279 E0.06890
G1 X80.435 Y132.272 E0.07046
G1 X79.807 Y131.273 E0.03701
G1 X78.943 Y128.174 E0.10087
G1 X79.011 Y110.845 E0.54335
G1 X79.594 Y108.700 E0.06970
G1 X80.434 Y107.138 E0.05562
G1 X79.850 Y106.223 E0.03403
G1 X78.945 Y103.060 E0.10317
G1 X78.948 Y86.140 E0.53050
G1 X79.563 Y83.633 E0.08095
G1 X80.465 Y82.038 E0.05744
G1 X79.714 Y80.788 E0.04572
G1 X78.944 Y77.888 E0.09408
G1 X78.937 Y61.112 E0.52600
G1 X79.393 Y58.969 E0.06870
G1 X80.230 Y57.151 E0.06275
G1 X82.738 Y54.555 E0.11317
G1 X84.742 Y53.501 E0.07103
G1 X86.690 Y53.040 E0.06275
G1 X87.870 Y53.010 E0.03700
G1 X88.301 Y52.975 E0.01356
G1 X90.485 Y52.977 E0.06850
G1 X92.143 Y51.237 E0.07536
G1 X94.091 Y50.016 E0.07210
G1 X96.944 Y49.261 E0.09252
G1 X152.471 Y49.265 E1.74100
G1 X154.703 Y49.732 E0.07150
G1 X156.752 Y50.771 E0.07203
G1 X158.783 Y52.695 E0.08771
G1 X158.938 Y52.928 E0.00879
G1 X158.762 Y53.355 F10800.000
G1 F1200
G1 X162.399 Y53.352 E0.11403
G1 X164.700 Y53.428 E0.07221
G1 X167.620 Y54.415 E0.09665
G1 X169.063 Y55.437 E0.05544
G1 X170.318 Y56.774 E0.05749
G1 X171.367 Y58.548 E0.06461
G1 X171.968 Y60.531 E0.06497
G1 X172.059 Y78.108 E0.55114
G1 X171.566 Y80.227 E0.06823
G1 X170.780 Y81.836 E0.05612
G1 X170.471 Y82.189 E0.01471
G1 X171.306 Y83.551 E0.05010
G1 X172.033 Y86.127 E0.08391
G1 X172.059 Y103.252 E0.53696
G1 X171.544 Y105.428 E0.07011
G1 X170.722 Y107.060 E0.05730
G1 X170.468 Y107.351 E0.01210
G1 X170.916 Y107.935 E0.02308
G1 X171.760 Y109.911 E0.06736
G1 X172.074 Y111.817 E0.06058
G1 X172.053 Y128.450 E0.52153
G1 X171.542 Y130.574 E0.06848
G1 X170.722 Y132.202 E0.05717
G1 X170.475 Y132.485 E0.01177
G1 X171.210 Y133.626 E0.04254
G1 X172.067 Y136.645 E0.09839
G1 X172.076 Y153.395 E0.52518
G1 X171.633 Y155.458 E0.06617
G1 X170.831 Y157.189 E0.05981
G1 X168.389 Y159.697 E0.10978
G1 X166.227 Y160.774 E0.07573
G1 X164.765 Y161.098 E0.04694
G1 X163.489 Y161.141 E0.04004
G1 X163.098 Y161.174 E0.01230
G1 X157.607 Y161.169 E0.17217
G1 X156.477 Y162.208 E0.04813
G1 X154.757 Y163.089 E0.06056
G1 X152.475 Y163.607 E0.07339
G1 X97.024 Y163.607 E1.73863
G1 X94.741 Y163.089 E0.07339
G1 X93.022 Y162.208 E0.06056
G1 X91.890 Y161.168 E0.04820
G1 X86.970 Y161.134 E0.15427
G1 X85.041 Y160.672 E0.06219
G1 X83.248 Y159.809 E0.06239
G1 X82.929 Y159.553 E0.01283
G1 X80.367 Y156.730 E0.11953
G1 X79.654 Y154.975 E0.05941
G1 X79.320 Y153.125 E0.05893
G1 X79.334 Y136.447 E0.52294
G1 X79.772 Y134.426 E0.06483
G1 X80.671 Y132.624 E0.06315
G1 X80.916 Y132.322 E0.01218
G1 X80.162 Y131.144 E0.04388
G1 X79.320 Y128.149 E0.09752
G1 X79.388 Y110.872 E0.54172
G1 X79.952 Y108.822 E0.06668
G1 X80.726 Y107.392 E0.05098
G1 X80.907 Y107.170 E0.00896
G1 X80.204 Y106.091 E0.04039
G1 X79.322 Y103.033 E0.09979
G1 X79.325 Y86.163 E0.52894
G1 X79.923 Y83.749 E0.07798
G1 X80.904 Y82.032 E0.06201
G1 X80.071 Y80.664 E0.05021
G1 X79.321 Y77.863 E0.09091
G1 X79.314 Y61.132 E0.52459
G1 X79.757 Y59.069 E0.06616
G1 X80.558 Y57.339 E0.05978
G1 X82.987 Y54.840 E0.10925
G1 X84.895 Y53.846 E0.06748
G1 X86.719 Y53.416 E0.05874
G1 X87.890 Y53.387 E0.03674
G1 X88.308 Y53.352 E0.01316
G1 X90.712 Y53.355 E0.07538
G1 X90.847 Y53.143 E0.00788
G1 X92.363 Y51.543 E0.06909
G1 X94.267 Y50.350 E0.07045
G1 X96.968 Y49.638 E0.08758
G1 X152.451 Y49.642 E1.73962
G1 X154.600 Y50.096 E0.06887
G1 X156.556 Y51.094 E0.06884
G1 X158.504 Y52.950 E0.08439
G1 X158.730 Y53.305 E0.01317
G1 X158.549 Y53.733 F10800.000
G1 F1200
G1 X162.396 Y53.729 E0.12061
G1 X164.660 Y53.803 E0.07104
G1 X167.425 Y54.739 E0.09153
G1 X168.802 Y55.710 E0.05282
G1 X170.004 Y56.985 E0.05493
G1 X171.031 Y58.720 E0.06322
G1 X171.599 Y60.613 E0.06197
G1 X171.682 Y78.088 E0.54792
G1 X171.218 Y80.081 E0.06417
G1 X170.454 Y81.644 E0.05455
G1 X169.999 Y82.143 E0.02118
G1 X170.951 Y83.681 E0.05670
G1 X171.656 Y86.154 E0.08064
G1 X171.682 Y103.231 E0.53544
G1 X171.197 Y105.278 E0.06597
G1 X170.398 Y106.864 E0.05569
G1 X169.969 Y107.328 E0.01981
G1 X170.580 Y108.107 E0.03101
G1 X171.404 Y110.038 E0.06584
G1 X171.697 Y111.832 E0.05700
G1 X171.676 Y128.428 E0.52036
G1 X171.196 Y130.424 E0.06436
G1 X170.398 Y132.007 E0.05558
G1 X169.996 Y132.443 E0.01860
G1 X170.855 Y133.758 E0.04925
G1 X171.690 Y136.671 E0.09503
G1 X171.699 Y153.374 E0.52371
G1 X171.269 Y155.357 E0.06361
G1 X170.503 Y157.000 E0.05683
G1 X168.142 Y159.410 E0.10579
G1 X166.081 Y160.426 E0.07204
G1 X164.735 Y160.722 E0.04321
G1 X163.466 Y160.765 E0.03981
G1 X163.090 Y160.797 E0.01185
G1 X157.458 Y160.792 E0.17657
G1 X156.281 Y161.885 E0.05036
G1 X154.607 Y162.742 E0.05899
G1 X152.454 Y163.230 E0.06920
G1 X97.045 Y163.230 E1.73732
G1 X94.892 Y162.742 E0.06920
G1 X93.217 Y161.885 E0.05899
G1 X92.040 Y160.792 E0.05038
G1 X87.036 Y160.763 E0.15688
G1 X85.186 Y160.323 E0.05963
G1 X83.465 Y159.499 E0.05981
G1 X83.196 Y159.287 E0.01074
G1 X80.703 Y156.556 E0.11594
G1 X80.021 Y154.888 E0.05652
G1 X79.698 Y153.108 E0.05671
G1 X79.711 Y136.467 E0.52178
G1 X80.120 Y134.573 E0.06075
G1 X80.997 Y132.814 E0.06163
G1 X81.387 Y132.354 E0.01891
G1 X80.517 Y131.013 E0.05013
G1 X79.697 Y128.124 E0.09414
G1 X79.765 Y110.899 E0.54009
G1 X80.309 Y108.944 E0.06363
G1 X81.046 Y107.592 E0.04828
G1 X81.381 Y107.203 E0.01610
G1 X80.558 Y105.957 E0.04681
G1 X79.699 Y103.006 E0.09637
G1 X79.702 Y86.187 E0.52736
G1 X80.282 Y83.867 E0.07498
G1 X81.343 Y82.025 E0.06663
G1 X80.428 Y80.539 E0.05474
G1 X79.698 Y77.838 E0.08772
G1 X79.691 Y61.152 E0.52317
G1 X80.121 Y59.170 E0.06360
G1 X80.886 Y57.528 E0.05681
G1 X83.234 Y55.126 E0.10531
G1 X85.047 Y54.192 E0.06394
G1 X86.748 Y53.793 E0.05477
G1 X87.911 Y53.763 E0.03648
M73 Q1 S155
M73 P1 R154
G1 X88.316 Y53.729 E0.01275
G1 X90.930 Y53.732 E0.08195
G1 X91.137 Y53.385 E0.01267
G1 X92.620 Y51.820 E0.06759
G1 X94.442 Y50.686 E0.06731
G1 X96.992 Y50.015 E0.08268
G1 X152.431 Y50.019 E1.73824
G1 X154.497 Y50.459 E0.06622
G1 X156.358 Y51.417 E0.06564
G1 X158.225 Y53.205 E0.08104
G1 X158.518 Y53.682 E0.01755
G1 X158.334 Y54.110 F10800.000
G1 F1200
G1 X162.393 Y54.106 E0.12727
G1 X164.620 Y54.179 E0.06987
G1 X167.231 Y55.063 E0.08642
G1 X168.542 Y55.984 E0.05022
G1 X169.691 Y57.196 E0.05238
G1 X170.677 Y58.851 E0.06038
G1 X171.230 Y60.695 E0.06038
G1 X171.305 Y78.067 E0.54470
G1 X170.869 Y79.935 E0.06012
G1 X170.128 Y81.452 E0.05295
G1 X169.523 Y82.095 E0.02769
G1 X170.596 Y83.811 E0.06344
G1 X171.279 Y86.181 E0.07734
G1 X171.305 Y103.209 E0.53391
G1 X170.851 Y105.128 E0.06183
G1 X170.075 Y106.668 E0.05408
G1 X169.467 Y107.305 E0.02760
G1 X170.243 Y108.279 E0.03906
G1 X171.048 Y110.164 E0.06429
G1 X171.320 Y111.846 E0.05342
G1 X171.299 Y128.405 E0.51919
G1 X170.849 Y130.273 E0.06025
G1 X170.075 Y131.811 E0.05397
G1 X169.514 Y132.399 E0.02549
G1 X170.501 Y133.891 E0.05610
