; generated by PrusaSlicer 2.0.0+win64 on 2020-04-27 at 17:01:46

; 

; external perimeters extrusion width = 0.60mm
; perimeters extrusion width = 0.50mm
; infill extrusion width = 0.50mm
; solid infill extrusion width = 0.50mm
; top infill extrusion width = 0.45mm
; support material extrusion width = 0.35mm
; first layer extrusion width = 0.42mm

M73 P0 R12
M73 Q0 S12
M201 X1000 Y1000 Z1000 E5000 ; sets maximum accelerations, mm/sec^2
M203 X200 Y200 Z12 E120 ; sets maximum feedrates, mm/sec
M204 P1250 R1250 T1250 ; sets acceleration (P, T) and retract acceleration (R), mm/sec^2
M205 X8.00 Y8.00 Z0.40 E1.50 ; sets the jerk limits, mm/sec
M205 S0 T0 ; sets the minimum extruding and travel feed rate, mm/sec
M107
M115 U3.8.0 ; tell printer latest fw version
G90 ; use absolute coordinates
M83 ; extruder relative mode
M104 S215 ; set extruder temp
M140 S70 ; set bed temp
M190 S70 ; wait for bed temp
M109 S215 ; wait for extruder temp
G28 W ; home all without mesh bed level
G80 ; mesh bed leveling
G1 Y-3.0 F1000.0 ; go outside print area
G92 E0.0
G1 X60.0 E9.0 F1000.0 ; intro line
M73 Q0 S12
M73 P0 R12
G1 X100.0 E12.5 F1000.0 ; intro line
G92 E0.0
M221 S95
M900 K30 ; Filament gcode
G21 ; set units to millimeters
G90 ; use absolute coordinates
M83 ; use relative distances for extrusion
;BEFORE_LAYER_CHANGE
G92 E0.0
;0.2


G1 E-0.80000 F2100.00000
G1 Z0.600 F10800.000
;AFTER_LAYER_CHANGE
;0.2
G1 X105.310 Y88.580
G1 Z0.200
G1 E0.80000 F2100.00000
M204 S1000
G1 F1200
G1 X105.947 Y86.556 E0.06652
G1 X106.527 Y85.395 E0.04070
G1 X107.178 Y84.394 E0.03744
G1 X108.013 Y83.379 E0.04120
G1 X108.957 Y82.485 E0.04077
G1 X109.958 Y81.732 E0.03928
G1 X111.092 Y81.076 E0.04107
G1 X112.231 Y80.580 E0.03895
G1 X113.495 Y80.203 E0.04134
G1 X114.643 Y79.995 E0.03660
G1 X115.858 Y79.910 E0.03818
G1 X134.008 Y79.909 E0.56908
G1 X135.824 Y80.065 E0.05716
G1 X137.637 Y80.533 E0.05872
G1 X139.245 Y81.254 E0.05524
G1 X140.773 Y82.264 E0.05744
G1 X142.108 Y83.512 E0.05728
G1 X143.239 Y85.004 E0.05872
G1 X144.097 Y86.660 E0.05848
G1 X144.655 Y88.415 E0.05772
G1 X144.844 Y89.499 E0.03451
G1 X144.928 Y90.746 E0.03920
G1 X144.926 Y117.572 E0.84110
G1 X144.831 Y118.888 E0.04137
G1 X144.659 Y119.912 E0.03255
G1 X144.331 Y121.190 E0.04139
G1 X143.841 Y122.480 E0.04325
G1 X143.079 Y123.937 E0.05155
G1 X142.388 Y124.968 E0.03891
G1 X141.394 Y126.147 E0.04838
G1 X140.195 Y127.251 E0.05108
G1 X138.924 Y128.153 E0.04887
G1 X137.847 Y128.752 E0.03866
G1 X136.479 Y129.340 E0.04667
G1 X134.853 Y129.805 E0.05303
G1 X133.529 Y130.014 E0.04203
G1 X132.517 Y130.082 E0.03182
G1 X117.325 Y130.080 E0.47633
G1 X115.067 Y129.789 E0.07137
G1 X112.891 Y129.096 E0.07159
G1 X111.425 Y128.369 E0.05133
G1 X110.003 Y127.410 E0.05377
G1 X108.706 Y126.252 E0.05451
G1 X107.694 Y125.077 E0.04863
G1 X106.953 Y123.996 E0.04111
G1 X106.162 Y122.492 E0.05327
G1 X105.607 Y120.994 E0.05010
G1 X105.233 Y119.360 E0.05255
G1 X105.072 Y117.394 E0.06183
G1 X105.074 Y90.619 E0.83953
G1 X105.303 Y88.639 E0.06248
G1 F8640
G1 X105.947 Y86.556 E-0.50348
G1 X106.443 Y85.562 E-0.25652
G1 E-0.04000 F2100.00000
G1 Z0.800 F10800.000
G1 X125.010 Y126.769
G1 Z0.200
G1 E0.80000 F2100.00000
G1 F1200
G1 X124.105 Y127.407 E0.03473
G1 X123.138 Y127.942 E0.03465
G1 X122.128 Y128.398 E0.03473
G1 X120.656 Y128.862 E0.04840
G1 X119.027 Y129.144 E0.05184
G1 X117.230 Y129.190 E0.05637
G1 X115.568 Y128.989 E0.05249
G1 X113.910 Y128.541 E0.05386
G1 X112.326 Y127.854 E0.05411
G1 X110.872 Y126.954 E0.05361
G1 X109.554 Y125.855 E0.05382
G1 X107.809 Y123.708 E0.08674
G1 X107.045 Y122.299 E0.05025
G1 X106.508 Y120.912 E0.04664
G1 X106.153 Y119.481 E0.04622
G1 X105.981 Y118.035 E0.04566
G1 X105.957 Y90.257 E0.87097
G1 X106.614 Y87.373 E0.09276
G1 X107.043 Y86.263 E0.03730
G1 X108.406 Y84.261 E0.07593
G1 X110.254 Y82.600 E0.07790
G1 X112.440 Y81.446 E0.07752
G1 X114.806 Y80.872 E0.07633
G1 X135.146 Y80.867 E0.63775
G1 X138.571 Y81.871 E0.11192
G1 X139.879 Y82.694 E0.04845
G1 X141.075 Y83.685 E0.04871
G1 X142.995 Y86.365 E0.10336
G1 X143.951 Y89.577 E0.10506
G1 X144.049 Y117.520 E0.87614
G1 X143.932 Y118.992 E0.04629
G1 X143.634 Y120.454 E0.04678
G1 X142.794 Y122.650 E0.07372
G1 X141.891 Y124.160 E0.05518
G1 X140.792 Y125.506 E0.05447
G1 X139.160 Y126.935 E0.06803
G1 X137.965 Y127.703 E0.04452
G1 X136.706 Y128.315 E0.04389
G1 X134.288 Y129.025 E0.07902
G1 X132.889 Y129.189 E0.04415
G1 X131.487 Y129.192 E0.04398
G1 X129.497 Y128.903 E0.06302
G1 X127.772 Y128.363 E0.05669
G1 X126.187 Y127.589 E0.05532
G1 X125.059 Y126.803 E0.04308
G1 X125.009 Y126.308 F10800.000
G1 F1200
G1 X123.913 Y127.082 E0.04208
G1 X122.962 Y127.609 E0.03408
G1 X121.983 Y128.049 E0.03366
G1 X120.579 Y128.493 E0.04618
G1 X119.003 Y128.767 E0.05014
G1 X117.234 Y128.813 E0.05549
G1 X115.627 Y128.616 E0.05076
G1 X114.022 Y128.180 E0.05216
G1 X112.490 Y127.514 E0.05240
G1 X111.082 Y126.641 E0.05191
G1 X109.810 Y125.578 E0.05200
G1 X108.113 Y123.485 E0.08448
G1 X107.392 Y122.152 E0.04750
G1 X106.871 Y120.809 E0.04517
G1 X106.526 Y119.425 E0.04473
G1 X106.358 Y118.024 E0.04424
G1 X106.334 Y90.278 E0.86994
G1 X106.979 Y87.471 E0.09032
G1 X107.387 Y86.420 E0.03534
G1 X108.705 Y84.493 E0.07319
G1 X110.488 Y82.897 E0.07504
G1 X112.594 Y81.791 E0.07460
G1 X114.872 Y81.244 E0.07345
G1 X135.119 Y81.244 E0.63483
G1 X138.393 Y82.204 E0.10697
G1 X139.668 Y83.006 E0.04724
G1 X140.816 Y83.959 E0.04677
G1 X142.669 Y86.558 E0.10009
G1 X143.581 Y89.658 E0.10130
G1 X143.672 Y117.514 E0.87341
G1 X143.557 Y118.950 E0.04519
G1 X143.268 Y120.363 E0.04521
G1 X142.448 Y122.499 E0.07175
G1 X141.575 Y123.954 E0.05321
G1 X140.510 Y125.255 E0.05270
G1 X138.944 Y126.626 E0.06527
G1 X137.790 Y127.368 E0.04303
G1 X136.555 Y127.969 E0.04304
G1 X134.228 Y128.652 E0.07605
G1 X132.878 Y128.812 E0.04263
G1 X131.500 Y128.815 E0.04321
G1 X129.595 Y128.539 E0.06033
G1 X127.924 Y128.018 E0.05488
G1 X126.365 Y127.256 E0.05440
G1 X125.058 Y126.342 E0.05002
G1 X124.979 Y125.826 F10800.000
G1 F1200
G1 X124.760 Y126.021 E0.00921
G1 X123.722 Y126.758 E0.03992
G1 X122.787 Y127.275 E0.03350
G1 X121.839 Y127.701 E0.03258
G1 X120.501 Y128.124 E0.04398
G1 X118.980 Y128.391 E0.04844
G1 X117.239 Y128.435 E0.05460
G1 X115.687 Y128.243 E0.04902
G1 X114.134 Y127.820 E0.05046
G1 X112.653 Y127.173 E0.05068
G1 X111.293 Y126.328 E0.05022
G1 X110.066 Y125.300 E0.05018
G1 X108.417 Y123.261 E0.08222
G1 X107.739 Y122.004 E0.04477
G1 X107.234 Y120.705 E0.04370
G1 X106.898 Y119.368 E0.04325
G1 X106.735 Y118.012 E0.04281
G1 X106.711 Y90.300 E0.86891
G1 X107.343 Y87.569 E0.08787
G1 X107.730 Y86.578 E0.03338
G1 X109.002 Y84.726 E0.07044
G1 X110.721 Y83.194 E0.07219
G1 X112.748 Y82.136 E0.07169
G1 X114.938 Y81.616 E0.07058
G1 X135.040 Y81.613 E0.63028
G1 X138.215 Y82.538 E0.10369
G1 X139.437 Y83.305 E0.04524
G1 X140.556 Y84.234 E0.04560
G1 X142.343 Y86.750 E0.09679
G1 X143.212 Y89.737 E0.09753
G1 X143.295 Y117.507 E0.87070
G1 X143.182 Y118.908 E0.04409
G1 X142.902 Y120.271 E0.04363
G1 X142.102 Y122.348 E0.06977
G1 X141.259 Y123.748 E0.05124
G1 X140.229 Y125.004 E0.05093
G1 X138.728 Y126.316 E0.06251
G1 X137.595 Y127.045 E0.04224
G1 X136.405 Y127.623 E0.04149
G1 X134.168 Y128.280 E0.07309
G1 X132.844 Y128.436 E0.04179
G1 X131.513 Y128.438 E0.04175
G1 X129.693 Y128.174 E0.05766
G1 X128.077 Y127.673 E0.05305
G1 X126.544 Y126.924 E0.05347
G1 X125.028 Y125.860 E0.05807
G1 X125.000 Y125.295 F10800.000
G1 F1200
G1 X124.532 Y125.721 E0.01984
G1 X123.530 Y126.433 E0.03855
G1 X122.611 Y126.941 E0.03292
G1 X121.694 Y127.352 E0.03150
G1 X120.424 Y127.754 E0.04179
G1 X118.928 Y128.017 E0.04760
G1 X117.244 Y128.058 E0.05284
G1 X115.748 Y127.871 E0.04728
G1 X114.247 Y127.460 E0.04877
G1 X112.817 Y126.834 E0.04896
G1 X111.504 Y126.015 E0.04852
G1 X110.322 Y125.023 E0.04836
G1 X108.722 Y123.038 E0.07996
G1 X108.086 Y121.857 E0.04207
G1 X107.597 Y120.602 E0.04224
G1 X107.271 Y119.310 E0.04176
G1 X107.112 Y118.000 E0.04137
G1 X107.088 Y90.321 E0.86786
G1 X107.707 Y87.668 E0.08540
G1 X108.073 Y86.736 E0.03141
G1 X109.299 Y84.959 E0.06770
G1 X110.953 Y83.492 E0.06932
G1 X112.900 Y82.482 E0.06877
G1 X115.003 Y81.988 E0.06772
G1 X134.961 Y81.983 E0.62577
G1 X138.037 Y82.871 E0.10039
G1 X139.226 Y83.617 E0.04400
G1 X140.295 Y84.507 E0.04363
G1 X142.017 Y86.942 E0.09348
G1 X142.842 Y89.816 E0.09375
G1 X142.918 Y117.500 E0.86802
G1 X142.810 Y118.844 E0.04226
G1 X142.535 Y120.180 E0.04278
G1 X141.770 Y122.168 E0.06678
G1 X140.958 Y123.519 E0.04943
G1 X139.947 Y124.752 E0.05001
G1 X138.512 Y126.007 E0.05976
G1 X137.420 Y126.711 E0.04073
G1 X136.255 Y127.277 E0.04063
G1 X134.108 Y127.907 E0.07015
G1 X132.833 Y128.059 E0.04026
G1 X131.526 Y128.060 E0.04097
G1 X129.790 Y127.810 E0.05499
G1 X128.203 Y127.317 E0.05212
G1 X126.723 Y126.592 E0.05167
G1 X125.408 Y125.679 E0.05019
G1 X125.044 Y125.336 E0.01567
G1 X125.006 Y124.778 F10800.000
G1 F1200
G1 X124.304 Y125.421 E0.02983
G1 X123.338 Y126.108 E0.03717
G1 X122.435 Y126.607 E0.03233
G1 X121.550 Y127.004 E0.03042
G1 X120.346 Y127.385 E0.03960
G1 X118.877 Y127.643 E0.04675
G1 X117.249 Y127.681 E0.05106
G1 X115.808 Y127.499 E0.04554
G1 X114.361 Y127.100 E0.04707
G1 X112.982 Y126.494 E0.04724
G1 X111.715 Y125.702 E0.04683
G1 X110.579 Y124.747 E0.04655
G1 X109.046 Y122.844 E0.07662
G1 X108.424 Y121.688 E0.04115
G1 X107.953 Y120.476 E0.04078
G1 X107.640 Y119.230 E0.04028
G1 X107.488 Y117.967 E0.03990
G1 X107.466 Y90.343 E0.86612
G1 X108.071 Y87.768 E0.08292
G1 X108.415 Y86.895 E0.02944
G1 X109.596 Y85.193 E0.06494
G1 X111.185 Y83.790 E0.06646
G1 X113.052 Y82.828 E0.06585
G1 X115.067 Y82.360 E0.06486
G1 X134.934 Y82.360 E0.62293
G1 X137.859 Y83.205 E0.09546
G1 X138.994 Y83.915 E0.04198
G1 X140.035 Y84.781 E0.04244
G1 X141.690 Y87.132 E0.09015
G1 X142.472 Y89.893 E0.08998
G1 X142.541 Y117.493 E0.86537
G1 X142.436 Y118.802 E0.04116
G1 X142.169 Y120.089 E0.04120
G1 X141.439 Y121.988 E0.06380
G1 X140.642 Y123.313 E0.04848
G1 X139.666 Y124.501 E0.04822
G1 X138.296 Y125.698 E0.05703
G1 X137.245 Y126.377 E0.03923
G1 X136.104 Y126.931 E0.03978
G1 X134.048 Y127.534 E0.06719
G1 X132.799 Y127.683 E0.03941
G1 X131.539 Y127.683 E0.03950
G1 X129.887 Y127.445 E0.05234
G1 X128.355 Y126.972 E0.05028
G1 X126.902 Y126.260 E0.05075
G1 X125.635 Y125.378 E0.04837
G1 X125.049 Y124.820 E0.02539
G1 X125.011 Y124.261 F10800.000
G1 F1200
G1 X124.075 Y125.120 E0.03984
G1 X123.128 Y125.795 E0.03646
G1 X122.274 Y126.266 E0.03060
G1 X121.426 Y126.648 E0.02916
G1 X120.244 Y127.022 E0.03885
G1 X118.827 Y127.269 E0.04512
G1 X117.255 Y127.303 E0.04928
G1 X115.870 Y127.126 E0.04380
G1 X114.475 Y126.741 E0.04538
G1 X113.146 Y126.155 E0.04553
G1 X111.927 Y125.390 E0.04513
G1 X110.836 Y124.470 E0.04474
G1 X109.369 Y122.650 E0.07330
G1 X108.771 Y121.540 E0.03953
G1 X108.315 Y120.372 E0.03931
G1 X108.013 Y119.173 E0.03878
G1 X107.864 Y117.933 E0.03917
G1 X107.843 Y90.365 E0.86437
G1 X108.434 Y87.869 E0.08042
G1 X108.758 Y87.055 E0.02747
G1 X109.892 Y85.428 E0.06219
G1 X111.416 Y84.089 E0.06360
G1 X113.202 Y83.174 E0.06293
G1 X115.130 Y82.732 E0.06201
G1 X134.856 Y82.730 E0.61849
G1 X137.682 Y83.539 E0.09216
G1 X138.783 Y84.228 E0.04074
G1 X139.774 Y85.055 E0.04045
G1 X141.362 Y87.322 E0.08681
G1 X142.102 Y89.970 E0.08620
G1 X142.164 Y117.486 E0.86275
G1 X142.061 Y118.760 E0.04006
G1 X141.803 Y119.997 E0.03962
G1 X141.107 Y121.808 E0.06085
G1 X140.342 Y123.084 E0.04665
G1 X139.384 Y124.249 E0.04728
G1 X138.080 Y125.388 E0.05430
G1 X137.050 Y126.054 E0.03844
G1 X135.954 Y126.585 E0.03820
G1 X133.987 Y127.162 E0.06427
G1 X132.788 Y127.306 E0.03787
G1 X131.553 Y127.306 E0.03873
G1 X129.984 Y127.081 E0.04968
G1 X128.481 Y126.616 E0.04934
G1 X127.081 Y125.928 E0.04890
G1 X125.864 Y125.078 E0.04656
G1 X125.055 Y124.302 E0.03514
G1 X124.990 Y123.716 F10800.000
G1 F1200
G1 X124.792 Y123.950 E0.00961
G1 X123.847 Y124.820 E0.04027
G1 X122.918 Y125.481 E0.03574
G1 X122.112 Y125.926 E0.02888
G1 X121.301 Y126.292 E0.02788
G1 X120.143 Y126.659 E0.03810
G1 X118.777 Y126.895 E0.04347
G1 X117.262 Y126.926 E0.04750
G1 X115.931 Y126.754 E0.04207
G1 X114.614 Y126.390 E0.04284
G1 X113.311 Y125.815 E0.04466
G1 X112.139 Y125.078 E0.04342
G1 X111.094 Y124.194 E0.04293
G1 X109.693 Y122.456 E0.07000
G1 X109.118 Y121.392 E0.03789
G1 X108.671 Y120.246 E0.03857
G1 X108.382 Y119.093 E0.03728
G1 X108.239 Y117.899 E0.03770
G1 X108.220 Y90.387 E0.86263
M73 Q8 S11
G1 X108.798 Y87.970 E0.07791
G1 X109.100 Y87.215 E0.02550
G1 X110.187 Y85.663 E0.05943
G1 X111.646 Y84.389 E0.06073
G1 X113.352 Y83.521 E0.06001
M73 P8 R11
G1 X115.192 Y83.105 E0.05917
G1 X134.830 Y83.107 E0.61571
G1 X137.505 Y83.873 E0.08724
G1 X138.552 Y84.526 E0.03869
G1 X139.513 Y85.328 E0.03926
G1 X141.008 Y87.455 E0.08149
G1 X141.732 Y90.047 E0.08439
G1 X141.786 Y117.479 E0.86012
G1 X141.689 Y118.694 E0.03823
G1 X141.437 Y119.905 E0.03877
G1 X140.775 Y121.628 E0.05789
G1 X140.026 Y122.878 E0.04569
G1 X139.103 Y123.997 E0.04547
G1 X137.864 Y125.079 E0.05158
G1 X136.856 Y125.731 E0.03764
G1 X135.804 Y126.238 E0.03661
G1 X133.926 Y126.789 E0.06136
G1 X132.776 Y126.929 E0.03633
G1 X131.593 Y126.931 E0.03709
G1 X130.053 Y126.709 E0.04878
G1 X128.607 Y126.260 E0.04748
G1 X127.285 Y125.610 E0.04618
G1 X126.092 Y124.777 E0.04564
G1 X125.033 Y123.758 E0.04607
G1 X124.992 Y123.115 F10800.000
G1 F1200
G1 X124.525 Y123.683 E0.02305
G1 X123.619 Y124.520 E0.03870
G1 X122.708 Y125.167 E0.03502
G1 X121.949 Y125.585 E0.02718
G1 X121.176 Y125.936 E0.02660
G1 X120.041 Y126.295 E0.03733
G1 X118.727 Y126.521 E0.04181
G1 X117.269 Y126.549 E0.04572
G1 X115.993 Y126.382 E0.04034
G1 X114.754 Y126.040 E0.04031
G1 X113.476 Y125.476 E0.04379
G1 X112.352 Y124.766 E0.04169
G1 X111.351 Y123.918 E0.04113
G1 X110.016 Y122.261 E0.06673
G1 X109.465 Y121.244 E0.03626
G1 X109.034 Y120.143 E0.03707
G1 X108.750 Y119.013 E0.03652
G1 X108.615 Y117.866 E0.03622
G1 X108.597 Y90.409 E0.86089
G1 X109.161 Y88.073 E0.07537
G1 X109.441 Y87.377 E0.02353
G1 X110.482 Y85.899 E0.05666
G1 X111.875 Y84.689 E0.05786
G1 X113.500 Y83.868 E0.05708
G1 X115.254 Y83.477 E0.05634
G1 X134.752 Y83.477 E0.61135
G1 X137.328 Y84.207 E0.08394
G1 X138.341 Y84.839 E0.03744
G1 X139.252 Y85.601 E0.03724
G1 X140.680 Y87.644 E0.07815
G1 X141.362 Y90.122 E0.08060
G1 X141.409 Y117.472 E0.85753
G1 X141.314 Y118.652 E0.03712
G1 X141.071 Y119.813 E0.03719
G1 X140.443 Y121.449 E0.05495
G1 X139.726 Y122.650 E0.04385
G1 X138.822 Y123.745 E0.04453
G1 X137.627 Y124.785 E0.04969
G1 X136.661 Y125.407 E0.03601
G1 X135.654 Y125.892 E0.03504
G1 X133.865 Y126.417 E0.05848
G1 X132.763 Y126.552 E0.03481
G1 X131.633 Y126.556 E0.03544
G1 X130.122 Y126.338 E0.04786
G1 X128.733 Y125.905 E0.04561
G1 X127.489 Y125.293 E0.04347
G1 X126.320 Y124.477 E0.04472
G1 X125.239 Y123.432 E0.04713
G1 X125.029 Y123.162 E0.01072
G1 X125.005 Y122.502 F10800.000
G1 F1200
G1 X124.260 Y123.415 E0.03694
G1 X123.372 Y124.235 E0.03789
G1 X122.517 Y124.842 E0.03287
G1 X121.774 Y125.252 E0.02660
G1 X121.031 Y125.587 E0.02556
G1 X119.964 Y125.926 E0.03510
G1 X118.705 Y126.144 E0.04007
G1 X117.303 Y126.173 E0.04395
G1 X116.081 Y126.015 E0.03865
G1 X114.868 Y125.680 E0.03945
G1 X113.642 Y125.137 E0.04204
G1 X112.565 Y124.455 E0.03997
G1 X111.609 Y123.642 E0.03933
G1 X110.339 Y122.066 E0.06347
G1 X109.802 Y121.075 E0.03535
G1 X109.390 Y120.017 E0.03558
G1 X109.119 Y118.934 E0.03501
G1 X108.991 Y117.833 E0.03474
G1 X108.974 Y90.432 E0.85916
G1 X109.524 Y88.176 E0.07281
G1 X109.782 Y87.539 E0.02155
G1 X110.776 Y86.136 E0.05390
G1 X112.103 Y84.990 E0.05499
G1 X113.648 Y84.216 E0.05416
G1 X115.315 Y83.850 E0.05352
G1 X134.675 Y83.847 E0.60704
G1 X137.152 Y84.541 E0.08064
G1 X138.109 Y85.137 E0.03535
G1 X138.990 Y85.874 E0.03603
G1 X140.352 Y87.832 E0.07476
G1 X140.991 Y90.196 E0.07680
G1 X141.032 Y117.465 E0.85498
G1 X140.939 Y118.609 E0.03601
G1 X140.705 Y119.720 E0.03560
G1 X140.110 Y121.270 E0.05205
G1 X139.426 Y122.421 E0.04199
G1 X138.542 Y123.493 E0.04357
G1 X137.390 Y124.491 E0.04778
G1 X136.468 Y125.084 E0.03437
G1 X135.505 Y125.545 E0.03347
G1 X133.803 Y126.045 E0.05561
G1 X132.750 Y126.175 E0.03329
G1 X131.672 Y126.181 E0.03377
G1 X130.191 Y125.967 E0.04694
G1 X128.860 Y125.550 E0.04373
