; generated by PrusaSlicer 2.0.0+win64 on 2020-04-21 at 11:47:24

; 

; external perimeters extrusion width = 0.60mm
; perimeters extrusion width = 0.50mm
; infill extrusion width = 0.50mm
; solid infill extrusion width = 0.50mm
; top infill extrusion width = 0.45mm
; first layer extrusion width = 0.42mm

M73 P0 R19
M73 Q0 S19
M201 X1000 Y1000 Z1000 E5000 ; sets maximum accelerations, mm/sec^2
M203 X200 Y200 Z12 E120 ; sets maximum feedrates, mm/sec
M204 P1250 R1250 T1250 ; sets acceleration (P, T) and retract acceleration (R), mm/sec^2
M205 X8.00 Y8.00 Z0.40 E1.50 ; sets the jerk limits, mm/sec
M205 S0 T0 ; sets the minimum extruding and travel feed rate, mm/sec
M107
M115 U3.8.0 ; tell printer latest fw version
G90 ; use absolute coordinates
M83 ; extruder relative mode
M104 S215 ; set extruder temp
M140 S70 ; set bed temp
M190 S70 ; wait for bed temp
M109 S215 ; wait for extruder temp
G28 W ; home all without mesh bed level
G80 ; mesh bed leveling
G1 Y-3.0 F1000.0 ; go outside print area
G92 E0.0
G1 X60.0 E9.0 F1000.0 ; intro line
M73 Q0 S19
M73 P0 R19
G1 X100.0 E12.5 F1000.0 ; intro line
G92 E0.0
M221 S95
M900 K30 ; Filament gcode
G21 ; set units to millimeters
G90 ; use absolute coordinates
M83 ; use relative distances for extrusion
;BEFORE_LAYER_CHANGE
G92 E0.0
;0.2


G1 E-0.80000 F2100.00000
G1 Z0.600 F10800.000
;AFTER_LAYER_CHANGE
;0.2
G1 X110.921 Y92.229
G1 Z0.200
G1 E0.80000 F2100.00000
M204 S1000
G1 F1200
G1 X111.926 Y91.117 E0.04702
G1 X112.983 Y90.121 E0.04553
G1 X114.135 Y89.200 E0.04623
G1 X115.418 Y88.335 E0.04852
G1 X116.747 Y87.594 E0.04771
G1 X118.145 Y86.960 E0.04813
G1 X119.522 Y86.468 E0.04584
G1 X121.057 Y86.059 E0.04983
G1 X122.506 Y85.800 E0.04615
G1 X124.032 Y85.655 E0.04805
G1 X125.321 Y85.635 E0.04043
G1 X127.532 Y85.807 E0.06953
G1 X130.136 Y86.364 E0.08351
G1 X132.075 Y87.054 E0.06452
G1 X134.438 Y88.248 E0.08301
G1 X135.666 Y89.055 E0.04606
G1 X136.668 Y89.829 E0.03971
G1 X138.237 Y91.286 E0.06714
G1 X139.564 Y92.842 E0.06412
G1 X140.999 Y95.027 E0.08196
G1 X141.765 Y96.565 E0.05388
G1 X142.418 Y98.286 E0.05769
G1 X142.995 Y100.534 E0.07279
G1 X143.250 Y102.369 E0.05809
G1 X143.318 Y103.875 E0.04725
G1 X143.315 Y114.244 E0.32510
G1 X143.196 Y115.582 E0.04213
G1 X142.903 Y116.901 E0.04238
G1 X142.437 Y118.178 E0.04262
G1 X141.813 Y119.377 E0.04238
G1 X141.038 Y120.484 E0.04238
G1 X140.120 Y121.487 E0.04262
G1 X139.085 Y122.356 E0.04238
G1 X137.939 Y123.087 E0.04262
G1 X136.707 Y123.662 E0.04262
G1 X135.418 Y124.068 E0.04238
G1 X134.277 Y124.281 E0.03640
G1 X133.119 Y124.365 E0.03640
G1 X116.996 Y124.367 E0.50552
G1 X115.561 Y124.259 E0.04511
G1 X114.148 Y123.952 E0.04536
G1 X112.899 Y123.499 E0.04163
G1 X111.719 Y122.891 E0.04163
G1 X110.633 Y122.141 E0.04138
G1 X109.645 Y121.254 E0.04163
G1 X108.778 Y120.249 E0.04163
G1 X108.047 Y119.140 E0.04163
G1 X107.464 Y117.948 E0.04163
G1 X107.038 Y116.690 E0.04163
G1 X106.790 Y115.491 E0.03839
G1 X106.686 Y114.271 E0.03839
G1 X106.688 Y103.488 E0.33811
G1 X106.953 Y100.835 E0.08359
G1 X107.402 Y98.864 E0.06337
G1 X107.871 Y97.454 E0.04659
G1 X108.469 Y96.055 E0.04773
G1 X109.175 Y94.722 E0.04727
G1 X109.985 Y93.454 E0.04718
G1 X110.884 Y92.277 E0.04645
G1 X111.184 Y92.506 F10800.000
G1 F1200
G1 X112.201 Y91.375 E0.04768
G1 X113.230 Y90.407 E0.04432
G1 X114.371 Y89.494 E0.04579
G1 X115.622 Y88.653 E0.04728
G1 X116.924 Y87.927 E0.04673
G1 X118.293 Y87.307 E0.04714
G1 X119.642 Y86.826 E0.04488
G1 X121.138 Y86.427 E0.04856
G1 X122.557 Y86.174 E0.04519
G1 X124.059 Y86.031 E0.04731
G1 X125.321 Y86.012 E0.03958
G1 X127.473 Y86.179 E0.06766
G1 X130.038 Y86.728 E0.08225
G1 X131.930 Y87.402 E0.06299
G1 X134.250 Y88.575 E0.08151
G1 X135.446 Y89.361 E0.04486
G1 X136.433 Y90.125 E0.03912
G1 X137.976 Y91.557 E0.06602
G1 X139.269 Y93.077 E0.06258
G1 X140.685 Y95.238 E0.08098
G1 X141.426 Y96.732 E0.05229
G1 X142.062 Y98.410 E0.05628
G1 X142.627 Y100.619 E0.07148
G1 X142.875 Y102.417 E0.05692
G1 X142.941 Y103.876 E0.04579
G1 X142.938 Y114.239 E0.32492
G1 X142.820 Y115.545 E0.04111
G1 X142.530 Y116.831 E0.04135
G1 X142.077 Y118.062 E0.04111
G1 X141.466 Y119.222 E0.04111
G1 X140.709 Y120.292 E0.04111
G1 X139.824 Y121.248 E0.04086
G1 X138.815 Y122.086 E0.04111
G1 X137.705 Y122.785 E0.04111
G1 X136.514 Y123.332 E0.04111
G1 X135.269 Y123.716 E0.04086
G1 X134.194 Y123.912 E0.03426
G1 X133.096 Y123.989 E0.03451
G1 X116.989 Y123.989 E0.50500
G1 X115.589 Y123.882 E0.04404
G1 X114.217 Y123.579 E0.04404
G1 X113.016 Y123.138 E0.04013
G1 X111.874 Y122.543 E0.04037
G1 X110.824 Y121.811 E0.04013
G1 X109.871 Y120.946 E0.04037
G1 X109.037 Y119.964 E0.04037
G1 X108.340 Y118.891 E0.04013
G1 X107.786 Y117.737 E0.04013
G1 X107.383 Y116.522 E0.04013
G1 X107.157 Y115.389 E0.03622
G1 X107.062 Y114.238 E0.03622
G1 X107.065 Y103.479 E0.33735
G1 X107.328 Y100.877 E0.08201
G1 X107.773 Y98.938 E0.06235
G1 X108.227 Y97.581 E0.04489
G1 X108.813 Y96.210 E0.04674
G1 X109.504 Y94.905 E0.04629
G1 X110.303 Y93.658 E0.04646
G1 X111.147 Y92.553 E0.04358
G1 F8640
G1 X112.201 Y91.375 E-0.36491
G1 X113.230 Y90.407 E-0.32641
G1 X113.462 Y90.221 E-0.06868
G1 E-0.04000 F2100.00000
G1 Z0.800 F10800.000
G1 X134.495 Y123.516
G1 Z0.200
G1 E0.80000 F2100.00000
G1 F1200
G1 X116.274 Y123.613 E0.57132
G1 X113.850 Y123.102 E0.07768
G1 X111.503 Y121.876 E0.08301
G1 X109.599 Y120.112 E0.08140
G1 X108.249 Y117.944 E0.08008
G1 X107.522 Y115.465 E0.08100
G1 X107.450 Y103.251 E0.38298
G1 X107.566 Y101.819 E0.04503
G1 X107.787 Y100.459 E0.04322
G1 X108.116 Y99.109 E0.04356
G1 X108.548 Y97.796 E0.04333
G1 X109.111 Y96.462 E0.04539
G1 X109.789 Y95.165 E0.04590
G1 X110.569 Y93.936 E0.04563
G1 X111.445 Y92.779 E0.04551
G1 X112.400 Y91.710 E0.04494
G1 X113.446 Y90.718 E0.04520
G1 X114.565 Y89.820 E0.04499
G1 X115.759 Y89.012 E0.04519
G1 X117.001 Y88.311 E0.04472
G1 X118.312 Y87.706 E0.04527
G1 X119.668 Y87.212 E0.04525
G1 X121.073 Y86.828 E0.04567
G1 X122.938 Y86.504 E0.05936
G1 X124.306 Y86.397 E0.04301
G1 X125.687 Y86.397 E0.04329
G1 X127.084 Y86.508 E0.04395
G1 X128.457 Y86.727 E0.04358
G1 X129.947 Y87.094 E0.04813
G1 X131.316 Y87.558 E0.04533
G1 X132.893 Y88.257 E0.05409
G1 X134.130 Y88.943 E0.04434
G1 X135.243 Y89.679 E0.04184
G1 X136.795 Y90.933 E0.06256
G1 X137.739 Y91.855 E0.04137
G1 X138.640 Y92.881 E0.04283
G1 X139.470 Y93.993 E0.04350
G1 X140.303 Y95.327 E0.04932
G1 X141.010 Y96.725 E0.04913
G1 X141.563 Y98.102 E0.04650
G1 X141.997 Y99.521 E0.04655
G1 X142.327 Y101.074 E0.04976
G1 X142.516 Y102.645 E0.04964
G1 X142.564 Y103.830 E0.03718
G1 X142.564 Y114.784 E0.34345
G1 X142.053 Y117.200 E0.07742
G1 X140.828 Y119.546 E0.08299
G1 X139.068 Y121.446 E0.08120
G1 X136.922 Y122.789 E0.07938
G1 X134.553 Y123.499 E0.07755
G1 X134.445 Y123.137 F10800.000
G1 F1200
G1 X116.293 Y123.236 E0.56918
G1 X113.954 Y122.739 E0.07496
G1 X111.701 Y121.555 E0.07980
G1 X109.874 Y119.854 E0.07826
G1 X108.583 Y117.768 E0.07691
G1 X107.891 Y115.386 E0.07779
G1 X107.828 Y103.257 E0.38029
G1 X107.939 Y101.872 E0.04356
G1 X108.155 Y100.541 E0.04229
G1 X108.476 Y99.220 E0.04263
G1 X108.899 Y97.936 E0.04238
G1 X109.449 Y96.630 E0.04441
G1 X110.112 Y95.361 E0.04492
G1 X110.875 Y94.158 E0.04466
G1 X111.731 Y93.024 E0.04454
G1 X112.666 Y91.978 E0.04397
G1 X113.689 Y91.007 E0.04423
G1 X114.783 Y90.127 E0.04403
G1 X115.951 Y89.336 E0.04423
G1 X117.166 Y88.650 E0.04376
G1 X118.449 Y88.058 E0.04430
G1 X119.776 Y87.574 E0.04428
G1 X121.147 Y87.198 E0.04457
G1 X122.994 Y86.877 E0.05879
G1 X124.328 Y86.773 E0.04195
G1 X125.665 Y86.773 E0.04191
G1 X127.032 Y86.881 E0.04301
G1 X128.389 Y87.098 E0.04310
G1 X129.834 Y87.454 E0.04665
G1 X131.171 Y87.906 E0.04427
G1 X132.733 Y88.598 E0.05355
G1 X133.928 Y89.262 E0.04287
G1 X135.013 Y89.978 E0.04077
G1 X136.551 Y91.220 E0.06199
G1 X137.470 Y92.119 E0.04030
G1 X138.351 Y93.124 E0.04192
G1 X139.163 Y94.212 E0.04256
G1 X139.970 Y95.505 E0.04779
G1 X140.664 Y96.873 E0.04809
G1 X141.204 Y98.220 E0.04549
G1 X141.634 Y99.624 E0.04603
G1 X141.956 Y101.143 E0.04871
G1 X142.140 Y102.683 E0.04861
G1 X142.187 Y103.834 E0.03613
G1 X142.187 Y114.764 E0.34270
G1 X141.690 Y117.095 E0.07474
G1 X140.506 Y119.347 E0.07978
G1 X138.809 Y121.170 E0.07807
G1 X136.745 Y122.455 E0.07624
G1 X134.503 Y123.120 E0.07332
G1 X134.397 Y122.759 F10800.000
G1 F1200
G1 X134.333 Y122.777 E0.00207
G1 X116.311 Y122.859 E0.56507
G1 X114.059 Y122.376 E0.07223
G1 X111.900 Y121.233 E0.07658
G1 X110.151 Y119.596 E0.07513
G1 X108.918 Y117.593 E0.07375
G1 X108.261 Y115.307 E0.07458
G1 X108.205 Y103.263 E0.37761
G1 X108.313 Y101.925 E0.04211
G1 X108.523 Y100.623 E0.04136
G1 X108.837 Y99.330 E0.04170
G1 X109.249 Y98.075 E0.04143
G1 X109.786 Y96.798 E0.04344
G1 X110.435 Y95.556 E0.04393
G1 X111.180 Y94.378 E0.04369
G1 X112.018 Y93.269 E0.04357
G1 X112.931 Y92.246 E0.04300
G1 X113.931 Y91.296 E0.04326
G1 X115.001 Y90.435 E0.04306
G1 X116.143 Y89.660 E0.04326
G1 X117.331 Y88.989 E0.04279
G1 X118.586 Y88.409 E0.04333
G1 X119.883 Y87.935 E0.04331
G1 X121.220 Y87.568 E0.04348
G1 X123.050 Y87.250 E0.05822
G1 X124.350 Y87.150 E0.04088
G1 X125.642 Y87.150 E0.04052
G1 X126.995 Y87.256 E0.04254
G1 X128.322 Y87.469 E0.04214
G1 X129.721 Y87.814 E0.04517
G1 X131.027 Y88.255 E0.04321
G1 X132.572 Y88.939 E0.05301
G1 X133.727 Y89.580 E0.04140
G1 X134.783 Y90.277 E0.03969
G1 X136.307 Y91.508 E0.06142
G1 X137.201 Y92.384 E0.03922
G1 X138.063 Y93.367 E0.04101
G1 X138.856 Y94.431 E0.04162
G1 X139.638 Y95.683 E0.04627
G1 X140.317 Y97.022 E0.04706
G1 X140.851 Y98.353 E0.04497
G1 X141.271 Y99.726 E0.04501
G1 X141.585 Y101.213 E0.04767
G1 X141.765 Y102.720 E0.04758
G1 X141.810 Y103.838 E0.03508
G1 X141.810 Y114.744 E0.34195
G1 X141.327 Y116.990 E0.07205
G1 X140.185 Y119.149 E0.07656
G1 X138.551 Y120.894 E0.07495
G1 X136.568 Y122.121 E0.07311
G1 X134.454 Y122.742 E0.06908
G1 X134.348 Y122.380 F10800.000
G1 F1200
G1 X134.253 Y122.408 E0.00312
G1 X116.331 Y122.482 E0.56194
G1 X114.165 Y122.013 E0.06948
G1 X112.100 Y120.913 E0.07335
G1 X110.428 Y119.339 E0.07200
G1 X109.253 Y117.418 E0.07059
G1 X108.630 Y115.229 E0.07138
G1 X108.582 Y103.270 E0.37496
G1 X108.686 Y101.977 E0.04066
G1 X108.891 Y100.704 E0.04043
G1 X109.198 Y99.441 E0.04077
G1 X109.600 Y98.214 E0.04048
G1 X110.124 Y96.965 E0.04246
G1 X110.758 Y95.751 E0.04295
G1 X111.486 Y94.599 E0.04271
G1 X112.314 Y93.503 E0.04308
G1 X113.207 Y92.503 E0.04202
G1 X114.174 Y91.585 E0.04182
G1 X115.219 Y90.743 E0.04210
G1 X116.336 Y89.985 E0.04230
G1 X117.496 Y89.328 E0.04183
G1 X118.722 Y88.761 E0.04235
G1 X119.991 Y88.297 E0.04234
G1 X121.294 Y87.938 E0.04238
G1 X123.105 Y87.624 E0.05765
G1 X124.371 Y87.526 E0.03981
G1 X125.635 Y87.527 E0.03961
G1 X126.957 Y87.632 E0.04160
G1 X128.254 Y87.840 E0.04119
G1 X129.608 Y88.174 E0.04371
G1 X130.882 Y88.603 E0.04215
G1 X132.412 Y89.281 E0.05247
G1 X133.525 Y89.899 E0.03993
G1 X134.553 Y90.577 E0.03861
G1 X136.063 Y91.796 E0.06084
G1 X136.931 Y92.648 E0.03814
G1 X137.765 Y93.599 E0.03965
G1 X138.550 Y94.651 E0.04114
G1 X139.306 Y95.861 E0.04476
G1 X139.970 Y97.170 E0.04602
G1 X140.498 Y98.486 E0.04445
G1 X140.907 Y99.828 E0.04399
G1 X141.212 Y101.266 E0.04610
G1 X141.389 Y102.742 E0.04661
G1 X141.432 Y103.841 E0.03449
G1 X141.433 Y114.723 E0.34120
G1 X140.964 Y116.884 E0.06933
G1 X139.864 Y118.949 E0.07334
G1 X138.294 Y120.617 E0.07184
G1 X136.438 Y121.766 E0.06844
G1 X134.406 Y122.363 E0.06641
G1 X134.300 Y122.002 F10800.000
G1 F1200
G1 X134.173 Y122.039 E0.00416
G1 X116.350 Y122.104 E0.55883
G1 X114.271 Y121.650 E0.06672
G1 X112.301 Y120.593 E0.07011
G1 X110.706 Y119.083 E0.06886
G1 X109.589 Y117.245 E0.06743
G1 X109.000 Y115.151 E0.06819
G1 X108.958 Y103.292 E0.37183
G1 X109.060 Y102.030 E0.03971
G1 X109.262 Y100.772 E0.03996
G1 X109.562 Y99.537 E0.03984
G1 X109.956 Y98.339 E0.03955
G1 X110.469 Y97.118 E0.04150
G1 X111.088 Y95.932 E0.04196
G1 X111.800 Y94.808 E0.04173
G1 X112.610 Y93.736 E0.04210
G1 X113.483 Y92.761 E0.04105
G1 X114.428 Y91.864 E0.04085
G1 X115.450 Y91.041 E0.04113
G1 X116.541 Y90.301 E0.04134
G1 X117.675 Y89.660 E0.04086
G1 X118.873 Y89.106 E0.04138
G1 X120.113 Y88.654 E0.04136
G1 X121.385 Y88.304 E0.04137
G1 X123.143 Y87.999 E0.05596
G1 X124.379 Y87.904 E0.03885
G1 X125.627 Y87.904 E0.03915
G1 X126.920 Y88.007 E0.04066
G1 X128.187 Y88.211 E0.04024
G1 X129.495 Y88.534 E0.04226
G1 X130.737 Y88.951 E0.04108
G1 X132.251 Y89.622 E0.05192
G1 X133.324 Y90.218 E0.03848
G1 X134.324 Y90.876 E0.03752
G1 X135.819 Y92.083 E0.06026
G1 X136.662 Y92.912 E0.03706
G1 X137.467 Y93.830 E0.03830
G1 X138.243 Y94.870 E0.04067
G1 X138.973 Y96.040 E0.04325
G1 X139.623 Y97.318 E0.04498
G1 X140.140 Y98.603 E0.04342
G1 X140.544 Y99.930 E0.04347
G1 X140.841 Y101.336 E0.04506
G1 X141.012 Y102.765 E0.04513
G1 X141.055 Y103.845 E0.03390
G1 X141.055 Y114.703 E0.34044
G1 X140.601 Y116.778 E0.06660
G1 X139.544 Y118.748 E0.07010
G1 X138.037 Y120.340 E0.06872
G1 X136.262 Y121.431 E0.06534
G1 X134.358 Y121.985 E0.06218
G1 X134.254 Y121.623 F10800.000
G1 F1200
G1 X134.094 Y121.669 E0.00522
G1 X116.370 Y121.727 E0.55574
G1 X114.379 Y121.288 E0.06394
G1 X112.503 Y120.273 E0.06687
G1 X110.984 Y118.828 E0.06573
G1 X109.926 Y117.073 E0.06426
G1 X109.370 Y115.075 E0.06501
G1 X109.335 Y103.315 E0.36874
G1 X109.433 Y102.082 E0.03877
G1 X109.633 Y100.839 E0.03949
G1 X109.927 Y99.633 E0.03890
G1 X110.312 Y98.464 E0.03861
G1 X110.813 Y97.272 E0.04054
G1 X111.419 Y96.114 E0.04098
G1 X112.115 Y95.016 E0.04074
G1 X112.906 Y93.970 E0.04113
G1 X113.758 Y93.018 E0.04007
G1 X114.682 Y92.143 E0.03988
G1 X115.680 Y91.340 E0.04017
G1 X116.746 Y90.618 E0.04037
G1 X117.854 Y89.992 E0.03990
G1 X119.024 Y89.452 E0.04041
G1 X120.234 Y89.011 E0.04039
G1 X121.476 Y88.670 E0.04036
G1 X123.181 Y88.374 E0.05428
G1 X124.386 Y88.281 E0.03789
G1 X125.605 Y88.280 E0.03821
G1 X126.867 Y88.380 E0.03970
G1 X128.119 Y88.582 E0.03976
G1 X129.383 Y88.894 E0.04081
G1 X130.593 Y89.300 E0.04001
G1 X132.091 Y89.963 E0.05138
G1 X133.123 Y90.537 E0.03703
G1 X134.094 Y91.175 E0.03643
G1 X135.575 Y92.371 E0.05968
G1 X136.393 Y93.175 E0.03597
G1 X137.169 Y94.062 E0.03695
G1 X137.936 Y95.089 E0.04019
G1 X138.641 Y96.218 E0.04174
G1 X139.277 Y97.467 E0.04394
G1 X139.782 Y98.721 E0.04239
G1 X140.181 Y100.032 E0.04295
G1 X140.470 Y101.405 E0.04402
G1 X140.636 Y102.788 E0.04365
G1 X140.678 Y103.849 E0.03331
G1 X140.678 Y114.682 E0.33967
G1 X140.239 Y116.670 E0.06384
G1 X139.224 Y118.546 E0.06686
G1 X137.782 Y120.062 E0.06561
G1 X136.088 Y121.096 E0.06223
G1 X134.312 Y121.606 E0.05794
G1 X134.016 Y121.299 F10800.000
G1 F1200
G1 X116.390 Y121.350 E0.55267
G1 X114.487 Y120.926 E0.06113
G1 X112.706 Y119.954 E0.06361
G1 X111.264 Y118.573 E0.06261
G1 X110.263 Y116.902 E0.06110
G1 X109.741 Y115.000 E0.06183
G1 X109.711 Y103.337 E0.36568
G1 X109.807 Y102.134 E0.03782
G1 X110.002 Y100.921 E0.03855
G1 X110.287 Y99.744 E0.03796
G1 X110.667 Y98.589 E0.03813
G1 X111.158 Y97.426 E0.03957
G1 X111.749 Y96.296 E0.04000
G1 X112.429 Y95.225 E0.03976
G1 X113.202 Y94.204 E0.04015
G1 X114.034 Y93.275 E0.03910
G1 X114.935 Y92.422 E0.03892
G1 X115.910 Y91.639 E0.03920
G1 X116.951 Y90.934 E0.03941
G1 X118.032 Y90.324 E0.03894
G1 X119.175 Y89.798 E0.03944
G1 X120.356 Y89.368 E0.03942
G1 X121.567 Y89.036 E0.03935
G1 X123.219 Y88.749 E0.05260
G1 X124.408 Y88.657 E0.03738
G1 X125.597 Y88.657 E0.03729
G1 X126.829 Y88.756 E0.03876
G1 X128.051 Y88.953 E0.03880
G1 X129.270 Y89.254 E0.03938
G1 X130.448 Y89.648 E0.03893
G1 X131.930 Y90.305 E0.05083
G1 X132.922 Y90.856 E0.03558
G1 X133.865 Y91.474 E0.03534
G1 X135.331 Y92.658 E0.05909
G1 X136.123 Y93.439 E0.03488
G1 X136.872 Y94.293 E0.03561
G1 X137.629 Y95.308 E0.03971
G1 X138.309 Y96.397 E0.04024
G1 X138.930 Y97.616 E0.04290
G1 X139.429 Y98.854 E0.04187
G1 X139.818 Y100.133 E0.04191
G1 X140.097 Y101.459 E0.04246
G1 X140.259 Y102.810 E0.04269
G1 X140.301 Y103.853 E0.03272
G1 X140.301 Y114.661 E0.33889
G1 X139.877 Y116.562 E0.06106
G1 X138.906 Y118.343 E0.06361
G1 X137.527 Y119.783 E0.06250
G1 X135.915 Y120.760 E0.05912
G1 X134.074 Y121.283 E0.05999
G1 X133.972 Y120.920 F10800.000
G1 F1200
G1 X116.411 Y120.973 E0.55064
G1 X114.596 Y120.564 E0.05831
G1 X112.910 Y119.636 E0.06035
G1 X111.544 Y118.320 E0.05948
