; generated by PrusaSlicer 2.2.0+win64 on 2020-06-12 at 13:46:10 UTC

; 

; external perimeters extrusion width = 0.60mm
; perimeters extrusion width = 0.50mm
; infill extrusion width = 0.50mm
; solid infill extrusion width = 0.50mm
; top infill extrusion width = 0.45mm
; support material extrusion width = 0.38mm
; first layer extrusion width = 0.42mm

M73 P0 R17
M73 Q0 S17
M201 X1000 Y1000 Z1000 E5000 ; sets maximum accelerations, mm/sec^2
M203 X200 Y200 Z12 E120 ; sets maximum feedrates, mm/sec
M204 P1250 R1250 T1250 ; sets acceleration (P, T) and retract acceleration (R), mm/sec^2
M205 X8.00 Y8.00 Z0.40 E4.50 ; sets the jerk limits, mm/sec
M205 S0 T0 ; sets the minimum extruding and travel feed rate, mm/sec
M107
M862.3 P "MK3S" ; printer model check
M862.1 P0.4 ; nozzle diameter check
M115 U3.8.1 ; tell printer latest fw version
G90 ; use absolute coordinates
M83 ; extruder relative mode
M104 S240 ; set extruder temp
M140 S85 ; set bed temp
M190 S85 ; wait for bed temp
M109 S240 ; wait for extruder temp
G28 W ; home all without mesh bed level
G80 ; mesh bed leveling
G1 Y-3.0 F1000.0 ; go outside print area
G92 E0.0
G1 X60.0 E9.0 F1000.0 ; intro line
M73 Q0 S17
M73 P0 R16
G1 X100.0 E12.5 F1000.0 ; intro line
G92 E0.0
M221 S95
G21 ; set units to millimeters
G90 ; use absolute coordinates
M83 ; use relative distances for extrusion
M900 K45 ; Filament gcode
;BEFORE_LAYER_CHANGE
G92 E0.0
;0.2


G1 E-1.40000 F2100.00000
G1 Z0.200 F10800.000
;AFTER_LAYER_CHANGE
;0.2
G1 Z0.400
G1 X122.786 Y103.142
G1 Z0.200
G1 E1.40000 F2100.00000
M204 S1000
G1 F600.000
G1 X123.142 Y102.786 E0.01580
G1 X123.555 Y102.497 E0.01580
G1 X124.012 Y102.284 E0.01580
G1 X124.498 Y102.154 E0.01580
G1 X124.940 Y102.115 E0.01391
G1 X125.496 Y102.152 E0.01747
G1 X125.988 Y102.284 E0.01599
G1 X126.445 Y102.497 E0.01580
G1 X126.858 Y102.786 E0.01580
G1 X127.214 Y103.142 E0.01580
G1 X127.503 Y103.555 E0.01580
G1 X127.716 Y104.012 E0.01580
G1 X127.846 Y104.498 E0.01580
G1 X127.890 Y105.000 E0.01580
G1 X127.846 Y105.502 E0.01580
G1 X127.731 Y105.930 E0.01391
G1 X127.506 Y106.440 E0.01747
G1 X127.214 Y106.858 E0.01599
G1 X126.858 Y107.214 E0.01580
G1 X126.445 Y107.503 E0.01580
G1 X125.988 Y107.716 E0.01580
G1 X125.502 Y107.846 E0.01580
G1 X125.000 Y107.890 E0.01580
G1 X124.498 Y107.846 E0.01580
G1 X124.012 Y107.716 E0.01580
G1 X123.555 Y107.503 E0.01580
G1 X123.142 Y107.214 E0.01580
G1 X122.786 Y106.858 E0.01580
G1 X122.497 Y106.445 E0.01580
G1 X122.284 Y105.988 E0.01580
G1 X122.154 Y105.502 E0.01580
G1 X122.110 Y105.000 E0.01580
G1 X122.154 Y104.498 E0.01580
G1 X122.284 Y104.012 E0.01580
G1 X122.497 Y103.555 E0.01580
G1 X122.752 Y103.191 E0.01391
G1 X123.061 Y103.408 F10800.000
G1 F600.000
G1 X123.386 Y103.076 E0.01456
G1 X123.744 Y102.825 E0.01373
G1 X124.141 Y102.640 E0.01373
G1 X124.564 Y102.527 E0.01373
G1 X124.944 Y102.493 E0.01196
G1 X125.434 Y102.526 E0.01540
G1 X125.859 Y102.640 E0.01380
G1 X126.256 Y102.825 E0.01373
G1 X126.614 Y103.076 E0.01373
G1 X126.924 Y103.386 E0.01373
G1 X127.175 Y103.744 E0.01373
G1 X127.360 Y104.141 E0.01373
G1 X127.473 Y104.564 E0.01373
G1 X127.512 Y105.000 E0.01373
G1 X127.473 Y105.436 E0.01373
G1 X127.375 Y105.805 E0.01196
G1 X127.176 Y106.254 E0.01540
G1 X126.924 Y106.614 E0.01380
G1 X126.614 Y106.924 E0.01373
G1 X126.256 Y107.175 E0.01373
G1 X125.859 Y107.360 E0.01373
G1 X125.436 Y107.473 E0.01373
G1 X125.000 Y107.512 E0.01373
G1 X124.564 Y107.473 E0.01373
G1 X124.141 Y107.360 E0.01373
G1 X123.744 Y107.175 E0.01373
G1 X123.386 Y106.924 E0.01373
G1 X123.076 Y106.614 E0.01373
G1 X122.825 Y106.256 E0.01373
G1 X122.640 Y105.859 E0.01373
G1 X122.527 Y105.436 E0.01373
G1 X122.488 Y105.000 E0.01373
G1 X122.527 Y104.564 E0.01373
G1 X122.640 Y104.141 E0.01373
G1 X122.825 Y103.744 E0.01373
G1 X123.026 Y103.457 E0.01100
G1 X122.921 Y103.033 F10800.000
G1 F8640.000
G1 X123.386 Y103.076 E-0.12092
G1 X123.744 Y102.825 E-0.10109
G1 X124.141 Y102.640 E-0.10109
G1 X124.564 Y102.527 E-0.10109
G1 X124.944 Y102.493 E-0.08809
G1 X125.434 Y102.526 E-0.11341
G1 X125.859 Y102.640 E-0.10159
G1 X126.256 Y102.825 E-0.10109
G1 X126.614 Y103.076 E-0.10109
G1 X126.924 Y103.386 E-0.10109
G1 X127.175 Y103.744 E-0.10109
G1 X127.360 Y104.141 E-0.10109
G1 X127.469 Y104.548 E-0.09727
G1 E-0.07000 F2100.00000
G1 Z0.400 F10800.000
G1 X115.787 Y95.787
G1 Z0.200
G1 E1.40000 F2100.00000
G1 F600.000
G1 X134.213 Y95.787 E0.57773
G1 X134.213 Y114.213 E0.57773
G1 X115.787 Y114.213 E0.57773
G1 X115.787 Y95.847 E0.57585
G1 X115.410 Y95.410 F10800.000
G1 F600.000
G1 X134.590 Y95.410 E0.60138
G1 X134.590 Y114.590 E0.60138
G1 X115.410 Y114.590 E0.60138
G1 X115.410 Y95.470 E0.59949
G1 X115.796 Y95.514 F10800.000
G1 F8640.000
G1 X121.170 Y95.452 E-1.33000
G1 E-0.07000 F2100.00000
G1 Z0.400 F10800.000
G1 X116.667 Y114.100
G1 Z0.200
G1 E1.40000 F2100.00000
G1 F600.000
G1 X116.070 Y113.503 E0.02663
G1 X116.070 Y112.966 E0.01692
G1 X117.034 Y113.930 E0.04299
G1 X117.570 Y113.930 E0.01692
G1 X116.070 Y112.430 E0.06691
G1 X116.070 Y111.893 E0.01692
G1 X118.107 Y113.930 E0.09084
G1 X118.643 Y113.930 E0.01692
G1 X116.070 Y111.357 E0.11476
G1 X116.070 Y110.821 E0.01692
G1 X119.179 Y113.930 E0.13868
G1 X119.716 Y113.930 E0.01692
G1 X116.070 Y110.284 E0.16261
G1 X116.070 Y109.748 E0.01692
G1 X120.252 Y113.930 E0.18653
G1 X120.788 Y113.930 E0.01692
G1 X116.070 Y109.212 E0.21045
G1 X116.070 Y108.675 E0.01692
G1 X121.325 Y113.930 E0.23438
G1 X121.861 Y113.930 E0.01692
G1 X116.070 Y108.139 E0.25830
G1 X116.070 Y107.602 E0.01692
G1 X122.398 Y113.930 E0.28223
G1 X122.934 Y113.930 E0.01692
G1 X116.070 Y107.066 E0.30615
G1 X116.070 Y106.530 E0.01692
G1 X123.470 Y113.930 E0.33007
G1 X124.007 Y113.930 E0.01692
G1 X116.070 Y105.993 E0.35400
G1 X116.070 Y105.457 E0.01692
G1 X124.543 Y113.930 E0.37792
G1 X125.080 Y113.930 E0.01692
G1 X116.070 Y104.920 E0.40184
G1 X116.070 Y104.384 E0.01692
G1 X125.616 Y113.930 E0.42577
G1 X126.152 Y113.930 E0.01692
G1 X116.070 Y103.848 E0.44969
G1 X116.070 Y103.311 E0.01692
G1 X126.689 Y113.930 E0.47362
G1 X127.225 Y113.930 E0.01692
G1 X116.070 Y102.775 E0.49754
G1 X116.070 Y102.238 E0.01692
G1 X127.762 Y113.930 E0.52146
G1 X128.298 Y113.930 E0.01692
G1 X116.070 Y101.702 E0.54539
G1 X116.070 Y101.166 E0.01692
G1 X129.004 Y114.100 E0.57688
G1 F8640.000
G1 X124.931 Y110.027 E-1.33000
G1 E-0.07000 F2100.00000
G1 Z0.400 F10800.000
G1 X134.100 Y110.077
G1 Z0.200
G1 E1.40000 F2100.00000
G1 F600.000
G1 X127.999 Y103.976 E0.27210
G1 X128.126 Y104.449 E0.01543
G1 X128.144 Y104.658 E0.00661
G1 X133.930 Y110.444 E0.25807
G1 X133.930 Y110.980 E0.01692
G1 X128.156 Y105.206 E0.25753
G1 X128.126 Y105.551 E0.01093
G1 X128.092 Y105.678 E0.00414
G1 X133.930 Y111.516 E0.26040
G1 X133.930 Y112.053 E0.01692
G1 X127.969 Y106.092 E0.26586
G1 X127.805 Y106.464 E0.01283
G1 X133.930 Y112.589 E0.27319
G1 X133.930 Y113.126 E0.01692
G1 X127.602 Y106.797 E0.28226
G1 X127.370 Y107.102 E0.01207
G1 X133.930 Y113.662 E0.29259
G1 X133.930 Y113.930 E0.00846
G1 X133.662 Y113.930 E0.00846
G1 X127.102 Y107.370 E0.29259
G1 X126.797 Y107.602 E0.01207
G1 X133.125 Y113.930 E0.28226
G1 X132.589 Y113.930 E0.01692
G1 X126.465 Y107.806 E0.27315
G1 X126.099 Y107.976 E0.01273
G1 X132.053 Y113.930 E0.26555
G1 X131.516 Y113.930 E0.01692
G1 X125.678 Y108.092 E0.26040
G1 X125.551 Y108.126 E0.00414
G1 X125.206 Y108.156 E0.01093
G1 X130.980 Y113.930 E0.25753
M73 Q6 S16
G1 X130.444 Y113.930 E0.01692
G1 X124.657 Y108.144 E0.25807
M73 P6 R15
G1 X124.449 Y108.126 E0.00660
G1 X123.976 Y107.999 E0.01544
G1 X129.907 Y113.930 E0.26453
G1 X129.371 Y113.930 E0.01692
G1 X116.070 Y100.629 E0.59323
G1 X116.070 Y100.093 E0.01692
G1 X122.001 Y106.024 E0.26453
G1 X121.874 Y105.551 E0.01544
G1 X121.856 Y105.343 E0.00660
G1 X116.070 Y99.556 E0.25807
G1 X116.070 Y99.020 E0.01692
G1 X121.844 Y104.794 E0.25753
G1 X121.874 Y104.449 E0.01093
G1 X121.908 Y104.322 E0.00414
G1 X116.070 Y98.484 E0.26040
G1 X116.070 Y97.947 E0.01692
G1 X122.024 Y103.901 E0.26555
G1 X122.194 Y103.535 E0.01273
G1 X116.070 Y97.411 E0.27315
G1 X116.070 Y96.875 E0.01692
G1 X122.398 Y103.203 E0.28226
G1 X122.630 Y102.898 E0.01207
G1 X116.070 Y96.338 E0.29259
G1 X116.070 Y96.070 E0.00846
G1 X116.338 Y96.070 E0.00846
G1 X122.898 Y102.630 E0.29260
G1 X123.203 Y102.398 E0.01207
G1 X116.874 Y96.070 E0.28226
G1 X117.411 Y96.070 E0.01692
G1 X123.535 Y102.194 E0.27316
G1 X123.901 Y102.024 E0.01273
G1 X117.947 Y96.070 E0.26555
G1 X118.484 Y96.070 E0.01692
G1 X124.322 Y101.908 E0.26040
G1 X124.449 Y101.874 E0.00414
G1 X124.794 Y101.844 E0.01093
G1 X119.020 Y96.070 E0.25753
G1 X119.556 Y96.070 E0.01692
G1 X125.345 Y101.859 E0.25819
G1 X125.542 Y101.872 E0.00623
G1 X126.024 Y102.001 E0.01572
G1 X120.093 Y96.070 E0.26453
G1 X120.629 Y96.070 E0.01692
G1 X133.930 Y109.371 E0.59324
G1 X133.930 Y108.834 E0.01692
G1 X121.166 Y96.070 E0.56931
G1 X121.702 Y96.070 E0.01692
G1 X133.930 Y108.298 E0.54539
G1 X133.930 Y107.762 E0.01692
G1 X122.238 Y96.070 E0.52147
G1 X122.775 Y96.070 E0.01692
G1 X133.930 Y107.225 E0.49754
G1 X133.930 Y106.689 E0.01692
G1 X123.311 Y96.070 E0.47362
G1 X123.847 Y96.070 E0.01692
G1 X133.930 Y106.153 E0.44970
G1 X133.930 Y105.616 E0.01692
G1 X124.384 Y96.070 E0.42577
G1 X124.920 Y96.070 E0.01692
G1 X133.930 Y105.080 E0.40185
G1 X133.930 Y104.543 E0.01692
G1 X125.457 Y96.070 E0.37793
G1 X125.993 Y96.070 E0.01692
G1 X133.930 Y104.007 E0.35400
G1 X133.930 Y103.471 E0.01692
G1 X126.529 Y96.070 E0.33008
G1 X127.066 Y96.070 E0.01692
G1 X133.930 Y102.934 E0.30615
G1 X133.930 Y102.398 E0.01692
G1 X127.602 Y96.070 E0.28223
G1 X128.139 Y96.070 E0.01692
G1 X133.930 Y101.861 E0.25831
G1 X133.930 Y101.325 E0.01692
G1 X128.675 Y96.070 E0.23438
G1 X129.211 Y96.070 E0.01692
G1 X133.930 Y100.789 E0.21046
G1 X133.930 Y100.252 E0.01692
G1 X129.748 Y96.070 E0.18654
G1 X130.284 Y96.070 E0.01692
G1 X133.930 Y99.716 E0.16261
G1 X133.930 Y99.179 E0.01692
G1 X130.821 Y96.070 E0.13869
G1 X131.357 Y96.070 E0.01692
G1 X133.930 Y98.643 E0.11477
G1 X133.930 Y98.107 E0.01692
G1 X131.893 Y96.070 E0.09084
G1 X132.430 Y96.070 E0.01692
G1 X133.930 Y97.570 E0.06692
G1 X133.930 Y97.034 E0.01692
G1 X132.966 Y96.070 E0.04299
G1 X133.503 Y96.070 E0.01692
G1 X134.100 Y96.667 E0.02664
;BEFORE_LAYER_CHANGE
G92 E0.0
;0.3


G1 F8640.000
G1 X133.503 Y96.070 E-0.19503
G1 X132.966 Y96.070 E-0.12385
G1 X133.930 Y97.034 E-0.31478
G1 X133.930 Y97.570 E-0.12385
G1 X132.430 Y96.070 E-0.48994
G1 X132.072 Y96.070 E-0.08254
G1 E-0.07000 F2100.00000
G1 Z0.400 F10800.000
;AFTER_LAYER_CHANGE
;0.3
M104 S250 ; set temperature
M140 S90 ; set bed temperature
G1 X126.884 Y102.754
G1 Z0.300
G1 E1.40000 F2100.00000
M204 S800
G1 F1800.000
G1 X127.246 Y103.116 E0.01017
G1 X127.539 Y103.534 E0.01017
G1 X127.755 Y103.997 E0.01017
G1 X127.887 Y104.491 E0.01017
G1 X127.932 Y105.000 E0.01017
G1 X127.887 Y105.509 E0.01017
G1 X127.797 Y105.844 E0.00690
G1 X127.755 Y106.003 E0.00326
G1 X127.539 Y106.466 E0.01017
G1 X127.246 Y106.884 E0.01017
G1 X126.884 Y107.246 E0.01017
G1 X126.466 Y107.539 E0.01017
G1 X126.003 Y107.755 E0.01017
G1 X125.509 Y107.887 E0.01017
G1 X125.000 Y107.932 E0.01017
G1 X124.491 Y107.887 E0.01017
G1 X123.997 Y107.755 E0.01017
G1 X123.534 Y107.539 E0.01017
G1 X123.116 Y107.246 E0.01017
G1 X122.754 Y106.884 E0.01017
G1 X122.461 Y106.466 E0.01017
G1 X122.245 Y106.003 E0.01017
G1 X122.113 Y105.509 E0.01017
G1 X122.068 Y105.000 E0.01017
G1 X122.113 Y104.491 E0.01017
G1 X122.245 Y103.997 E0.01017
G1 X122.461 Y103.534 E0.01017
G1 X122.754 Y103.116 E0.01017
G1 X123.116 Y102.754 E0.01017
G1 X123.534 Y102.461 E0.01017
G1 X123.997 Y102.245 E0.01017
G1 X124.491 Y102.113 E0.01017
G1 X125.000 Y102.068 E0.01017
G1 X125.509 Y102.113 E0.01017
G1 X126.003 Y102.245 E0.01017
G1 X126.466 Y102.461 E0.01017
G1 X126.835 Y102.720 E0.00897
M204 S1000
G1 X126.532 Y103.153 F10800.000
M204 S800
G1 F1800.000
G1 X126.839 Y103.457 E0.01039
G1 X127.079 Y103.799 E0.01007
G1 X127.256 Y104.179 E0.01007
G1 X127.365 Y104.583 E0.01007
G1 X127.401 Y105.000 E0.01007
G1 X127.365 Y105.417 E0.01007
G1 X127.287 Y105.707 E0.00723
G1 X127.256 Y105.821 E0.00283
G1 X127.079 Y106.201 E0.01007
G1 X126.839 Y106.543 E0.01007
G1 X126.543 Y106.839 E0.01007
G1 X126.201 Y107.079 E0.01007
G1 X125.821 Y107.256 E0.01007
G1 X125.417 Y107.365 E0.01007
G1 X125.000 Y107.401 E0.01007
G1 X124.583 Y107.365 E0.01007
G1 X124.179 Y107.256 E0.01007
G1 X123.799 Y107.079 E0.01007
G1 X123.457 Y106.839 E0.01007
G1 X123.161 Y106.543 E0.01007
G1 X122.921 Y106.201 E0.01007
G1 X122.744 Y105.821 E0.01007
G1 X122.635 Y105.417 E0.01007
G1 X122.599 Y105.000 E0.01007
G1 X122.635 Y104.583 E0.01007
G1 X122.744 Y104.179 E0.01007
G1 X122.921 Y103.799 E0.01007
G1 X123.161 Y103.457 E0.01007
G1 X123.457 Y103.161 E0.01007
G1 X123.799 Y102.921 E0.01007
G1 X124.179 Y102.744 E0.01007
G1 X124.583 Y102.635 E0.01007
G1 X125.000 Y102.599 E0.01007
G1 X125.417 Y102.635 E0.01007
G1 X125.821 Y102.744 E0.01007
G1 X126.201 Y102.921 E0.01007
G1 X126.483 Y103.118 E0.00829
M204 S1000
G1 X126.907 Y103.014 F10800.000
G1 F8640.000
G1 X126.839 Y103.457 E-0.11345
G1 X127.079 Y103.799 E-0.09664
G1 X127.256 Y104.179 E-0.09664
G1 X127.365 Y104.583 E-0.09664
G1 X127.401 Y105.000 E-0.09664
G1 X127.365 Y105.417 E-0.09664
G1 X127.287 Y105.707 E-0.06945
G1 X127.256 Y105.821 E-0.02719
G1 X127.079 Y106.201 E-0.09664
G1 X126.839 Y106.543 E-0.09664
G1 X126.543 Y106.839 E-0.09664
G1 X126.201 Y107.079 E-0.09664
G1 X125.821 Y107.256 E-0.09664
G1 X125.417 Y107.365 E-0.09664
G1 X125.172 Y107.386 E-0.05682
G1 E-0.07000 F2100.00000
G1 Z0.500 F10800.000
G1 X134.171 Y95.829
G1 Z0.300
G1 E1.40000 F2100.00000
M204 S800
G1 F2613
G1 X134.171 Y114.171 E0.36494
G1 X115.829 Y114.171 E0.36494
G1 X115.829 Y95.829 E0.36494
G1 X134.111 Y95.829 E0.36375
M204 S1000
G1 X134.700 Y95.300 F10800.000
M204 S800
G1 F2100.000
G1 X134.700 Y114.700 E0.46663
G1 X115.300 Y114.700 E0.46663
G1 X115.300 Y95.300 E0.46663
G1 X134.640 Y95.300 E0.46518
M204 S1000
G1 X134.596 Y95.686 F10800.000
G1 F8640.000
G1 X134.658 Y101.060 E-1.33000
G1 E-0.07000 F2100.00000
G1 Z0.500 F10800.000
G1 X116.949 Y95.972
G1 Z0.300
G1 E1.40000 F2100.00000
G1 F2613
G1 X116.187 Y96.734 E0.02163
G1 X116.187 Y97.417 E0.01372
G1 X117.417 Y96.187 E0.03492
G1 X118.100 Y96.187 E0.01372
G1 X116.187 Y98.100 E0.05432
G1 X116.187 Y98.783 E0.01372
G1 X118.783 Y96.187 E0.07372
G1 X119.466 Y96.187 E0.01372
G1 X116.187 Y99.466 E0.09313
G1 X116.187 Y100.149 E0.01372
G1 X120.149 Y96.187 E0.11253
G1 X120.833 Y96.187 E0.01372
G1 X116.187 Y100.833 E0.13193
G1 X116.187 Y101.516 E0.01372
G1 X121.516 Y96.187 E0.15134
G1 X122.199 Y96.187 E0.01372
G1 X116.187 Y102.199 E0.17074
G1 X116.187 Y102.882 E0.01372
G1 X122.882 Y96.187 E0.19014
G1 X123.565 Y96.187 E0.01372
G1 X116.187 Y103.565 E0.20954
G1 X116.187 Y104.248 E0.01372
G1 X124.248 Y96.187 E0.22895
G1 X124.931 Y96.187 E0.01372
G1 X116.187 Y104.931 E0.24835
G1 X116.187 Y105.615 E0.01372
G1 X125.615 Y96.187 E0.26775
G1 X126.298 Y96.187 E0.01372
G1 X116.187 Y106.298 E0.28716
G1 X116.187 Y106.981 E0.01372
G1 X126.981 Y96.187 E0.30656
G1 X127.664 Y96.187 E0.01372
G1 X116.187 Y107.664 E0.32596
G1 X116.187 Y108.347 E0.01372
G1 X128.347 Y96.187 E0.34537
G1 X129.030 Y96.187 E0.01372
G1 X115.972 Y109.246 E0.37089
G1 F8640.000
G1 X120.045 Y105.173 E-1.33000
G1 E-0.07000 F2100.00000
G1 Z0.500 F10800.000
G1 X120.071 Y114.028
G1 Z0.300
G1 E1.40000 F2100.00000
G1 F2613
G1 X125.961 Y108.138 E0.16730
G1 X125.572 Y108.242 E0.00810
G1 X125.136 Y108.280 E0.00879
G1 X119.603 Y113.813 E0.15713
G1 X118.920 Y113.813 E0.01372
G1 X124.486 Y108.247 E0.15808
G1 X123.939 Y108.111 E0.01132
G1 X118.237 Y113.813 E0.16194
G1 X117.554 Y113.813 E0.01372
G1 X123.464 Y107.902 E0.16787
G1 X123.354 Y107.851 E0.00244
G1 X123.047 Y107.636 E0.00753
G1 X116.871 Y113.813 E0.17543
G1 X116.187 Y113.813 E0.01372
G1 X122.681 Y107.319 E0.18443
G1 X122.478 Y107.116 E0.00576
G1 X122.364 Y106.953 E0.00400
G1 X116.187 Y113.129 E0.17543
G1 X116.187 Y112.446 E0.01372
G1 X122.098 Y106.536 E0.16787
G1 X121.889 Y106.061 E0.01041
G1 X116.187 Y111.763 E0.16194
G1 X116.187 Y111.080 E0.01372
G1 X121.753 Y105.514 E0.15808
G1 X121.708 Y105.000 E0.01037
G1 X121.720 Y104.864 E0.00274
