; generated by PrusaSlicer 2.2.0+win64 on 2020-06-08 at 15:48:22 UTC

; 

; external perimeters extrusion width = 0.60mm
; perimeters extrusion width = 0.50mm
; infill extrusion width = 0.50mm
; solid infill extrusion width = 0.50mm
; top infill extrusion width = 0.45mm
; support material extrusion width = 0.38mm
; first layer extrusion width = 0.42mm

M73 P0 R120
M73 Q0 S121
M201 X1000 Y1000 Z1000 E5000 ; sets maximum accelerations, mm/sec^2
M203 X200 Y200 Z12 E120 ; sets maximum feedrates, mm/sec
M204 P1250 R1250 T1250 ; sets acceleration (P, T) and retract acceleration (R), mm/sec^2
M205 X8.00 Y8.00 Z0.40 E4.50 ; sets the jerk limits, mm/sec
M205 S0 T0 ; sets the minimum extruding and travel feed rate, mm/sec
M107
M862.3 P "MK3S" ; printer model check
M862.1 P0.4 ; nozzle diameter check
M115 U3.8.1 ; tell printer latest fw version
G90 ; use absolute coordinates
M83 ; extruder relative mode
M104 S240 ; set extruder temp
M140 S85 ; set bed temp
M190 S85 ; wait for bed temp
M109 S240 ; wait for extruder temp
G28 W ; home all without mesh bed level
G80 ; mesh bed leveling
G1 Y-3.0 F1000.0 ; go outside print area
G92 E0.0
G1 X60.0 E9.0 F1000.0 ; intro line
M73 Q0 S121
M73 P0 R120
G1 X100.0 E12.5 F1000.0 ; intro line
G92 E0.0
M221 S95
G21 ; set units to millimeters
G90 ; use absolute coordinates
M83 ; use relative distances for extrusion
M900 K45 ; Filament gcode
;BEFORE_LAYER_CHANGE
G92 E0.0
;0.2


G1 E-1.40000 F2100.00000
G1 Z0.200 F10800.000
;AFTER_LAYER_CHANGE
;0.2
G1 Z0.400
G1 X140.863 Y66.508
G1 Z0.200
G1 E1.40000 F2100.00000
M204 S1000
G1 F600.000
G1 X145.224 Y66.508 E0.13674
G1 X148.094 Y66.689 E0.09016
G1 X150.498 Y67.518 E0.07974
G1 X152.028 Y68.470 E0.05648
G1 X152.644 Y69.042 E0.02638
G1 X152.898 Y69.082 E0.00807
G1 X154.574 Y69.645 E0.05542
G1 X156.724 Y70.943 E0.07874
G1 X158.569 Y72.849 E0.08319
G1 X159.842 Y75.206 E0.08398
G1 X160.446 Y78.028 E0.09050
G1 X160.394 Y99.990 E0.68858
G1 X159.779 Y102.417 E0.07851
G1 X158.586 Y104.527 E0.07602
G1 X156.959 Y106.177 E0.07262
G1 X158.555 Y107.893 E0.07348
G1 X159.727 Y109.973 E0.07486
G1 X160.377 Y112.410 E0.07908
G1 X160.447 Y129.988 E0.55115
G1 X159.749 Y132.865 E0.09281
G1 X158.263 Y135.313 E0.08980
G1 X156.753 Y136.790 E0.06624
G1 X156.333 Y137.074 E0.01589
G1 X156.063 Y137.463 E0.01485
G1 X155.301 Y138.267 E0.03473
G1 X154.493 Y139.640 E0.04996
G1 X153.303 Y140.938 E0.05520
G1 X150.890 Y142.559 E0.09116
G1 X148.118 Y143.404 E0.09087
G1 X136.487 Y143.492 E0.36468
G1 X135.644 Y143.386 E0.02665
G1 X134.538 Y143.314 E0.03476
G1 X134.231 Y143.245 E0.00985
G1 X133.618 Y143.447 E0.02024
G1 X131.342 Y144.010 E0.07351
G1 X128.818 Y144.428 E0.08022
G1 X126.367 Y144.632 E0.07712
G1 X123.914 Y144.644 E0.07691
G1 X121.398 Y144.454 E0.07911
G1 X118.881 Y144.056 E0.07990
G1 X116.388 Y143.449 E0.08046
G1 X115.761 Y143.242 E0.02068
G1 X115.227 Y143.345 E0.01705
G1 X114.301 Y143.394 E0.02909
G1 X113.526 Y143.492 E0.02447
G1 X102.556 Y143.492 E0.34397
G1 X99.610 Y142.781 E0.09500
G1 X96.892 Y141.108 E0.10009
G1 X95.556 Y139.703 E0.06078
G1 X94.705 Y138.260 E0.05253
G1 X94.003 Y137.539 E0.03154
G1 X93.669 Y137.066 E0.01818
G1 X93.169 Y136.727 E0.01893
G1 X91.766 Y135.358 E0.06146
G1 X90.318 Y133.021 E0.08619
G1 X89.596 Y130.335 E0.08723
G1 X89.564 Y113.043 E0.54215
G1 X89.839 Y111.238 E0.05726
G1 X91.307 Y108.080 E0.10919
G1 X93.069 Y106.150 E0.08196
G1 X92.834 Y105.964 E0.00940
G1 X91.141 Y104.016 E0.08093
G1 X90.081 Y101.857 E0.07539
G1 X89.582 Y99.574 E0.07329
G1 X89.554 Y77.661 E0.68704
G1 X90.299 Y74.686 E0.09618
G1 X91.558 Y72.569 E0.07722
G1 X93.317 Y70.813 E0.07794
G1 X95.826 Y69.432 E0.08978
G1 X96.595 Y69.225 E0.02498
G1 X97.258 Y68.593 E0.02872
G1 X98.871 Y67.552 E0.06019
G1 X101.222 Y66.714 E0.07826
G1 X104.030 Y66.508 E0.08829
G1 X109.049 Y66.508 E0.15736
G1 X109.990 Y65.141 E0.05204
G1 X111.959 Y63.423 E0.08194
G1 X114.723 Y62.167 E0.09519
G1 X116.798 Y61.835 E0.06589
G1 X133.160 Y61.836 E0.51300
G1 X135.911 Y62.415 E0.08816
G1 X138.394 Y63.750 E0.08837
G1 X140.328 Y65.660 E0.08524
G1 X140.831 Y66.457 E0.02955
G1 X140.653 Y66.885 F10800.000
G1 F600.000
G1 X145.218 Y66.885 E0.14314
G1 X148.045 Y67.063 E0.08880
G1 X150.317 Y67.849 E0.07538
G1 X151.812 Y68.780 E0.05523
G1 X152.474 Y69.400 E0.02842
G1 X152.797 Y69.446 E0.01024
G1 X154.398 Y69.979 E0.05292
G1 X156.470 Y71.223 E0.07578
G1 X158.280 Y73.093 E0.08159
G1 X159.497 Y75.361 E0.08070
G1 X160.069 Y78.047 E0.08614
G1 X160.017 Y99.966 E0.68723
G1 X159.438 Y102.253 E0.07399
G1 X158.270 Y104.319 E0.07443
G1 X156.368 Y106.237 E0.08468
G1 X156.772 Y106.529 E0.01566
G1 X158.238 Y108.098 E0.06730
G1 X159.387 Y110.137 E0.07340
G1 X160.000 Y112.436 E0.07458
G1 X160.070 Y129.967 E0.54967
G1 X159.390 Y132.747 E0.08974
G1 X157.954 Y135.096 E0.08633
G1 X156.503 Y136.507 E0.06347
G1 X156.063 Y136.800 E0.01658
G1 X155.778 Y137.215 E0.01576
G1 X154.997 Y138.039 E0.03562
G1 X154.202 Y139.401 E0.04944
G1 X153.040 Y140.667 E0.05387
G1 X150.753 Y142.207 E0.08646
G1 X148.034 Y143.035 E0.08913
G1 X136.498 Y143.115 E0.36173
G1 X135.680 Y143.010 E0.02584
G1 X134.579 Y142.939 E0.03462
G1 X134.215 Y142.853 E0.01171
G1 X133.520 Y143.083 E0.02294
G1 X131.259 Y143.643 E0.07305
G1 X128.764 Y144.054 E0.07928
G1 X126.343 Y144.256 E0.07617
G1 X123.920 Y144.267 E0.07598
G1 X121.434 Y144.078 E0.07816
G1 X118.948 Y143.685 E0.07894
G1 X116.484 Y143.084 E0.07949
G1 X115.786 Y142.853 E0.02308
G1 X115.193 Y142.969 E0.01892
G1 X114.266 Y143.018 E0.02911
G1 X113.514 Y143.115 E0.02378
G1 X102.579 Y143.115 E0.34288
G1 X99.729 Y142.422 E0.09196
G1 X97.149 Y140.830 E0.09505
G1 X95.844 Y139.459 E0.05933
G1 X95.007 Y138.030 E0.05193
G1 X94.284 Y137.288 E0.03250
G1 X93.937 Y136.791 E0.01899
G1 X93.419 Y136.445 E0.01953
G1 X92.046 Y135.104 E0.06017
G1 X90.654 Y132.847 E0.08316
G1 X89.966 Y130.261 E0.08388
G1 X89.939 Y113.084 E0.53858
G1 X90.192 Y111.372 E0.05428
G1 X91.636 Y108.266 E0.10740
G1 X93.308 Y106.448 E0.07745
G1 X93.743 Y106.164 E0.01629
G1 X93.102 Y105.697 E0.02489
G1 X91.468 Y103.827 E0.07786
G1 X90.445 Y101.754 E0.07248
G1 X89.959 Y99.553 E0.07067
G1 X89.931 Y77.685 E0.68566
G1 X90.657 Y74.805 E0.09310
G1 X91.869 Y72.784 E0.07390
G1 X93.564 Y71.099 E0.07492
G1 X95.986 Y69.775 E0.08656
G1 X96.785 Y69.565 E0.02592
G1 X97.478 Y68.899 E0.03012
G1 X99.057 Y67.881 E0.05893
G1 X101.275 Y67.089 E0.07385
G1 X104.037 Y66.885 E0.08684
G1 X109.249 Y66.885 E0.16341
G1 X110.256 Y65.409 E0.05604
G1 X112.186 Y63.725 E0.08030
G1 X114.855 Y62.521 E0.09180
G1 X116.813 Y62.212 E0.06215
G1 X133.140 Y62.213 E0.51193
G1 X135.806 Y62.778 E0.08546
G1 X138.190 Y64.068 E0.08499
G1 X140.047 Y65.912 E0.08203
G1 X140.621 Y66.834 E0.03408
G1 X140.442 Y67.262 F10800.000
G1 F600.000
G1 X145.212 Y67.262 E0.14957
G1 X147.996 Y67.438 E0.08743
G1 X150.136 Y68.180 E0.07102
G1 X151.597 Y69.090 E0.05396
M73 Q0 S120
G1 X152.304 Y69.759 E0.03052
M73 P0 R119
G1 X152.697 Y69.810 E0.01243
G1 X154.223 Y70.313 E0.05039
G1 X156.218 Y71.504 E0.07282
G1 X157.960 Y73.295 E0.07834
G1 X159.152 Y75.515 E0.07902
G1 X159.692 Y78.066 E0.08177
G1 X159.640 Y99.941 E0.68587
G1 X159.079 Y102.135 E0.07100
G1 X157.955 Y104.111 E0.07128
G1 X156.148 Y105.922 E0.08022
G1 X155.674 Y106.214 E0.01746
G1 X156.512 Y106.803 E0.03211
G1 X157.921 Y108.304 E0.06456
G1 X159.029 Y110.259 E0.07047
G1 X159.623 Y112.462 E0.07154
G1 X159.692 Y129.945 E0.54816
G1 X159.031 Y132.627 E0.08664
G1 X157.646 Y134.878 E0.08285
G1 X156.254 Y136.223 E0.06069
G1 X155.793 Y136.526 E0.01730
G1 X155.494 Y136.967 E0.01670
G1 X154.693 Y137.812 E0.03651
G1 X153.910 Y139.161 E0.04891
G1 X152.778 Y140.395 E0.05251
G1 X150.567 Y141.878 E0.08346
G1 X147.952 Y142.666 E0.08565
G1 X136.508 Y142.738 E0.35880
G1 X135.717 Y142.635 E0.02502
G1 X134.620 Y142.564 E0.03446
G1 X134.200 Y142.461 E0.01356
G1 X133.423 Y142.719 E0.02568
G1 X131.176 Y143.275 E0.07258
G1 X128.710 Y143.681 E0.07834
G1 X126.319 Y143.880 E0.07522
G1 X123.926 Y143.889 E0.07504
G1 X121.471 Y143.703 E0.07721
G1 X119.014 Y143.313 E0.07798
G1 X116.581 Y142.720 E0.07852
G1 X115.810 Y142.463 E0.02550
G1 X115.160 Y142.593 E0.02078
G1 X114.232 Y142.643 E0.02913
G1 X113.502 Y142.738 E0.02308
G1 X102.601 Y142.738 E0.34177
G1 X99.847 Y142.063 E0.08891
G1 X97.405 Y140.553 E0.09003
G1 X96.133 Y139.216 E0.05787
G1 X95.310 Y137.801 E0.05132
G1 X94.566 Y137.036 E0.03346
G1 X94.206 Y136.517 E0.01981
G1 X93.670 Y136.162 E0.02015
G1 X92.327 Y134.851 E0.05886
G1 X90.990 Y132.674 E0.08010
G1 X90.337 Y130.189 E0.08054
G1 X90.316 Y113.098 E0.53588
G1 X90.561 Y111.455 E0.05209
G1 X91.965 Y108.453 E0.10392
G1 X93.566 Y106.725 E0.07385
G1 X94.432 Y106.190 E0.03194
G1 X93.370 Y105.431 E0.04094
G1 X91.794 Y103.637 E0.07486
G1 X90.808 Y101.649 E0.06958
G1 X90.336 Y99.532 E0.06802
G1 X90.308 Y77.708 E0.68426
G1 X91.016 Y74.926 E0.09001
G1 X92.179 Y72.999 E0.07057
G1 X93.809 Y71.386 E0.07190
G1 X96.144 Y70.118 E0.08331
G1 X96.975 Y69.906 E0.02689
G1 X97.698 Y69.206 E0.03155
G1 X99.243 Y68.209 E0.05766
G1 X101.328 Y67.463 E0.06944
G1 X104.044 Y67.263 E0.08538
G1 X109.449 Y67.262 E0.16948
G1 X110.522 Y65.677 E0.06003
G1 X112.413 Y64.028 E0.07864
G1 X114.985 Y62.876 E0.08839
G1 X116.827 Y62.590 E0.05844
G1 X133.121 Y62.590 E0.51087
G1 X135.651 Y63.123 E0.08107
G1 X137.986 Y64.387 E0.08326
G1 X139.764 Y66.162 E0.07878
G1 X140.411 Y67.211 E0.03862
G1 X140.230 Y67.639 F10800.000
G1 F600.000
G1 X145.207 Y67.639 E0.15604
G1 X147.946 Y67.813 E0.08607
G1 X149.954 Y68.511 E0.06666
G1 X151.381 Y69.399 E0.05269
G1 X152.135 Y70.119 E0.03267
G1 X152.598 Y70.174 E0.01462
G1 X154.086 Y70.665 E0.04912
G1 X155.965 Y71.784 E0.06858
G1 X157.671 Y73.538 E0.07672
G1 X158.807 Y75.669 E0.07569
G1 X159.315 Y78.085 E0.07743
G1 X159.263 Y99.916 E0.68450
G1 X158.721 Y102.016 E0.06799
G1 X157.641 Y103.901 E0.06813
G1 X155.901 Y105.637 E0.07706
G1 X155.234 Y106.028 E0.02423
G1 X155.234 Y106.369 E0.01069
G1 X156.252 Y107.076 E0.03885
G1 X157.605 Y108.510 E0.06183
G1 X158.672 Y110.381 E0.06753
G1 X159.246 Y112.488 E0.06847
G1 X159.315 Y129.923 E0.54666
G1 X158.694 Y132.456 E0.08176
G1 X157.367 Y134.623 E0.07970
G1 X156.006 Y135.939 E0.05934
G1 X155.523 Y136.251 E0.01803
G1 X155.209 Y136.719 E0.01767
G1 X154.388 Y137.585 E0.03741
G1 X153.618 Y138.922 E0.04837
G1 X152.515 Y140.123 E0.05114
G1 X150.382 Y141.548 E0.08045
G1 X147.870 Y142.297 E0.08218
G1 X136.519 Y142.361 E0.35589
G1 X135.754 Y142.259 E0.02420
G1 X134.663 Y142.189 E0.03430
G1 X134.187 Y142.068 E0.01540
G1 X133.325 Y142.354 E0.02847
G1 X131.092 Y142.907 E0.07211
G1 X128.657 Y143.308 E0.07740
G1 X126.296 Y143.503 E0.07428
G1 X123.932 Y143.512 E0.07411
G1 X121.507 Y143.327 E0.07627
G1 X119.081 Y142.942 E0.07701
G1 X116.678 Y142.355 E0.07755
G1 X115.833 Y142.074 E0.02794
G1 X115.125 Y142.217 E0.02264
G1 X114.197 Y142.267 E0.02916
G1 X113.489 Y142.361 E0.02238
G1 X102.624 Y142.361 E0.34065
G1 X99.967 Y141.704 E0.08584
G1 X97.662 Y140.275 E0.08503
G1 X96.422 Y138.972 E0.05640
G1 X95.613 Y137.572 E0.05071
G1 X94.847 Y136.785 E0.03443
G1 X94.474 Y136.242 E0.02066
G1 X93.920 Y135.879 E0.02077
G1 X92.607 Y134.598 E0.05752
G1 X91.327 Y132.501 E0.07702
G1 X90.708 Y130.118 E0.07720
G1 X90.693 Y113.112 E0.53321
G1 X90.930 Y111.538 E0.04991
G1 X92.261 Y108.687 E0.09865
G1 X93.824 Y107.001 E0.07207
G1 X94.767 Y106.431 E0.03454
G1 X94.766 Y105.962 E0.01471
G1 X93.638 Y105.164 E0.04335
G1 X92.121 Y103.446 E0.07187
G1 X91.170 Y101.544 E0.06666
G1 X90.713 Y99.510 E0.06535
G1 X90.685 Y77.731 E0.68287
G1 X91.353 Y75.097 E0.08520
G1 X92.490 Y73.215 E0.06895
G1 X94.055 Y71.674 E0.06885
G1 X96.301 Y70.461 E0.08006
G1 X97.165 Y70.248 E0.02790
G1 X97.918 Y69.512 E0.03302
G1 X99.430 Y68.538 E0.05638
G1 X101.382 Y67.837 E0.06503
G1 X104.051 Y67.640 E0.08393
G1 X109.651 Y67.639 E0.17557
G1 X110.789 Y65.944 E0.06402
G1 X112.639 Y64.331 E0.07696
G1 X115.115 Y63.230 E0.08496
G1 X116.841 Y62.967 E0.05475
G1 X133.101 Y62.967 E0.50980
G1 X135.546 Y63.486 E0.07836
G1 X137.781 Y64.705 E0.07984
G1 X139.481 Y66.412 E0.07553
G1 X140.199 Y67.588 E0.04319
G1 X140.017 Y68.016 F10800.000
G1 F600.000
G1 X145.201 Y68.016 E0.16253
G1 X147.896 Y68.187 E0.08470
G1 X149.772 Y68.842 E0.06230
G1 X151.164 Y69.709 E0.05141
G1 X151.966 Y70.480 E0.03488
G1 X152.499 Y70.539 E0.01681
G1 X153.948 Y71.017 E0.04784
G1 X155.713 Y72.066 E0.06437
G1 X157.351 Y73.740 E0.07344
G1 X158.461 Y75.822 E0.07400
G1 X158.938 Y78.104 E0.07308
G1 X158.886 Y99.891 E0.68313
G1 X158.363 Y101.895 E0.06495
G1 X157.327 Y103.690 E0.06497
G1 X155.653 Y105.351 E0.07393
G1 X154.857 Y105.809 E0.02880
G1 X154.857 Y106.567 E0.02379
G1 X155.992 Y107.350 E0.04323
G1 X157.290 Y108.718 E0.05911
G1 X158.315 Y110.505 E0.06460
G1 X158.869 Y112.515 E0.06538
G1 X158.938 Y129.901 E0.54513
M73 Q1 S119
M73 P1 R118
G1 X158.335 Y132.336 E0.07865
G1 X157.059 Y134.404 E0.07621
G1 X155.759 Y135.653 E0.05652
G1 X155.253 Y135.976 E0.01882
G1 X154.924 Y136.472 E0.01866
G1 X154.083 Y137.359 E0.03831
G1 X153.326 Y138.682 E0.04782
G1 X152.253 Y139.852 E0.04975
G1 X150.197 Y141.218 E0.07741
G1 X147.789 Y141.928 E0.07870
G1 X136.531 Y141.984 E0.35300
G1 X135.792 Y141.884 E0.02338
G1 X134.706 Y141.814 E0.03413
G1 X134.174 Y141.674 E0.01722
G1 X133.227 Y141.990 E0.03131
G1 X131.009 Y142.539 E0.07164
G1 X128.603 Y142.934 E0.07645
G1 X126.272 Y143.127 E0.07333
G1 X123.938 Y143.135 E0.07317
G1 X121.543 Y142.952 E0.07532
G1 X119.148 Y142.571 E0.07605
G1 X116.776 Y141.991 E0.07657
G1 X115.856 Y141.684 E0.03039
G1 X115.091 Y141.841 E0.02450
G1 X114.161 Y141.891 E0.02919
G1 X113.476 Y141.984 E0.02167
G1 X102.648 Y141.984 E0.33952
G1 X100.087 Y141.345 E0.08275
G1 X97.918 Y139.998 E0.08004
G1 X96.711 Y138.729 E0.05493
G1 X95.917 Y137.343 E0.05008
G1 X95.129 Y136.534 E0.03540
G1 X94.743 Y135.966 E0.02154
G1 X94.169 Y135.596 E0.02142
G1 X92.888 Y134.345 E0.05616
G1 X91.664 Y132.330 E0.07391
G1 X91.079 Y130.048 E0.07387
G1 X91.070 Y113.126 E0.53056
G1 X91.299 Y111.621 E0.04773
G1 X92.558 Y108.922 E0.09339
G1 X94.081 Y107.278 E0.07028
G1 X95.144 Y106.647 E0.03875
G1 X95.143 Y105.766 E0.02763
G1 X93.904 Y104.897 E0.04744
G1 X92.446 Y103.254 E0.06888
G1 X91.533 Y101.437 E0.06375
G1 X91.091 Y99.488 E0.06266
G1 X91.062 Y77.754 E0.68146
G1 X91.711 Y75.218 E0.08209
G1 X92.799 Y73.431 E0.06559
G1 X94.299 Y71.963 E0.06581
G1 X96.457 Y70.805 E0.07678
G1 X97.355 Y70.591 E0.02893
G1 X98.139 Y69.819 E0.03453
G1 X99.616 Y68.866 E0.05509
G1 X101.435 Y68.211 E0.06062
G1 X104.058 Y68.017 E0.08246
G1 X109.853 Y68.016 E0.18169
G1 X111.056 Y66.212 E0.06800
G1 X112.865 Y64.634 E0.07526
G1 X115.244 Y63.586 E0.08150
G1 X116.855 Y63.344 E0.05109
G1 X133.081 Y63.344 E0.50876
G1 X135.389 Y63.830 E0.07395
G1 X137.576 Y65.022 E0.07810
G1 X139.197 Y66.661 E0.07225
G1 X139.986 Y67.965 E0.04779
G1 X139.803 Y68.393 F10800.000
G1 F600.000
G1 X145.194 Y68.393 E0.16904
G1 X147.847 Y68.562 E0.08332
G1 X149.591 Y69.173 E0.05795
G1 X150.948 Y70.018 E0.05012
G1 X151.798 Y70.843 E0.03714
G1 X152.401 Y70.904 E0.01901
G1 X153.811 Y71.368 E0.04652
G1 X155.460 Y72.347 E0.06015
G1 X157.062 Y73.984 E0.07180
G1 X158.115 Y75.975 E0.07061
G1 X158.561 Y78.122 E0.06877
G1 X158.509 Y99.866 E0.68176
G1 X158.005 Y101.774 E0.06189
G1 X157.014 Y103.479 E0.06182
G1 X155.407 Y105.064 E0.07078
G1 X154.480 Y105.587 E0.03338
G1 X154.480 Y106.767 E0.03697
G1 X155.733 Y107.625 E0.04763
G1 X156.975 Y108.926 E0.05639
G1 X157.958 Y110.630 E0.06168
G1 X158.492 Y112.542 E0.06226
G1 X158.561 Y129.879 E0.54358
G1 X157.977 Y132.216 E0.07553
G1 X156.780 Y134.149 E0.07127
G1 X155.512 Y135.367 E0.05515
G1 X154.982 Y135.700 E0.01961
G1 X154.638 Y136.225 E0.01968
G1 X153.778 Y137.133 E0.03921
G1 X153.033 Y138.443 E0.04726
G1 X151.991 Y139.580 E0.04834
G1 X150.013 Y140.888 E0.07436
G1 X147.709 Y141.558 E0.07522
G1 X136.543 Y141.607 E0.35012
G1 X135.830 Y141.508 E0.02256
G1 X134.749 Y141.439 E0.03396
G1 X134.163 Y141.280 E0.01903
G1 X133.129 Y141.626 E0.03420
G1 X130.926 Y142.171 E0.07116
G1 X128.549 Y142.561 E0.07551
G1 X126.249 Y142.750 E0.07238
G1 X123.945 Y142.758 E0.07224
G1 X121.580 Y142.577 E0.07437
G1 X119.215 Y142.200 E0.07508
G1 X116.873 Y141.627 E0.07560
G1 X115.879 Y141.294 E0.03287
G1 X115.056 Y141.466 E0.02635
G1 X114.125 Y141.515 E0.02924
