; generated by PrusaSlicer 2.2.0+win64 on 2021-12-31 at 01:00:20 UTC

; 

; external perimeters extrusion width = 0.60mm
; perimeters extrusion width = 0.50mm
; infill extrusion width = 0.50mm
; solid infill extrusion width = 0.50mm
; top infill extrusion width = 0.45mm
; first layer extrusion width = 0.42mm

M73 P0 R38
M73 Q0 S38
M201 X1000 Y1000 Z1000 E5000 ; sets maximum accelerations, mm/sec^2
M203 X200 Y200 Z12 E120 ; sets maximum feedrates, mm/sec
M204 P1250 R1250 T1250 ; sets acceleration (P, T) and retract acceleration (R), mm/sec^2
M205 X8.00 Y8.00 Z0.40 E4.50 ; sets the jerk limits, mm/sec
M205 S0 T0 ; sets the minimum extruding and travel feed rate, mm/sec
M107
M862.3 P "MK3S" ; printer model check
M862.1 P0.4 ; nozzle diameter check
M115 U3.8.1 ; tell printer latest fw version
G90 ; use absolute coordinates
M83 ; extruder relative mode
M104 S240 ; set extruder temp
M140 S85 ; set bed temp
M190 S85 ; wait for bed temp
M109 S240 ; wait for extruder temp
G28 W ; home all without mesh bed level
G80 ; mesh bed leveling
G1 Y-3.0 F1000.0 ; go outside print area
G92 E0.0
G1 X60.0 E9.0 F1000.0 ; intro line
M73 Q0 S38
M73 P0 R38
G1 X100.0 E12.5 F1000.0 ; intro line
G92 E0.0
M221 S95
G21 ; set units to millimeters
G90 ; use absolute coordinates
M83 ; use relative distances for extrusion
M900 K45 ; Filament gcode
;BEFORE_LAYER_CHANGE
G92 E0.0
;0.2


G1 E-1.40000 F2100.00000
G1 Z0.200 F10800.000
;AFTER_LAYER_CHANGE
;0.2
G1 Z0.400
G1 X117.213 Y78.113
G1 Z0.200
G1 E1.40000 F2100.00000
M204 S1000
G1 F600.000
G1 X136.787 Y78.113 E0.61373
G1 X136.787 Y82.687 E0.14342
G1 X117.213 Y82.687 E0.61373
G1 X117.213 Y78.173 E0.14154
G1 X117.590 Y78.490 F10800.000
G1 F600.000
G1 X136.410 Y78.490 E0.59009
G1 X136.410 Y82.310 E0.11977
G1 X117.590 Y82.310 E0.59009
G1 X117.590 Y78.550 E0.11789
G1 X117.414 Y78.131 F10800.000
G1 F8640.000
G1 X123.350 Y78.532 E-1.33000
G1 E-0.07000 F2100.00000
G1 Z0.400 F10800.000
G1 X118.894 Y69.455
G1 Z0.200
G1 E1.40000 F2100.00000
G1 F600.000
G1 X118.500 Y69.349 E0.01279
G1 X118.130 Y69.177 E0.01279
G1 X117.796 Y68.943 E0.01279
G1 X117.507 Y68.654 E0.01279
G1 X117.273 Y68.320 E0.01279
G1 X117.101 Y67.950 E0.01279
G1 X116.995 Y67.556 E0.01279
G1 X116.960 Y67.150 E0.01279
G1 X116.995 Y66.744 E0.01279
G1 X117.101 Y66.350 E0.01279
G1 X117.273 Y65.980 E0.01279
G1 X117.507 Y65.646 E0.01279
G1 X117.796 Y65.357 E0.01279
G1 X118.130 Y65.123 E0.01279
G1 X118.500 Y64.951 E0.01279
G1 X118.894 Y64.845 E0.01279
G1 X119.270 Y64.813 E0.01183
G1 X119.702 Y64.844 E0.01361
G1 X120.100 Y64.951 E0.01292
G1 X120.470 Y65.123 E0.01279
G1 X120.804 Y65.357 E0.01279
G1 X121.093 Y65.646 E0.01279
G1 X121.327 Y65.980 E0.01279
G1 X121.486 Y66.322 E0.01183
G1 X121.604 Y66.740 E0.01361
G1 X121.640 Y67.150 E0.01292
G1 X121.605 Y67.556 E0.01279
G1 X121.507 Y67.921 E0.01183
G1 X121.329 Y68.317 E0.01361
G1 X121.093 Y68.654 E0.01292
G1 X120.804 Y68.943 E0.01279
G1 X120.470 Y69.177 E0.01279
G1 X120.100 Y69.349 E0.01279
G1 X119.706 Y69.455 E0.01279
G1 X119.300 Y69.490 E0.01279
G1 X118.953 Y69.460 E0.01091
G1 X118.986 Y69.084 F10800.000
G1 F600.000
G1 X118.629 Y68.993 E0.01156
G1 X118.319 Y68.849 E0.01072
G1 X118.039 Y68.653 E0.01072
G1 X117.797 Y68.411 E0.01072
G1 X117.601 Y68.131 E0.01072
G1 X117.457 Y67.821 E0.01072
G1 X117.368 Y67.491 E0.01072
G1 X117.338 Y67.150 E0.01072
G1 X117.368 Y66.809 E0.01072
G1 X117.457 Y66.479 E0.01072
G1 X117.601 Y66.169 E0.01072
G1 X117.797 Y65.889 E0.01072
G1 X118.039 Y65.647 E0.01072
G1 X118.319 Y65.451 E0.01072
G1 X118.629 Y65.307 E0.01072
G1 X118.959 Y65.218 E0.01072
G1 X119.272 Y65.191 E0.00984
G1 X119.639 Y65.218 E0.01154
G1 X119.971 Y65.307 E0.01077
G1 X120.281 Y65.451 E0.01072
G1 X120.561 Y65.647 E0.01072
G1 X120.803 Y65.889 E0.01072
G1 X120.999 Y66.169 E0.01072
G1 X121.131 Y66.454 E0.00984
G1 X121.232 Y66.808 E0.01154
G1 X121.262 Y67.150 E0.01077
G1 X121.232 Y67.491 E0.01072
G1 X121.151 Y67.794 E0.00984
G1 X121.000 Y68.130 E0.01154
G1 X120.803 Y68.411 E0.01077
G1 X120.561 Y68.653 E0.01072
G1 X120.281 Y68.849 E0.01072
G1 X119.971 Y68.993 E0.01072
G1 X119.641 Y69.082 E0.01072
G1 X119.300 Y69.112 E0.01072
G1 X119.046 Y69.089 E0.00799
G1 X118.752 Y69.369 F10800.000
G1 F8640.000
G1 X118.629 Y68.993 E-0.09880
G1 X118.319 Y68.849 E-0.07895
G1 X118.039 Y68.653 E-0.07895
G1 X117.797 Y68.411 E-0.07895
G1 X117.601 Y68.131 E-0.07895
G1 X117.457 Y67.821 E-0.07895
G1 X117.368 Y67.491 E-0.07895
G1 X117.338 Y67.150 E-0.07895
G1 X117.368 Y66.809 E-0.07895
G1 X117.457 Y66.479 E-0.07895
G1 X117.601 Y66.169 E-0.07895
G1 X117.797 Y65.889 E-0.07895
G1 X118.039 Y65.647 E-0.07895
G1 X118.319 Y65.451 E-0.07895
G1 X118.629 Y65.307 E-0.07895
G1 X118.959 Y65.218 E-0.07895
G1 X119.162 Y65.201 E-0.04694
G1 E-0.07000 F2100.00000
G1 Z0.400 F10800.000
G1 X132.395 Y67.556
G1 Z0.200
G1 E1.40000 F2100.00000
G1 F600.000
G1 X132.360 Y67.150 E0.01279
G1 X132.395 Y66.744 E0.01279
G1 X132.501 Y66.350 E0.01279
G1 X132.673 Y65.980 E0.01279
G1 X132.907 Y65.646 E0.01279
G1 X133.196 Y65.357 E0.01279
G1 X133.530 Y65.123 E0.01279
G1 X133.900 Y64.951 E0.01279
G1 X134.294 Y64.845 E0.01279
G1 X134.670 Y64.813 E0.01183
G1 X135.102 Y64.844 E0.01361
G1 X135.500 Y64.951 E0.01292
G1 X135.870 Y65.123 E0.01279
G1 X136.204 Y65.357 E0.01279
G1 X136.493 Y65.646 E0.01279
G1 X136.727 Y65.980 E0.01279
G1 X136.899 Y66.350 E0.01279
G1 X137.005 Y66.744 E0.01279
G1 X137.040 Y67.150 E0.01279
G1 X137.005 Y67.556 E0.01279
G1 X136.899 Y67.950 E0.01279
G1 X136.727 Y68.320 E0.01279
G1 X136.493 Y68.654 E0.01279
G1 X136.204 Y68.943 E0.01279
G1 X135.870 Y69.177 E0.01279
G1 X135.500 Y69.349 E0.01279
G1 X135.106 Y69.455 E0.01279
G1 X134.700 Y69.490 E0.01279
G1 X134.294 Y69.455 E0.01279
G1 X133.900 Y69.349 E0.01279
G1 X133.530 Y69.177 E0.01279
G1 X133.196 Y68.943 E0.01279
G1 X132.907 Y68.654 E0.01279
G1 X132.673 Y68.320 E0.01279
G1 X132.501 Y67.950 E0.01279
G1 X132.411 Y67.614 E0.01091
G1 X132.775 Y67.517 F10800.000
G1 F600.000
G1 X132.738 Y67.150 E0.01156
G1 X132.768 Y66.809 E0.01072
G1 X132.857 Y66.479 E0.01072
G1 X133.001 Y66.169 E0.01072
G1 X133.197 Y65.889 E0.01072
G1 X133.439 Y65.647 E0.01072
G1 X133.719 Y65.451 E0.01072
G1 X134.029 Y65.307 E0.01072
G1 X134.359 Y65.218 E0.01072
G1 X134.672 Y65.191 E0.00984
G1 X135.039 Y65.218 E0.01154
G1 X135.371 Y65.307 E0.01077
G1 X135.681 Y65.451 E0.01072
G1 X135.961 Y65.647 E0.01072
G1 X136.203 Y65.889 E0.01072
G1 X136.399 Y66.169 E0.01072
G1 X136.543 Y66.479 E0.01072
G1 X136.632 Y66.809 E0.01072
G1 X136.662 Y67.150 E0.01072
G1 X136.632 Y67.491 E0.01072
G1 X136.543 Y67.821 E0.01072
G1 X136.399 Y68.131 E0.01072
G1 X136.203 Y68.411 E0.01072
G1 X135.961 Y68.653 E0.01072
G1 X135.681 Y68.849 E0.01072
G1 X135.371 Y68.993 E0.01072
G1 X135.041 Y69.082 E0.01072
G1 X134.700 Y69.112 E0.01072
G1 X134.359 Y69.082 E0.01072
G1 X134.029 Y68.993 E0.01072
G1 X133.719 Y68.849 E0.01072
G1 X133.439 Y68.653 E0.01072
G1 X133.197 Y68.411 E0.01072
G1 X133.001 Y68.131 E0.01072
G1 X132.857 Y67.821 E0.01072
G1 X132.791 Y67.575 E0.00799
G1 X132.428 Y67.394 F10800.000
G1 F8640.000
G1 X132.738 Y67.150 E-0.09880
G1 X132.768 Y66.809 E-0.07895
G1 X132.857 Y66.479 E-0.07895
G1 X133.001 Y66.169 E-0.07895
G1 X133.197 Y65.889 E-0.07895
G1 X133.439 Y65.647 E-0.07895
G1 X133.719 Y65.451 E-0.07895
G1 X134.029 Y65.307 E-0.07895
G1 X134.359 Y65.218 E-0.07895
G1 X134.672 Y65.191 E-0.07249
G1 X135.039 Y65.218 E-0.08499
G1 X135.371 Y65.307 E-0.07929
G1 X135.681 Y65.451 E-0.07895
G1 X135.961 Y65.647 E-0.07895
G1 X136.203 Y65.889 E-0.07895
G1 X136.399 Y66.169 E-0.07895
G1 X136.485 Y66.354 E-0.04702
G1 E-0.07000 F2100.00000
G1 Z0.400 F10800.000
G1 X112.820 Y83.963
G1 Z0.200
G1 E1.40000 F2100.00000
G1 F600.000
G1 X112.830 Y138.024 E1.69505
G1 X112.796 Y138.311 E0.00906
G1 X112.957 Y138.798 E0.01609
G1 X113.241 Y139.140 E0.01394
G1 X113.578 Y139.351 E0.01246
G1 X114.080 Y139.475 E0.01621
G1 X114.315 Y139.423 E0.00756
G1 X142.820 Y139.430 E0.89376
G1 X142.820 Y145.070 E0.17684
G1 X107.180 Y145.070 E1.11747
G1 X107.169 Y63.537 E2.55641
G1 X138.213 Y63.537 E0.97338
G1 X138.213 Y83.963 E0.64044
G1 X112.880 Y83.963 E0.79430
G1 X113.197 Y84.340 F10800.000
G1 F600.000
G1 X113.207 Y138.047 E1.68393
G1 X113.180 Y138.272 E0.00713
G1 X113.293 Y138.612 E0.01123
G1 X113.493 Y138.853 E0.00981
G1 X113.727 Y139.000 E0.00866
G1 X114.084 Y139.088 E0.01153
G1 X114.273 Y139.046 E0.00609
G1 X143.197 Y139.053 E0.90688
G1 X143.197 Y145.447 E0.20049
G1 X107.018 Y145.447 E1.13437
M73 Q2 S37
M73 P2 R37
G1 X106.912 Y145.420 E0.00341
G1 X106.830 Y145.338 E0.00368
G1 X106.803 Y145.232 E0.00341
G1 X106.791 Y63.187 E2.57246
G1 X107.017 Y63.160 E0.00713
G1 X138.590 Y63.160 E0.98995
G1 X138.590 Y84.340 E0.66408
G1 X113.257 Y84.340 E0.79430
G1 X112.808 Y84.432 F10800.000
G1 F8640.000
G1 X113.252 Y90.100 E-1.33000
G1 E-0.07000 F2100.00000
G1 Z0.400 F10800.000
G1 X117.468 Y83.850
G1 Z0.200
G1 E1.40000 F2100.00000
G1 F600.000
G1 X107.453 Y73.834 E0.44491
G1 X107.453 Y74.369 E0.01678
G1 X116.764 Y83.680 E0.41363
G1 X116.230 Y83.680 E0.01678
G1 X107.453 Y74.903 E0.38990
G1 X107.453 Y75.437 E0.01678
G1 X115.696 Y83.680 E0.36617
G1 X115.162 Y83.680 E0.01678
G1 X107.453 Y75.971 E0.34243
G1 X107.453 Y76.506 E0.01678
G1 X114.627 Y83.680 E0.31870
G1 X114.093 Y83.680 E0.01678
G1 X107.453 Y77.040 E0.29496
G1 X107.453 Y77.574 E0.01678
G1 X113.559 Y83.680 E0.27123
G1 X113.025 Y83.680 E0.01678
G1 X107.453 Y78.109 E0.24749
G1 X107.453 Y78.643 E0.01678
G1 X112.537 Y83.727 E0.22582
G1 X112.537 Y84.261 E0.01678
G1 X107.454 Y79.177 E0.22582
G1 X107.454 Y79.712 E0.01678
G1 X112.537 Y84.795 E0.22583
G1 X112.537 Y85.330 E0.01678
G1 X107.454 Y80.246 E0.22583
G1 X107.454 Y80.780 E0.01678
G1 X112.537 Y85.864 E0.22583
G1 X112.538 Y86.398 E0.01678
G1 X107.454 Y81.315 E0.22583
G1 X107.454 Y81.849 E0.01678
G1 X112.538 Y86.933 E0.22583
G1 X112.538 Y87.467 E0.01678
G1 X107.454 Y82.383 E0.22583
G1 X107.454 Y82.917 E0.01678
G1 X112.538 Y88.001 E0.22583
G1 X112.538 Y88.536 E0.01678
G1 X107.454 Y83.452 E0.22583
G1 X107.454 Y83.986 E0.01678
G1 X112.538 Y89.070 E0.22584
G1 X112.538 Y89.604 E0.01678
G1 X107.454 Y84.520 E0.22584
G1 X107.454 Y85.055 E0.01678
G1 X112.538 Y90.139 E0.22584
G1 X112.538 Y90.673 E0.01678
G1 X107.454 Y85.589 E0.22584
G1 X107.454 Y86.123 E0.01678
G1 X112.539 Y91.207 E0.22584
G1 X112.539 Y91.742 E0.01678
G1 X107.455 Y86.658 E0.22584
G1 X107.455 Y87.192 E0.01678
G1 X112.539 Y92.276 E0.22584
G1 X112.539 Y92.810 E0.01678
G1 X107.455 Y87.726 E0.22584
G1 X107.455 Y88.261 E0.01678
G1 X112.539 Y93.345 E0.22585
G1 X112.539 Y93.879 E0.01678
G1 X107.455 Y88.795 E0.22585
G1 X107.455 Y89.329 E0.01678
G1 X112.539 Y94.413 E0.22585
G1 X112.539 Y94.948 E0.01678
G1 X107.455 Y89.863 E0.22585
G1 X107.455 Y90.398 E0.01678
G1 X112.539 Y95.482 E0.22585
G1 X112.539 Y96.016 E0.01678
G1 X107.455 Y90.932 E0.22585
G1 X107.455 Y91.466 E0.01678
G1 X112.540 Y96.551 E0.22585
G1 X112.540 Y97.085 E0.01678
G1 X107.455 Y92.001 E0.22585
G1 X107.455 Y92.535 E0.01678
G1 X112.540 Y97.619 E0.22586
G1 X112.540 Y98.154 E0.01678
G1 X107.455 Y93.069 E0.22586
G1 X107.456 Y93.604 E0.01678
G1 X112.540 Y98.688 E0.22586
G1 X112.540 Y99.222 E0.01678
G1 X107.456 Y94.138 E0.22586
G1 X107.456 Y94.672 E0.01678
G1 X112.540 Y99.757 E0.22586
G1 X112.540 Y100.291 E0.01678
G1 X107.456 Y95.207 E0.22586
G1 X107.456 Y95.741 E0.01678
G1 X112.540 Y100.825 E0.22586
G1 X112.540 Y101.360 E0.01678
G1 X107.456 Y96.275 E0.22586
G1 X107.456 Y96.809 E0.01678
G1 X112.541 Y101.894 E0.22587
G1 X112.541 Y102.428 E0.01678
G1 X107.456 Y97.344 E0.22587
G1 X107.456 Y97.878 E0.01678
G1 X112.541 Y102.963 E0.22587
G1 X112.541 Y103.497 E0.01678
G1 X107.456 Y98.412 E0.22587
G1 X107.456 Y98.947 E0.01678
G1 X112.541 Y104.031 E0.22587
G1 X112.541 Y104.566 E0.01678
G1 X107.456 Y99.481 E0.22587
G1 X107.456 Y100.015 E0.01678
G1 X112.541 Y105.100 E0.22587
G1 X112.541 Y105.634 E0.01678
G1 X107.457 Y100.550 E0.22587
G1 X107.457 Y101.084 E0.01678
G1 X112.541 Y106.169 E0.22588
M73 Q5 S36
M73 P5 R36
G1 X112.541 Y106.703 E0.01678
G1 X107.457 Y101.618 E0.22588
G1 X107.457 Y102.153 E0.01678
G1 X112.542 Y107.237 E0.22588
G1 X112.542 Y107.772 E0.01678
G1 X107.457 Y102.687 E0.22588
G1 X107.457 Y103.221 E0.01678
G1 X112.542 Y108.306 E0.22588
G1 X112.542 Y108.840 E0.01678
G1 X107.457 Y103.755 E0.22588
G1 X107.457 Y104.290 E0.01678
G1 X112.542 Y109.375 E0.22588
G1 X112.542 Y109.909 E0.01678
G1 X107.457 Y104.824 E0.22588
G1 X107.457 Y105.358 E0.01678
G1 X112.542 Y110.443 E0.22589
G1 X112.542 Y110.978 E0.01678
G1 X107.457 Y105.893 E0.22589
G1 X107.457 Y106.427 E0.01678
G1 X112.542 Y111.512 E0.22589
G1 X112.543 Y112.046 E0.01678
G1 X107.457 Y106.961 E0.22589
G1 X107.457 Y107.496 E0.01678
G1 X112.543 Y112.581 E0.22589
G1 X112.543 Y113.115 E0.01678
G1 X107.458 Y108.030 E0.22589
G1 X107.458 Y108.564 E0.01678
G1 X112.543 Y113.649 E0.22589
G1 X112.543 Y114.184 E0.01678
G1 X107.458 Y109.098 E0.22589
G1 X107.458 Y109.633 E0.01678
G1 X112.543 Y114.718 E0.22590
G1 X112.543 Y115.252 E0.01678
G1 X107.458 Y110.167 E0.22590
G1 X107.458 Y110.701 E0.01678
G1 X112.543 Y115.787 E0.22590
G1 X112.543 Y116.321 E0.01678
G1 X107.458 Y111.236 E0.22590
G1 X107.458 Y111.770 E0.01678
G1 X112.543 Y116.855 E0.22590
G1 X112.544 Y117.390 E0.01678
G1 X107.458 Y112.304 E0.22590
G1 X107.458 Y112.839 E0.01678
G1 X112.544 Y117.924 E0.22590
G1 X112.544 Y118.458 E0.01678
G1 X107.458 Y113.373 E0.22590
G1 X107.458 Y113.907 E0.01678
G1 X112.544 Y118.993 E0.22591
G1 X112.544 Y119.527 E0.01678
G1 X107.458 Y114.442 E0.22591
G1 X107.459 Y114.976 E0.01678
G1 X112.544 Y120.061 E0.22591
G1 X112.544 Y120.596 E0.01678
G1 X107.459 Y115.510 E0.22591
G1 X107.459 Y116.044 E0.01678
G1 X112.544 Y121.130 E0.22591
G1 X112.544 Y121.664 E0.01678
G1 X107.459 Y116.579 E0.22591
G1 X107.459 Y117.113 E0.01678
G1 X112.544 Y122.199 E0.22591
G1 X112.545 Y122.733 E0.01678
G1 X107.459 Y117.647 E0.22591
G1 X107.459 Y118.182 E0.01678
G1 X112.545 Y123.267 E0.22592
G1 X112.545 Y123.802 E0.01678
G1 X107.459 Y118.716 E0.22592
G1 X107.459 Y119.250 E0.01678
G1 X112.545 Y124.336 E0.22592
G1 X112.545 Y124.870 E0.01678
G1 X107.459 Y119.785 E0.22592
G1 X107.459 Y120.319 E0.01678
G1 X112.545 Y125.405 E0.22592
G1 X112.545 Y125.939 E0.01678
G1 X107.459 Y120.853 E0.22592
G1 X107.459 Y121.388 E0.01678
G1 X112.545 Y126.473 E0.22592
G1 X112.545 Y127.008 E0.01678
G1 X107.460 Y121.922 E0.22592
G1 X107.460 Y122.456 E0.01678
G1 X112.546 Y127.542 E0.22593
G1 X112.546 Y128.076 E0.01678
G1 X107.460 Y122.990 E0.22593
G1 X107.460 Y123.525 E0.01678
G1 X112.546 Y128.611 E0.22593
G1 X112.546 Y129.145 E0.01678
G1 X107.460 Y124.059 E0.22593
G1 X107.460 Y124.593 E0.01678
G1 X112.546 Y129.679 E0.22593
G1 X112.546 Y130.214 E0.01678
G1 X107.460 Y125.128 E0.22593
G1 X107.460 Y125.662 E0.01678
G1 X112.546 Y130.748 E0.22593
G1 X112.546 Y131.282 E0.01678
G1 X107.460 Y126.196 E0.22593
G1 X107.460 Y126.731 E0.01678
G1 X112.546 Y131.817 E0.22594
G1 X112.546 Y132.351 E0.01678
G1 X107.460 Y127.265 E0.22594
G1 X107.460 Y127.799 E0.01678
G1 X112.547 Y132.885 E0.22594
G1 X112.547 Y133.420 E0.01678
G1 X107.460 Y128.334 E0.22594
G1 X107.460 Y128.868 E0.01678
G1 X112.547 Y133.954 E0.22594
G1 X112.547 Y134.488 E0.01678
G1 X107.461 Y129.402 E0.22594
G1 X107.461 Y129.936 E0.01678
G1 X112.547 Y135.023 E0.22594
G1 X112.547 Y135.557 E0.01678
G1 X107.461 Y130.471 E0.22594
G1 X107.461 Y131.005 E0.01678
G1 X112.547 Y136.091 E0.22595
G1 X112.547 Y136.626 E0.01678
G1 X107.461 Y131.539 E0.22595
G1 X107.461 Y132.074 E0.01678
G1 X112.547 Y137.160 E0.22595
G1 X112.547 Y137.694 E0.01678
G1 X107.461 Y132.608 E0.22595
G1 X107.461 Y133.142 E0.01678
G1 X112.700 Y138.381 E0.23273
G1 F8640.000
G1 X108.627 Y134.308 E-1.33000
G1 E-0.07000 F2100.00000
G1 Z0.400 F10800.000
G1 X107.293 Y144.193
G1 Z0.200
G1 E1.40000 F2100.00000
G1 F600.000
G1 X107.887 Y144.787 E0.02639
G1 X108.421 Y144.787 E0.01678
G1 X107.463 Y143.828 E0.04259
G1 X107.463 Y143.294 E0.01678
G1 X108.956 Y144.787 E0.06632
G1 X109.490 Y144.787 E0.01678
G1 X107.462 Y142.760 E0.09006
G1 X107.462 Y142.226 E0.01678
G1 X110.024 Y144.787 E0.11379
G1 X110.558 Y144.787 E0.01678
G1 X107.462 Y141.691 E0.13753
G1 X107.462 Y141.157 E0.01678
G1 X111.093 Y144.787 E0.16126
G1 X111.627 Y144.787 E0.01678
