; generated by PrusaSlicer 2.2.0+win64 on 2022-11-13 at 05:35:29 UTC

; 

; external perimeters extrusion width = 0.60mm
; perimeters extrusion width = 0.50mm
; infill extrusion width = 0.50mm
; solid infill extrusion width = 0.50mm
; top infill extrusion width = 0.45mm
; support material extrusion width = 0.38mm
; first layer extrusion width = 0.42mm

M73 P0 R21
M73 Q0 S21
M201 X1000 Y1000 Z1000 E5000 ; sets maximum accelerations, mm/sec^2
M203 X200 Y200 Z12 E120 ; sets maximum feedrates, mm/sec
M204 P1250 R1250 T1250 ; sets acceleration (P, T) and retract acceleration (R), mm/sec^2
M205 X8.00 Y8.00 Z0.40 E4.50 ; sets the jerk limits, mm/sec
M205 S0 T0 ; sets the minimum extruding and travel feed rate, mm/sec
M107
M862.3 P "MK3S" ; printer model check
M862.1 P0.4 ; nozzle diameter check
M115 U3.8.1 ; tell printer latest fw version
G90 ; use absolute coordinates
M83 ; extruder relative mode
M104 S240 ; set extruder temp
M140 S85 ; set bed temp
M190 S85 ; wait for bed temp
M109 S240 ; wait for extruder temp
G28 W ; home all without mesh bed level
G80 ; mesh bed leveling
G1 Y-3.0 F1000.0 ; go outside print area
G92 E0.0
G1 X60.0 E9.0 F1000.0 ; intro line
M73 Q0 S21
M73 P0 R21
G1 X100.0 E12.5 F1000.0 ; intro line
G92 E0.0
M221 S95
G21 ; set units to millimeters
G90 ; use absolute coordinates
M83 ; use relative distances for extrusion
M900 K45 ; Filament gcode
;BEFORE_LAYER_CHANGE
G92 E0.0
;0.2


G1 E-1.40000 F2100.00000
G1 Z0.200 F10800.000
;AFTER_LAYER_CHANGE
;0.2
G1 Z0.400
G1 X110.671 Y115.161
G1 Z0.200
G1 E1.40000 F2100.00000
M204 S1000
G1 F600.000
G1 X110.671 Y95.009 E0.63185
G1 X111.425 Y95.009 E0.02365
G1 X111.425 Y114.991 E0.62653
G1 X112.179 Y114.991 E0.02365
G1 X112.179 Y95.009 E0.62653
G1 X112.933 Y95.009 E0.02365
G1 X112.933 Y114.991 E0.62653
G1 X113.688 Y114.991 E0.02365
G1 X113.688 Y95.009 E0.62653
G1 X114.442 Y95.009 E0.02365
G1 X114.442 Y115.161 E0.63185
G1 F8640.000
G1 X114.442 Y109.401 E-1.33000
G1 E-0.07000 F2100.00000
G1 Z0.400 F10800.000
G1 X135.558 Y115.161
G1 Z0.200
G1 E1.40000 F2100.00000
G1 F600.000
G1 X135.558 Y95.009 E0.63185
G1 X136.312 Y95.009 E0.02365
G1 X136.312 Y114.991 E0.62653
G1 X137.067 Y114.991 E0.02365
G1 X137.067 Y95.009 E0.62653
G1 X137.821 Y95.009 E0.02365
G1 X137.821 Y114.991 E0.62653
G1 X138.575 Y114.991 E0.02365
G1 X138.575 Y95.009 E0.62653
G1 X139.329 Y95.009 E0.02365
G1 X139.329 Y115.161 E0.63185
G1 F8640.000
G1 X139.329 Y109.401 E-1.33000
G1 E-0.07000 F2100.00000
G1 Z0.400 F10800.000
G1 X127.390 Y115.000
G1 Z0.200
G1 E1.40000 F2100.00000
G1 F600.000
G1 X127.354 Y115.415 E0.01307
G1 X127.246 Y115.817 E0.01306
G1 X127.070 Y116.195 E0.01306
G1 X126.831 Y116.536 E0.01307
G1 X126.536 Y116.831 E0.01306
G1 X126.195 Y117.070 E0.01306
G1 X125.817 Y117.246 E0.01307
G1 X125.415 Y117.354 E0.01306
G1 X125.000 Y117.390 E0.01306
G1 X124.585 Y117.354 E0.01306
G1 X124.183 Y117.246 E0.01306
G1 X123.805 Y117.070 E0.01307
G1 X123.464 Y116.831 E0.01306
G1 X123.169 Y116.536 E0.01306
G1 X122.930 Y116.195 E0.01307
G1 X122.754 Y115.817 E0.01306
G1 X122.646 Y115.415 E0.01306
G1 X122.610 Y115.000 E0.01307
G1 X122.646 Y114.585 E0.01307
G1 X122.754 Y114.183 E0.01306
G1 X122.930 Y113.805 E0.01306
G1 X123.169 Y113.464 E0.01307
G1 X123.464 Y113.169 E0.01306
G1 X123.805 Y112.930 E0.01306
G1 X124.183 Y112.754 E0.01307
G1 X124.585 Y112.646 E0.01306
G1 X124.969 Y112.613 E0.01210
G1 X125.411 Y112.645 E0.01389
G1 X125.817 Y112.754 E0.01319
G1 X126.195 Y112.930 E0.01307
G1 X126.536 Y113.169 E0.01306
G1 X126.831 Y113.464 E0.01306
G1 X127.070 Y113.805 E0.01307
G1 X127.246 Y114.183 E0.01306
G1 X127.354 Y114.585 E0.01306
G1 X127.385 Y114.940 E0.01118
G1 X127.009 Y114.973 F10800.000
G1 F600.000
G1 X126.981 Y115.349 E0.01183
G1 X126.890 Y115.688 E0.01099
G1 X126.742 Y116.006 E0.01099
G1 X126.541 Y116.293 E0.01100
G1 X126.293 Y116.541 E0.01099
G1 X126.006 Y116.742 E0.01099
G1 X125.688 Y116.890 E0.01100
G1 X125.349 Y116.981 E0.01099
G1 X125.000 Y117.012 E0.01099
G1 X124.651 Y116.981 E0.01099
G1 X124.312 Y116.890 E0.01099
G1 X123.994 Y116.742 E0.01100
G1 X123.707 Y116.541 E0.01099
G1 X123.459 Y116.293 E0.01099
G1 X123.258 Y116.006 E0.01100
G1 X123.110 Y115.688 E0.01099
G1 X123.019 Y115.349 E0.01099
G1 X122.988 Y115.000 E0.01100
G1 X123.019 Y114.651 E0.01100
G1 X123.110 Y114.312 E0.01099
G1 X123.258 Y113.994 E0.01099
G1 X123.459 Y113.707 E0.01100
G1 X123.707 Y113.459 E0.01099
G1 X123.994 Y113.258 E0.01099
G1 X124.312 Y113.110 E0.01100
G1 X124.651 Y113.019 E0.01099
G1 X124.972 Y112.991 E0.01011
G1 X125.348 Y113.019 E0.01182
G1 X125.688 Y113.110 E0.01104
G1 X126.006 Y113.258 E0.01100
G1 X126.293 Y113.459 E0.01099
G1 X126.541 Y113.707 E0.01099
G1 X126.742 Y113.994 E0.01100
G1 X126.890 Y114.312 E0.01099
G1 X126.981 Y114.651 E0.01099
G1 X127.004 Y114.913 E0.00827
G1 X127.338 Y115.159 F10800.000
G1 F8640.000
G1 X126.981 Y115.349 E-0.10082
G1 X126.890 Y115.688 E-0.08094
G1 X126.742 Y116.006 E-0.08094
G1 X126.541 Y116.293 E-0.08101
G1 X126.293 Y116.541 E-0.08096
G1 X126.006 Y116.742 E-0.08095
G1 X125.688 Y116.890 E-0.08098
G1 X125.349 Y116.981 E-0.08096
G1 X125.000 Y117.012 E-0.08096
G1 X124.651 Y116.981 E-0.08097
G1 X124.312 Y116.890 E-0.08093
G1 X123.994 Y116.742 E-0.08100
G1 X123.707 Y116.541 E-0.08096
G1 X123.459 Y116.293 E-0.08096
G1 X123.258 Y116.006 E-0.08101
G1 X123.110 Y115.688 E-0.08094
G1 X123.093 Y115.626 E-0.01472
G1 E-0.07000 F2100.00000
G1 Z0.400 F10800.000
G1 X125.415 Y97.354
G1 Z0.200
G1 E1.40000 F2100.00000
G1 F600.000
G1 X125.000 Y97.390 E0.01306
G1 X124.585 Y97.354 E0.01306
G1 X124.183 Y97.246 E0.01306
G1 X123.805 Y97.070 E0.01307
G1 X123.464 Y96.831 E0.01306
G1 X123.169 Y96.536 E0.01306
G1 X122.930 Y96.195 E0.01307
G1 X122.754 Y95.817 E0.01306
G1 X122.646 Y95.415 E0.01306
G1 X122.610 Y95.000 E0.01307
G1 X122.646 Y94.585 E0.01307
G1 X122.754 Y94.183 E0.01306
G1 X122.930 Y93.805 E0.01306
G1 X123.169 Y93.464 E0.01307
G1 X123.464 Y93.169 E0.01306
G1 X123.805 Y92.930 E0.01306
G1 X124.183 Y92.754 E0.01307
G1 X124.585 Y92.646 E0.01306
G1 X124.969 Y92.613 E0.01210
G1 X125.411 Y92.645 E0.01389
G1 X125.817 Y92.754 E0.01319
G1 X126.195 Y92.930 E0.01307
G1 X126.536 Y93.169 E0.01306
G1 X126.831 Y93.464 E0.01306
G1 X127.070 Y93.805 E0.01307
G1 X127.246 Y94.183 E0.01306
G1 X127.354 Y94.585 E0.01306
G1 X127.390 Y95.000 E0.01307
G1 X127.354 Y95.415 E0.01307
G1 X127.246 Y95.817 E0.01306
G1 X127.070 Y96.195 E0.01306
G1 X126.831 Y96.536 E0.01307
G1 X126.536 Y96.831 E0.01306
G1 X126.195 Y97.070 E0.01306
G1 X125.817 Y97.246 E0.01307
G1 X125.473 Y97.338 E0.01118
G1 X125.375 Y96.974 F10800.000
G1 F600.000
G1 X125.000 Y97.012 E0.01183
G1 X124.651 Y96.981 E0.01099
G1 X124.312 Y96.890 E0.01099
G1 X123.994 Y96.742 E0.01100
G1 X123.707 Y96.541 E0.01099
G1 X123.459 Y96.293 E0.01099
G1 X123.258 Y96.006 E0.01100
G1 X123.110 Y95.688 E0.01099
G1 X123.019 Y95.349 E0.01099
G1 X122.988 Y95.000 E0.01100
G1 X123.019 Y94.651 E0.01100
G1 X123.110 Y94.312 E0.01099
G1 X123.258 Y93.994 E0.01099
G1 X123.459 Y93.707 E0.01100
G1 X123.707 Y93.459 E0.01099
G1 X123.994 Y93.258 E0.01099
G1 X124.312 Y93.110 E0.01100
G1 X124.651 Y93.019 E0.01099
G1 X124.972 Y92.991 E0.01011
G1 X125.348 Y93.019 E0.01182
G1 X125.688 Y93.110 E0.01104
G1 X126.006 Y93.258 E0.01100
G1 X126.293 Y93.459 E0.01099
G1 X126.541 Y93.707 E0.01099
G1 X126.742 Y93.994 E0.01100
G1 X126.890 Y94.312 E0.01099
G1 X126.981 Y94.651 E0.01099
G1 X127.012 Y95.000 E0.01100
G1 X126.981 Y95.349 E0.01100
G1 X126.890 Y95.688 E0.01099
G1 X126.742 Y96.006 E0.01099
G1 X126.541 Y96.293 E0.01100
G1 X126.293 Y96.541 E0.01099
G1 X126.006 Y96.742 E0.01099
G1 X125.688 Y96.890 E0.01100
G1 X125.433 Y96.958 E0.00827
G1 X125.250 Y97.330 F10800.000
G1 F8640.000
G1 X125.000 Y97.012 E-0.10081
G1 X124.651 Y96.981 E-0.08097
G1 X124.312 Y96.890 E-0.08093
G1 X123.994 Y96.742 E-0.08100
G1 X123.707 Y96.541 E-0.08096
G1 X123.459 Y96.293 E-0.08096
G1 X123.258 Y96.006 E-0.08101
G1 X123.110 Y95.688 E-0.08094
G1 X123.019 Y95.349 E-0.08094
G1 X122.988 Y95.000 E-0.08097
G1 X123.019 Y94.651 E-0.08097
G1 X123.110 Y94.312 E-0.08094
G1 X123.258 Y93.994 E-0.08094
G1 X123.459 Y93.707 E-0.08101
G1 X123.707 Y93.459 E-0.08096
G1 X123.994 Y93.258 E-0.08096
G1 X124.052 Y93.231 E-0.01474
G1 E-0.07000 F2100.00000
G1 Z0.400 F10800.000
G1 X134.213 Y90.787
G1 Z0.200
G1 E1.40000 F2100.00000
G1 F600.000
G1 X134.213 Y119.213 E0.89127
G1 X115.787 Y119.213 E0.57773
G1 X115.787 Y90.787 E0.89127
G1 X134.153 Y90.787 E0.57585
G1 X134.590 Y90.410 F10800.000
G1 F600.000
G1 X134.590 Y119.590 E0.91492
G1 X115.410 Y119.590 E0.60138
G1 X115.410 Y90.410 E0.91492
G1 X134.530 Y90.410 E0.59949
G1 X134.513 Y90.803 F10800.000
G1 F8640.000
G1 X134.542 Y96.170 E-1.33000
G1 E-0.07000 F2100.00000
G1 Z0.400 F10800.000
G1 X134.100 Y91.664
G1 Z0.200
G1 E1.40000 F2100.00000
G1 F600.000
G1 X133.506 Y91.070 E0.02638
G1 X132.972 Y91.070 E0.01678
G1 X133.930 Y92.028 E0.04257
G1 X133.930 Y92.563 E0.01678
G1 X132.437 Y91.070 E0.06630
G1 X131.903 Y91.070 E0.01678
G1 X133.930 Y93.097 E0.09003
G1 X133.930 Y93.631 E0.01678
G1 X131.369 Y91.070 E0.11376
G1 X130.835 Y91.070 E0.01678
G1 X133.930 Y94.165 E0.13748
G1 X133.930 Y94.699 E0.01678
G1 X130.301 Y91.070 E0.16121
G1 X129.767 Y91.070 E0.01678
G1 X133.930 Y95.233 E0.18494
G1 X133.930 Y95.768 E0.01678
G1 X129.232 Y91.070 E0.20867
G1 X128.698 Y91.070 E0.01678
G1 X133.930 Y96.302 E0.23240
M73 Q5 S20
G1 X133.930 Y96.836 E0.01678
G1 X128.164 Y91.070 E0.25612
M73 P5 R20
G1 X127.630 Y91.070 E0.01678
G1 X133.930 Y97.370 E0.27985
G1 X133.930 Y97.904 E0.01678
G1 X127.096 Y91.070 E0.30358
G1 X126.561 Y91.070 E0.01678
G1 X133.930 Y98.439 E0.32731
G1 X133.930 Y98.973 E0.01678
G1 X126.027 Y91.070 E0.35103
G1 X125.493 Y91.070 E0.01678
G1 X133.930 Y99.507 E0.37476
G1 X133.930 Y100.041 E0.01678
G1 X124.959 Y91.070 E0.39849
G1 X124.425 Y91.070 E0.01678
G1 X125.815 Y92.461 E0.06178
G1 X125.459 Y92.365 E0.01161
G1 X125.164 Y92.343 E0.00928
G1 X123.890 Y91.070 E0.05657
G1 X123.356 Y91.070 E0.01678
G1 X124.644 Y92.357 E0.05718
G1 X124.536 Y92.367 E0.00340
G1 X124.207 Y92.455 E0.01069
G1 X122.822 Y91.070 E0.06151
G1 X122.288 Y91.070 E0.01678
G1 X123.826 Y92.608 E0.06833
G1 X123.663 Y92.684 E0.00565
G1 X123.490 Y92.806 E0.00665
G1 X121.754 Y91.070 E0.07710
G1 X121.219 Y91.070 E0.01678
G1 X123.191 Y93.042 E0.08758
G1 X122.929 Y93.314 E0.01187
G1 X120.685 Y91.070 E0.09966
G1 X120.151 Y91.070 E0.01678
G1 X122.709 Y93.628 E0.11361
G1 X122.534 Y93.987 E0.01254
G1 X119.617 Y91.070 E0.12955
G1 X119.083 Y91.070 E0.01678
G1 X122.405 Y94.392 E0.14758
G1 X122.367 Y94.536 E0.00466
G1 X122.338 Y94.860 E0.01022
G1 X118.548 Y91.070 E0.16834
G1 X118.014 Y91.070 E0.01678
G1 X122.591 Y95.647 E0.20330
G1 F8640.000
G1 X118.518 Y91.574 E-1.33000
G1 E-0.07000 F2100.00000
G1 Z0.400 F10800.000
G1 X124.353 Y97.409
G1 Z0.200
G1 E1.40000 F2100.00000
G1 F600.000
G1 X133.930 Y106.986 E0.42539
G1 X133.930 Y106.451 E0.01678
G1 X125.140 Y97.662 E0.39043
G1 X125.464 Y97.633 E0.01022
G1 X125.608 Y97.595 E0.00466
G1 X133.930 Y105.917 E0.36967
G1 X133.930 Y105.383 E0.01678
G1 X126.014 Y97.467 E0.35164
G1 X126.372 Y97.291 E0.01254
G1 X133.930 Y104.849 E0.33571
G1 X133.930 Y104.315 E0.01678
G1 X126.686 Y97.071 E0.32175
G1 X126.958 Y96.809 E0.01187
G1 X133.930 Y103.781 E0.30967
G1 X133.930 Y103.246 E0.01678
G1 X127.194 Y96.511 E0.29919
G1 X127.316 Y96.337 E0.00666
G1 X127.392 Y96.174 E0.00564
G1 X133.930 Y102.712 E0.29042
G1 X133.930 Y102.178 E0.01678
G1 X127.545 Y95.793 E0.28361
G1 X127.633 Y95.464 E0.01069
G1 X127.643 Y95.356 E0.00341
G1 X133.930 Y101.644 E0.27927
G1 X133.930 Y101.110 E0.01678
G1 X127.660 Y94.839 E0.27851
G1 X127.633 Y94.536 E0.00958
G1 X127.539 Y94.184 E0.01142
G1 X134.100 Y100.745 E0.29141
G1 F8640.000
G1 X130.027 Y96.672 E-1.33000
G1 E-0.07000 F2100.00000
G1 Z0.400 F10800.000
G1 X134.100 Y107.690
G1 Z0.200
G1 E1.40000 F2100.00000
G1 F600.000
G1 X117.480 Y91.070 E0.73822
G1 X116.946 Y91.070 E0.01678
G1 X133.930 Y108.054 E0.75441
G1 X133.930 Y108.588 E0.01678
G1 X116.412 Y91.070 E0.77813
G1 X116.070 Y91.070 E0.01074
G1 X116.070 Y91.262 E0.00604
G1 X133.930 Y109.122 E0.79332
G1 X133.930 Y109.657 E0.01678
G1 X116.070 Y91.796 E0.79332
G1 X116.070 Y92.331 E0.01678
G1 X133.930 Y110.191 E0.79332
G1 X133.930 Y110.725 E0.01678
G1 X116.070 Y92.865 E0.79332
G1 X116.070 Y93.399 E0.01678
G1 X133.930 Y111.259 E0.79332
G1 X133.930 Y111.793 E0.01678
G1 X116.070 Y93.933 E0.79332
G1 X116.070 Y94.467 E0.01678
G1 X133.930 Y112.328 E0.79332
G1 X133.930 Y112.862 E0.01678
G1 X116.070 Y95.002 E0.79332
G1 X116.070 Y95.536 E0.01678
G1 X133.930 Y113.396 E0.79332
G1 X133.930 Y113.930 E0.01678
G1 X116.070 Y96.070 E0.79332
M73 Q10 S19
G1 X116.070 Y96.604 E0.01678
G1 X133.930 Y114.464 E0.79332
M73 P10 R19
G1 X133.930 Y114.999 E0.01678
G1 X116.070 Y97.138 E0.79332
G1 X116.070 Y97.672 E0.01678
G1 X133.930 Y115.533 E0.79332
G1 X133.930 Y116.067 E0.01678
G1 X116.070 Y98.207 E0.79332
G1 X116.070 Y98.741 E0.01678
G1 X133.930 Y116.601 E0.79332
G1 X133.930 Y117.135 E0.01678
G1 X116.070 Y99.275 E0.79332
G1 X116.070 Y99.809 E0.01678
G1 X133.930 Y117.670 E0.79332
G1 X133.930 Y118.204 E0.01678
G1 X116.070 Y100.343 E0.79332
G1 X116.070 Y100.878 E0.01678
G1 X133.930 Y118.738 E0.79332
G1 X133.930 Y118.930 E0.00604
G1 X133.588 Y118.930 E0.01074
G1 X116.070 Y101.412 E0.77813
G1 X116.070 Y101.946 E0.01678
G1 X133.054 Y118.930 E0.75440
G1 X132.520 Y118.930 E0.01678
G1 X116.070 Y102.480 E0.73067
G1 X116.070 Y103.014 E0.01678
G1 X125.418 Y112.362 E0.41521
G1 X124.967 Y112.329 E0.01418
G1 X124.860 Y112.338 E0.00340
G1 X116.070 Y103.549 E0.39042
G1 X116.070 Y104.083 E0.01678
G1 X124.392 Y112.405 E0.36966
G1 X124.086 Y112.487 E0.00997
G1 X123.986 Y112.534 E0.00344
G1 X116.070 Y104.617 E0.35164
G1 X116.070 Y105.151 E0.01678
G1 X123.628 Y112.709 E0.33570
G1 X123.314 Y112.929 E0.01205
G1 X116.070 Y105.685 E0.32175
G1 X116.070 Y106.220 E0.01678
G1 X123.042 Y113.191 E0.30967
G1 X122.952 Y113.281 E0.00399
G1 X122.806 Y113.490 E0.00799
G1 X116.070 Y106.754 E0.29919
G1 X116.070 Y107.288 E0.01678
G1 X122.608 Y113.826 E0.29042
G1 X122.487 Y114.086 E0.00899
G1 X122.455 Y114.207 E0.00395
G1 X116.070 Y107.822 E0.28361
G1 X116.070 Y108.356 E0.01678
G1 X122.357 Y114.644 E0.27927
G1 X122.326 Y115.000 E0.01123
G1 X122.340 Y115.161 E0.00507
G1 X116.070 Y108.891 E0.27851
G1 X116.070 Y109.425 E0.01678
G1 X122.461 Y115.816 E0.28388
G1 X122.487 Y115.914 E0.00321
G1 X122.684 Y116.337 E0.01464
G1 X122.952 Y116.719 E0.01465
G1 X123.281 Y117.048 E0.01464
G1 X123.663 Y117.316 E0.01464
G1 X124.086 Y117.513 E0.01464
G1 X124.184 Y117.539 E0.00321
G1 X125.575 Y118.930 E0.06178
G1 X126.109 Y118.930 E0.01678
G1 X124.839 Y117.660 E0.05642
G1 X125.000 Y117.674 E0.00507
G1 X125.356 Y117.643 E0.01124
G1 X126.644 Y118.930 E0.05718
G1 X127.178 Y118.930 E0.01678
G1 X125.793 Y117.545 E0.06151
G1 X125.915 Y117.513 E0.00395
G1 X126.174 Y117.392 E0.00898
G1 X127.712 Y118.930 E0.06833
G1 X128.246 Y118.930 E0.01678
G1 X126.510 Y117.194 E0.07710
G1 X126.719 Y117.048 E0.00799
G1 X126.809 Y116.958 E0.00400
G1 X128.780 Y118.930 E0.08758
G1 X129.315 Y118.930 E0.01678
G1 X127.071 Y116.686 E0.09966
G1 X127.291 Y116.372 E0.01205
G1 X129.849 Y118.930 E0.11361
G1 X130.383 Y118.930 E0.01678
G1 X127.466 Y116.014 E0.12955
G1 X127.513 Y115.914 E0.00344
G1 X127.595 Y115.608 E0.00997
G1 X130.917 Y118.930 E0.14757
G1 X131.451 Y118.930 E0.01678
G1 X127.662 Y115.140 E0.16833
G1 X127.674 Y115.000 E0.00443
G1 X127.637 Y114.582 E0.01318
G1 X132.155 Y119.100 E0.20068
G1 F8640.000
G1 X128.082 Y115.027 E-1.33000
G1 E-0.07000 F2100.00000
G1 Z0.400 F10800.000
G1 X125.211 Y119.100
G1 Z0.200
G1 E1.40000 F2100.00000
G1 F600.000
G1 X116.070 Y109.959 E0.40602
G1 X116.070 Y110.493 E0.01678
G1 X124.507 Y118.930 E0.37476
G1 X123.973 Y118.930 E0.01678
G1 X116.070 Y111.027 E0.35103
G1 X116.070 Y111.561 E0.01678
G1 X123.439 Y118.930 E0.32730
G1 X122.904 Y118.930 E0.01678
G1 X116.070 Y112.096 E0.30357
G1 X116.070 Y112.630 E0.01678
G1 X122.370 Y118.930 E0.27985
G1 X121.836 Y118.930 E0.01678
G1 X116.070 Y113.164 E0.25612
G1 X116.070 Y113.698 E0.01678
G1 X121.302 Y118.930 E0.23239
G1 X120.768 Y118.930 E0.01678
G1 X116.070 Y114.232 E0.20866
G1 X116.070 Y114.767 E0.01678
