; generated by PrusaSlicer 2.2.0+win64 on 2022-11-21 at 01:56:18 UTC

; 

; external perimeters extrusion width = 0.60mm
; perimeters extrusion width = 0.50mm
; infill extrusion width = 0.50mm
; solid infill extrusion width = 0.50mm
; top infill extrusion width = 0.45mm
; support material extrusion width = 0.38mm
; first layer extrusion width = 0.42mm

M73 P0 R90
M73 Q0 S91
M201 X1000 Y1000 Z1000 E5000 ; sets maximum accelerations, mm/sec^2
M203 X200 Y200 Z12 E120 ; sets maximum feedrates, mm/sec
M204 P1250 R1250 T1250 ; sets acceleration (P, T) and retract acceleration (R), mm/sec^2
M205 X8.00 Y8.00 Z0.40 E4.50 ; sets the jerk limits, mm/sec
M205 S0 T0 ; sets the minimum extruding and travel feed rate, mm/sec
M107
M862.3 P "MK3S" ; printer model check
M862.1 P0.4 ; nozzle diameter check
M115 U3.8.1 ; tell printer latest fw version
G90 ; use absolute coordinates
M83 ; extruder relative mode
M104 S240 ; set extruder temp
M140 S85 ; set bed temp
M190 S85 ; wait for bed temp
M109 S240 ; wait for extruder temp
G28 W ; home all without mesh bed level
G80 ; mesh bed leveling
G1 Y-3.0 F1000.0 ; go outside print area
G92 E0.0
G1 X60.0 E9.0 F1000.0 ; intro line
M73 Q0 S91
M73 P0 R90
G1 X100.0 E12.5 F1000.0 ; intro line
G92 E0.0
M221 S95
G21 ; set units to millimeters
G90 ; use absolute coordinates
M83 ; use relative distances for extrusion
M900 K45 ; Filament gcode
;BEFORE_LAYER_CHANGE
G92 E0.0
;0.2


G1 E-1.40000 F2100.00000
G1 Z0.200 F10800.000
;AFTER_LAYER_CHANGE
;0.2
G1 Z0.400
G1 X137.324 Y124.005
G1 Z0.200
G1 E1.40000 F2100.00000
M204 S1000
G1 F600.000
G1 X137.755 Y123.574 E0.01909
G1 X138.254 Y123.225 E0.01909
G1 X138.805 Y122.968 E0.01909
G1 X139.393 Y122.810 E0.01909
G1 X140.000 Y122.757 E0.01909
G1 X140.607 Y122.810 E0.01909
G1 X141.195 Y122.968 E0.01909
G1 X141.746 Y123.225 E0.01909
G1 X142.245 Y123.574 E0.01909
G1 X142.676 Y124.005 E0.01909
G1 X143.025 Y124.504 E0.01909
G1 X143.282 Y125.055 E0.01909
G1 X143.440 Y125.643 E0.01909
G1 X143.493 Y126.250 E0.01909
G1 X143.440 Y126.857 E0.01909
G1 X143.282 Y127.445 E0.01909
G1 X143.025 Y127.996 E0.01909
G1 X142.676 Y128.495 E0.01909
G1 X142.245 Y128.926 E0.01909
G1 X141.746 Y129.275 E0.01909
G1 X141.404 Y129.434 E0.01183
G1 X141.195 Y129.532 E0.00726
G1 X140.607 Y129.690 E0.01909
G1 X140.000 Y129.743 E0.01909
G1 X139.393 Y129.690 E0.01909
G1 X138.805 Y129.532 E0.01909
G1 X138.254 Y129.275 E0.01909
G1 X137.755 Y128.926 E0.01909
G1 X137.324 Y128.495 E0.01909
G1 X136.975 Y127.996 E0.01909
G1 X136.718 Y127.445 E0.01909
G1 X136.560 Y126.857 E0.01909
G1 X136.507 Y126.250 E0.01909
G1 X136.560 Y125.643 E0.01909
G1 X136.718 Y125.055 E0.01909
G1 X136.975 Y124.504 E0.01909
G1 X137.290 Y124.054 E0.01721
G1 X137.599 Y124.270 F10800.000
G1 F600.000
G1 X137.998 Y123.864 E0.01786
G1 X138.443 Y123.553 E0.01702
G1 X138.935 Y123.323 E0.01702
G1 X139.459 Y123.183 E0.01702
G1 X140.000 Y123.136 E0.01702
G1 X140.541 Y123.183 E0.01702
G1 X141.065 Y123.323 E0.01702
G1 X141.557 Y123.553 E0.01702
G1 X142.002 Y123.864 E0.01702
G1 X142.386 Y124.248 E0.01702
G1 X142.697 Y124.693 E0.01702
G1 X142.927 Y125.185 E0.01702
G1 X143.067 Y125.709 E0.01702
G1 X143.114 Y126.250 E0.01702
G1 X143.067 Y126.791 E0.01702
G1 X142.927 Y127.315 E0.01702
G1 X142.697 Y127.807 E0.01702
G1 X142.386 Y128.252 E0.01702
G1 X142.002 Y128.636 E0.01702
G1 X141.557 Y128.947 E0.01702
G1 X141.245 Y129.093 E0.01080
G1 X141.065 Y129.177 E0.00623
G1 X140.541 Y129.317 E0.01702
G1 X140.000 Y129.364 E0.01702
G1 X139.459 Y129.317 E0.01702
G1 X138.935 Y129.177 E0.01702
G1 X138.443 Y128.947 E0.01702
G1 X137.998 Y128.636 E0.01702
G1 X137.614 Y128.252 E0.01702
G1 X137.303 Y127.807 E0.01702
G1 X137.073 Y127.315 E0.01702
G1 X136.933 Y126.791 E0.01702
G1 X136.886 Y126.250 E0.01702
G1 X136.933 Y125.709 E0.01702
G1 X137.073 Y125.185 E0.01702
G1 X137.303 Y124.693 E0.01702
G1 X137.564 Y124.319 E0.01429
G1 X137.460 Y123.895 F10800.000
G1 F8640.000
G1 X137.998 Y123.864 E-0.14518
G1 X138.443 Y123.553 E-0.12535
G1 X138.935 Y123.323 E-0.12535
G1 X139.459 Y123.183 E-0.12535
G1 X140.000 Y123.136 E-0.12535
G1 X140.541 Y123.183 E-0.12535
G1 X141.065 Y123.323 E-0.12535
G1 X141.557 Y123.553 E-0.12535
G1 X142.002 Y123.864 E-0.12535
G1 X142.386 Y124.248 E-0.12535
G1 X142.527 Y124.449 E-0.05665
G1 E-0.07000 F2100.00000
G1 Z0.400 F10800.000
G1 X113.493 Y126.250
G1 Z0.200
G1 E1.40000 F2100.00000
G1 F600.000
G1 X113.440 Y126.857 E0.01909
G1 X113.282 Y127.445 E0.01909
G1 X113.025 Y127.996 E0.01909
G1 X112.676 Y128.495 E0.01909
G1 X112.245 Y128.926 E0.01909
G1 X111.746 Y129.275 E0.01909
G1 X111.404 Y129.434 E0.01183
G1 X111.195 Y129.532 E0.00726
G1 X110.607 Y129.690 E0.01909
G1 X110.000 Y129.743 E0.01909
G1 X109.393 Y129.690 E0.01909
G1 X108.805 Y129.532 E0.01909
G1 X108.254 Y129.275 E0.01909
G1 X107.755 Y128.926 E0.01909
G1 X107.324 Y128.495 E0.01909
G1 X106.975 Y127.996 E0.01909
G1 X106.718 Y127.445 E0.01909
G1 X106.560 Y126.857 E0.01909
G1 X106.507 Y126.250 E0.01909
G1 X106.560 Y125.643 E0.01909
G1 X106.718 Y125.055 E0.01909
G1 X106.975 Y124.504 E0.01909
G1 X107.324 Y124.005 E0.01909
G1 X107.755 Y123.574 E0.01909
G1 X108.254 Y123.225 E0.01909
G1 X108.805 Y122.968 E0.01909
G1 X109.393 Y122.810 E0.01909
G1 X110.000 Y122.757 E0.01909
G1 X110.607 Y122.810 E0.01909
G1 X111.195 Y122.968 E0.01909
G1 X111.746 Y123.225 E0.01909
G1 X112.245 Y123.574 E0.01909
G1 X112.676 Y124.005 E0.01909
G1 X113.025 Y124.504 E0.01909
G1 X113.282 Y125.055 E0.01909
G1 X113.440 Y125.643 E0.01909
G1 X113.488 Y126.190 E0.01721
G1 X113.112 Y126.223 F10800.000
G1 F600.000
G1 X113.067 Y126.791 E0.01786
G1 X112.927 Y127.315 E0.01702
G1 X112.697 Y127.807 E0.01702
G1 X112.386 Y128.252 E0.01702
G1 X112.002 Y128.636 E0.01702
G1 X111.557 Y128.947 E0.01702
G1 X111.245 Y129.093 E0.01080
G1 X111.065 Y129.177 E0.00623
G1 X110.541 Y129.317 E0.01702
G1 X110.000 Y129.364 E0.01702
G1 X109.459 Y129.317 E0.01702
G1 X108.935 Y129.177 E0.01702
G1 X108.443 Y128.947 E0.01702
G1 X107.998 Y128.636 E0.01702
G1 X107.614 Y128.252 E0.01702
G1 X107.303 Y127.807 E0.01702
G1 X107.073 Y127.315 E0.01702
G1 X106.933 Y126.791 E0.01702
G1 X106.886 Y126.250 E0.01702
G1 X106.933 Y125.709 E0.01702
G1 X107.073 Y125.185 E0.01702
G1 X107.303 Y124.693 E0.01702
G1 X107.614 Y124.248 E0.01702
G1 X107.998 Y123.864 E0.01702
G1 X108.443 Y123.553 E0.01702
G1 X108.935 Y123.323 E0.01702
G1 X109.459 Y123.183 E0.01702
G1 X110.000 Y123.136 E0.01702
G1 X110.541 Y123.183 E0.01702
G1 X111.065 Y123.323 E0.01702
G1 X111.557 Y123.553 E0.01702
G1 X112.002 Y123.864 E0.01702
G1 X112.386 Y124.248 E0.01702
G1 X112.697 Y124.693 E0.01702
G1 X112.927 Y125.185 E0.01702
G1 X113.067 Y125.709 E0.01702
G1 X113.107 Y126.163 E0.01429
G1 X113.460 Y126.421 F10800.000
G1 F8640.000
G1 X113.067 Y126.791 E-0.14518
G1 X112.927 Y127.315 E-0.12535
G1 X112.697 Y127.807 E-0.12535
G1 X112.386 Y128.252 E-0.12536
G1 X112.002 Y128.636 E-0.12535
G1 X111.557 Y128.947 E-0.12535
G1 X111.245 Y129.093 E-0.07951
G1 X111.065 Y129.177 E-0.04585
G1 X110.541 Y129.317 E-0.12535
G1 X110.000 Y129.364 E-0.12535
G1 X109.459 Y129.317 E-0.12535
G1 X109.222 Y129.254 E-0.05666
G1 E-0.07000 F2100.00000
G1 Z0.400 F10800.000
G1 X110.000 Y87.243
G1 Z0.200
G1 E1.40000 F2100.00000
G1 F600.000
G1 X109.393 Y87.190 E0.01909
G1 X108.805 Y87.032 E0.01909
G1 X108.254 Y86.775 E0.01909
G1 X107.755 Y86.426 E0.01909
G1 X107.324 Y85.995 E0.01909
G1 X106.975 Y85.496 E0.01909
G1 X106.816 Y85.154 E0.01183
G1 X106.718 Y84.945 E0.00726
G1 X106.560 Y84.357 E0.01909
G1 X106.507 Y83.750 E0.01909
G1 X106.560 Y83.143 E0.01909
G1 X106.718 Y82.555 E0.01909
G1 X106.975 Y82.004 E0.01909
G1 X107.324 Y81.505 E0.01909
G1 X107.755 Y81.074 E0.01909
G1 X108.254 Y80.725 E0.01909
G1 X108.805 Y80.468 E0.01909
G1 X109.393 Y80.310 E0.01909
G1 X110.000 Y80.257 E0.01909
G1 X110.607 Y80.310 E0.01909
G1 X111.195 Y80.468 E0.01909
G1 X111.746 Y80.725 E0.01909
G1 X112.245 Y81.074 E0.01909
G1 X112.676 Y81.505 E0.01909
G1 X113.025 Y82.004 E0.01909
G1 X113.282 Y82.555 E0.01909
G1 X113.440 Y83.143 E0.01909
G1 X113.493 Y83.750 E0.01909
G1 X113.440 Y84.357 E0.01909
G1 X113.282 Y84.945 E0.01909
G1 X113.025 Y85.496 E0.01909
G1 X112.676 Y85.995 E0.01909
G1 X112.245 Y86.426 E0.01909
G1 X111.746 Y86.775 E0.01909
G1 X111.195 Y87.032 E0.01909
G1 X110.607 Y87.190 E0.01909
G1 X110.060 Y87.238 E0.01721
G1 X110.027 Y86.862 F10800.000
G1 F600.000
G1 X109.459 Y86.817 E0.01786
G1 X108.935 Y86.677 E0.01702
G1 X108.443 Y86.447 E0.01702
G1 X107.998 Y86.136 E0.01702
G1 X107.614 Y85.752 E0.01702
G1 X107.303 Y85.307 E0.01702
G1 X107.157 Y84.995 E0.01080
G1 X107.073 Y84.815 E0.00623
G1 X106.933 Y84.291 E0.01702
G1 X106.886 Y83.750 E0.01702
G1 X106.933 Y83.209 E0.01702
G1 X107.073 Y82.685 E0.01702
G1 X107.303 Y82.193 E0.01702
G1 X107.614 Y81.748 E0.01702
G1 X107.998 Y81.364 E0.01702
G1 X108.443 Y81.053 E0.01702
G1 X108.935 Y80.823 E0.01702
G1 X109.459 Y80.683 E0.01702
G1 X110.000 Y80.636 E0.01702
G1 X110.541 Y80.683 E0.01702
G1 X111.065 Y80.823 E0.01702
G1 X111.557 Y81.053 E0.01702
G1 X112.002 Y81.364 E0.01702
G1 X112.386 Y81.748 E0.01702
G1 X112.697 Y82.193 E0.01702
G1 X112.927 Y82.685 E0.01702
G1 X113.067 Y83.209 E0.01702
G1 X113.114 Y83.750 E0.01702
G1 X113.067 Y84.291 E0.01702
G1 X112.927 Y84.815 E0.01702
G1 X112.697 Y85.307 E0.01702
G1 X112.386 Y85.752 E0.01702
G1 X112.002 Y86.136 E0.01702
G1 X111.557 Y86.447 E0.01702
G1 X111.065 Y86.677 E0.01702
G1 X110.541 Y86.817 E0.01702
G1 X110.087 Y86.857 E0.01429
G1 X109.829 Y87.210 F10800.000
G1 F8640.000
G1 X109.459 Y86.817 E-0.14518
G1 X108.935 Y86.677 E-0.12535
G1 X108.443 Y86.447 E-0.12535
G1 X107.998 Y86.136 E-0.12536
G1 X107.614 Y85.752 E-0.12535
G1 X107.303 Y85.307 E-0.12535
G1 X107.157 Y84.995 E-0.07951
G1 X107.073 Y84.815 E-0.04585
G1 X106.933 Y84.291 E-0.12535
G1 X106.886 Y83.750 E-0.12535
G1 X106.933 Y83.209 E-0.12535
G1 X106.996 Y82.972 E-0.05666
G1 E-0.07000 F2100.00000
G1 Z0.400 F10800.000
G1 X136.560 Y84.357
G1 Z0.200
G1 E1.40000 F2100.00000
G1 F600.000
G1 X136.507 Y83.750 E0.01909
G1 X136.560 Y83.143 E0.01909
G1 X136.718 Y82.555 E0.01909
G1 X136.975 Y82.004 E0.01909
G1 X137.324 Y81.505 E0.01909
G1 X137.755 Y81.074 E0.01909
G1 X138.254 Y80.725 E0.01909
G1 X138.805 Y80.468 E0.01909
G1 X139.393 Y80.310 E0.01909
G1 X140.000 Y80.257 E0.01909
G1 X140.607 Y80.310 E0.01909
G1 X141.195 Y80.468 E0.01909
G1 X141.746 Y80.725 E0.01909
G1 X142.245 Y81.074 E0.01909
G1 X142.676 Y81.505 E0.01909
G1 X143.025 Y82.004 E0.01909
G1 X143.282 Y82.555 E0.01909
G1 X143.440 Y83.143 E0.01909
G1 X143.493 Y83.750 E0.01909
G1 X143.440 Y84.357 E0.01909
G1 X143.282 Y84.945 E0.01909
G1 X143.025 Y85.496 E0.01909
G1 X142.676 Y85.995 E0.01909
G1 X142.245 Y86.426 E0.01909
G1 X141.746 Y86.775 E0.01909
G1 X141.195 Y87.032 E0.01909
G1 X140.607 Y87.190 E0.01909
G1 X140.000 Y87.243 E0.01909
G1 X139.393 Y87.190 E0.01909
G1 X138.805 Y87.032 E0.01909
G1 X138.254 Y86.775 E0.01909
G1 X137.755 Y86.426 E0.01909
G1 X137.324 Y85.995 E0.01909
G1 X136.975 Y85.496 E0.01909
G1 X136.718 Y84.945 E0.01909
G1 X136.576 Y84.414 E0.01721
G1 X136.940 Y84.317 F10800.000
G1 F600.000
G1 X136.886 Y83.750 E0.01786
G1 X136.933 Y83.209 E0.01702
G1 X137.073 Y82.685 E0.01702
G1 X137.303 Y82.193 E0.01702
G1 X137.614 Y81.748 E0.01702
G1 X137.998 Y81.364 E0.01702
G1 X138.443 Y81.053 E0.01702
G1 X138.935 Y80.823 E0.01702
G1 X139.459 Y80.683 E0.01702
G1 X140.000 Y80.636 E0.01702
G1 X140.541 Y80.683 E0.01702
G1 X141.065 Y80.823 E0.01702
G1 X141.557 Y81.053 E0.01702
G1 X142.002 Y81.364 E0.01702
G1 X142.386 Y81.748 E0.01702
G1 X142.697 Y82.193 E0.01702
G1 X142.927 Y82.685 E0.01702
G1 X143.067 Y83.209 E0.01702
G1 X143.114 Y83.750 E0.01702
G1 X143.067 Y84.291 E0.01702
G1 X142.927 Y84.815 E0.01702
G1 X142.697 Y85.307 E0.01702
G1 X142.386 Y85.752 E0.01702
G1 X142.002 Y86.136 E0.01702
G1 X141.557 Y86.447 E0.01702
G1 X141.065 Y86.677 E0.01702
G1 X140.541 Y86.817 E0.01702
G1 X140.000 Y86.864 E0.01702
G1 X139.459 Y86.817 E0.01702
G1 X138.935 Y86.677 E0.01702
G1 X138.443 Y86.447 E0.01702
G1 X137.998 Y86.136 E0.01702
G1 X137.614 Y85.752 E0.01702
G1 X137.303 Y85.307 E0.01702
G1 X137.073 Y84.815 E0.01702
G1 X136.955 Y84.375 E0.01429
G1 X136.563 Y84.182 F10800.000
G1 F8640.000
G1 X136.886 Y83.750 E-0.14518
G1 X136.933 Y83.209 E-0.12535
G1 X137.073 Y82.685 E-0.12535
G1 X137.303 Y82.193 E-0.12535
G1 X137.614 Y81.748 E-0.12535
G1 X137.998 Y81.364 E-0.12535
G1 X138.443 Y81.053 E-0.12535
G1 X138.935 Y80.823 E-0.12535
G1 X139.459 Y80.683 E-0.12535
G1 X140.000 Y80.636 E-0.12535
G1 X140.244 Y80.657 E-0.05666
G1 E-0.07000 F2100.00000
G1 Z0.400 F10800.000
G1 X136.955 Y68.287
G1 Z0.200
G1 E1.40000 F2100.00000
G1 F600.000
G1 X172.966 Y68.287 E1.12907
G1 X173.210 Y68.308 E0.00769
G1 X173.414 Y68.363 E0.00661
G1 X173.605 Y68.452 E0.00661
G1 X173.778 Y68.573 E0.00661
G1 X173.927 Y68.722 E0.00661
G1 X174.048 Y68.895 E0.00661
G1 X174.137 Y69.086 E0.00661
G1 X174.192 Y69.290 E0.00661
G1 X174.213 Y69.534 E0.00769
G1 X174.213 Y140.466 E2.22400
G1 X174.192 Y140.710 E0.00769
G1 X174.137 Y140.914 E0.00661
G1 X174.048 Y141.105 E0.00661
G1 X173.927 Y141.278 E0.00661
G1 X173.778 Y141.427 E0.00661
G1 X173.605 Y141.548 E0.00661
G1 X173.414 Y141.637 E0.00661
G1 X173.210 Y141.692 E0.00661
G1 X172.966 Y141.713 E0.00769
G1 X77.034 Y141.713 E3.00786
G1 X76.790 Y141.692 E0.00769
G1 X76.586 Y141.637 E0.00661
G1 X76.395 Y141.548 E0.00661
G1 X76.222 Y141.427 E0.00661
G1 X76.073 Y141.278 E0.00661
G1 X75.952 Y141.105 E0.00661
G1 X75.863 Y140.914 E0.00661
G1 X75.808 Y140.710 E0.00661
G1 X75.787 Y140.466 E0.00769
G1 X75.787 Y69.534 E2.22400
G1 X75.808 Y69.290 E0.00769
G1 X75.863 Y69.086 E0.00661
G1 X75.952 Y68.895 E0.00661
G1 X76.073 Y68.722 E0.00661
G1 X76.222 Y68.573 E0.00661
G1 X76.395 Y68.452 E0.00661
G1 X76.586 Y68.363 E0.00661
G1 X76.790 Y68.308 E0.00661
G1 X77.034 Y68.287 E0.00769
G1 X136.895 Y68.287 E1.87690
G1 X136.895 Y67.910 F10800.000
G1 F600.000
G1 X172.982 Y67.910 E1.13147
M73 Q1 S89
M73 P1 R89
G1 X173.276 Y67.936 E0.00924
G1 X173.543 Y68.007 E0.00868
G1 X173.794 Y68.124 E0.00868
G1 X174.021 Y68.283 E0.00868
G1 X174.217 Y68.479 E0.00868
G1 X174.376 Y68.706 E0.00868
G1 X174.493 Y68.957 E0.00868
G1 X174.564 Y69.224 E0.00868
G1 X174.590 Y69.518 E0.00924
G1 X174.590 Y140.482 E2.22503
G1 X174.564 Y140.776 E0.00924
G1 X174.493 Y141.043 E0.00868
G1 X174.376 Y141.294 E0.00868
G1 X174.217 Y141.521 E0.00868
G1 X174.021 Y141.717 E0.00868
G1 X173.794 Y141.876 E0.00868
G1 X173.543 Y141.993 E0.00868
G1 X173.276 Y142.064 E0.00868
G1 X172.982 Y142.090 E0.00924
G1 X77.018 Y142.090 E3.00889
G1 X76.724 Y142.064 E0.00924
G1 X76.457 Y141.993 E0.00868
G1 X76.206 Y141.876 E0.00868
G1 X75.979 Y141.717 E0.00868
G1 X75.783 Y141.521 E0.00868
G1 X75.624 Y141.294 E0.00868
G1 X75.507 Y141.043 E0.00868
G1 X75.436 Y140.776 E0.00868
G1 X75.410 Y140.482 E0.00924
G1 X75.410 Y69.518 E2.22503
G1 X75.436 Y69.224 E0.00924
G1 X75.507 Y68.957 E0.00868
G1 X75.624 Y68.706 E0.00868
G1 X75.783 Y68.479 E0.00868
G1 X75.979 Y68.283 E0.00868
G1 X76.206 Y68.124 E0.00868
G1 X76.457 Y68.007 E0.00868
G1 X76.724 Y67.936 E0.00868
G1 X77.018 Y67.910 E0.00924
G1 X136.835 Y67.910 E1.87554
G1 X137.095 Y68.256 F10800.000
G1 F8640.000
G1 X142.595 Y67.910 E-1.33000
G1 E-0.07000 F2100.00000
G1 Z0.400 F10800.000
G1 X141.602 Y80.533
G1 Z0.200
G1 E1.40000 F2100.00000
G1 F600.000
G1 X129.639 Y68.570 E0.53054
G1 X129.105 Y68.570 E0.01673
G1 X140.558 Y80.022 E0.50789
G1 X139.977 Y79.975 E0.01825
G1 X128.572 Y68.570 E0.50582
G1 X128.039 Y68.570 E0.01673
G1 X139.487 Y80.018 E0.50772
G1 X139.344 Y80.031 E0.00449
G1 X139.046 Y80.110 E0.00968
G1 X127.505 Y68.570 E0.51182
G1 X126.972 Y68.570 E0.01673
G1 X138.637 Y80.234 E0.51731
G1 X138.273 Y80.404 E0.01259
G1 X126.439 Y68.570 E0.52483
G1 X125.905 Y68.570 E0.01673
G1 X137.937 Y80.602 E0.53359
G1 X137.623 Y80.821 E0.01201
G1 X125.372 Y68.570 E0.54333
G1 X124.839 Y68.570 E0.01673
G1 X137.349 Y81.080 E0.55482
G1 X137.087 Y81.351 E0.01183
G1 X124.305 Y68.570 E0.56684
G1 X123.772 Y68.570 E0.01673
G1 X136.867 Y81.665 E0.58075
G1 X136.729 Y81.862 E0.00753
G1 X136.666 Y81.997 E0.00470
G1 X123.238 Y68.570 E0.59549
G1 X122.705 Y68.570 E0.01673
G1 X136.496 Y82.361 E0.61163
G1 X136.451 Y82.458 E0.00336
G1 X136.368 Y82.766 E0.01001
